(G-CODE GENERATED BY FLATCAM v8.994 - www.flatcam.org - Version Date: 2020/11/7)

(Name: Inverted PCB Mask_mt_paint_cnc)
(Type: G-code from Geometry)
(Units: MM)

(Created on Friday, 05 September 2025 at 11:34)

(This preprocessor is used with a motion controller loaded with GRBL firmware. )
(It is for the case when it is used together with a LASER connected on the SPINDLE connector.)

(Feedrate: 120.0 mm/min)
(Feedrate rapids: 1500.0 mm/min)

(Z Focus: 2.0 mm)
(Steps per circle: 64)
(Preprocessor Geometry: GRBL_laser)

(X range:  124.8923 ...  181.2700  mm)
(Y range: -112.5258 ...  -74.1242  mm)

(Laser Power - Spindle Speed: 5000.0)

G21
G90
G17
G94

G01 F120.00

M5
G01 F120.00
G00 X124.8923 Y-74.1242
G01 F60.00
M03 S5000.0
G01 F120.00
G01 X181.2700 Y-74.1242 F120.00
G01 X181.2700 Y-74.1644 F120.00
G01 X177.8574 Y-74.1644 F120.00
M5
G00 X177.5970 Y-74.1644
G01 F60.00
M03 S5000.0
G01 F120.00
G01 X124.8923 Y-74.1644 F120.00
G01 X124.8923 Y-74.2046 F120.00
G01 X128.2740 Y-74.2046 F120.00
M5
G00 X127.7525 Y-74.2448
G01 F60.00
M03 S5000.0
G01 F120.00
G01 X124.8923 Y-74.2448 F120.00
G01 X124.8923 Y-74.2850 F120.00
G01 X127.5440 Y-74.2850 F120.00
M5
G00 X127.3679 Y-74.3252
G01 F60.00
M03 S5000.0
G01 F120.00
G01 X124.8923 Y-74.3252 F120.00
G01 X124.8923 Y-74.3654 F120.00
G01 X127.2458 Y-74.3654 F120.00
G01 X127.1238 Y-74.4056 F120.00
G01 X124.8923 Y-74.4056 F120.00
G01 X124.8923 Y-74.4458 F120.00
G01 X127.0185 Y-74.4458 F120.00
G01 X126.9268 Y-74.4860 F120.00
G01 X124.8923 Y-74.4860 F120.00
G01 X124.8923 Y-74.5262 F120.00
G01 X126.8352 Y-74.5262 F120.00
M5
G00 X126.7509 Y-74.5664
G01 F60.00
M03 S5000.0
G01 F120.00
G01 X124.8923 Y-74.5664 F120.00
G01 X124.8923 Y-74.6066 F120.00
G01 X126.6788 Y-74.6066 F120.00
G01 X126.6067 Y-74.6468 F120.00
G01 X124.8923 Y-74.6468 F120.00
G01 X124.8923 Y-74.6870 F120.00
G01 X126.5347 Y-74.6870 F120.00
M5
G00 X126.4698 Y-74.7272
G01 F60.00
M03 S5000.0
G01 F120.00
G01 X124.8923 Y-74.7272 F120.00
G01 X124.8923 Y-74.7674 F120.00
G01 X126.4116 Y-74.7674 F120.00
G01 X126.3533 Y-74.8076 F120.00
G01 X124.8923 Y-74.8076 F120.00
G01 X124.8923 Y-74.8478 F120.00
G01 X126.2951 Y-74.8478 F120.00
M5
G00 X126.2372 Y-74.8880
G01 F60.00
M03 S5000.0
G01 F120.00
G01 X124.8923 Y-74.8880 F120.00
G01 X124.8923 Y-74.9282 F120.00
G01 X126.1894 Y-74.9282 F120.00
G01 X126.1416 Y-74.9684 F120.00
G01 X124.8923 Y-74.9684 F120.00
G01 X124.8923 Y-75.0086 F120.00
G01 X126.0938 Y-75.0086 F120.00
G01 X126.0460 Y-75.0488 F120.00
G01 X124.8923 Y-75.0488 F120.00
G01 X124.8923 Y-75.0890 F120.00
G01 X125.9982 Y-75.0890 F120.00
M5
G00 X125.9583 Y-75.1292
G01 F60.00
M03 S5000.0
G01 F120.00
G01 X124.8923 Y-75.1292 F120.00
G01 X124.8923 Y-75.1694 F120.00
G01 X125.9188 Y-75.1694 F120.00
G01 X125.8793 Y-75.2096 F120.00
G01 X124.8923 Y-75.2096 F120.00
G01 X124.8923 Y-75.2498 F120.00
G01 X125.8399 Y-75.2498 F120.00
G01 X125.8004 Y-75.2900 F120.00
G01 X124.8923 Y-75.2900 F120.00
G01 X124.8923 Y-75.3302 F120.00
G01 X125.7630 Y-75.3302 F120.00
G01 X125.7305 Y-75.3704 F120.00
G01 X124.8923 Y-75.3704 F120.00
G01 X124.8923 Y-75.4106 F120.00
G01 X125.6979 Y-75.4106 F120.00
G01 X125.6653 Y-75.4508 F120.00
G01 X124.8923 Y-75.4508 F120.00
G01 X124.8923 Y-75.4910 F120.00
G01 X125.6328 Y-75.4910 F120.00
G01 X125.6002 Y-75.5312 F120.00
G01 X124.8923 Y-75.5312 F120.00
G01 X124.8923 Y-75.5714 F120.00
G01 X125.5686 Y-75.5714 F120.00
G01 X125.5419 Y-75.6116 F120.00
G01 X124.8923 Y-75.6116 F120.00
G01 X124.8923 Y-75.6518 F120.00
G01 X125.5153 Y-75.6518 F120.00
G01 X125.4886 Y-75.6920 F120.00
G01 X124.8923 Y-75.6920 F120.00
G01 X124.8923 Y-75.7322 F120.00
G01 X125.4620 Y-75.7322 F120.00
G01 X125.4353 Y-75.7724 F120.00
G01 X124.8923 Y-75.7724 F120.00
G01 X124.8923 Y-75.8126 F120.00
G01 X125.4086 Y-75.8126 F120.00
M5
G00 X125.3850 Y-75.8528
G01 F60.00
M03 S5000.0
G01 F120.00
G01 X124.8923 Y-75.8528 F120.00
G01 X124.8923 Y-75.8930 F120.00
G01 X125.3635 Y-75.8930 F120.00
G01 X125.3420 Y-75.9332 F120.00
G01 X124.8923 Y-75.9332 F120.00
G01 X124.8923 Y-75.9734 F120.00
G01 X125.3206 Y-75.9734 F120.00
G01 X125.2991 Y-76.0136 F120.00
G01 X124.8923 Y-76.0136 F120.00
G01 X124.8923 Y-76.0538 F120.00
G01 X125.2777 Y-76.0538 F120.00
G01 X125.2562 Y-76.0940 F120.00
G01 X124.8923 Y-76.0940 F120.00
G01 X124.8923 Y-76.1342 F120.00
G01 X125.2376 Y-76.1342 F120.00
G01 X125.2208 Y-76.1744 F120.00
G01 X124.8923 Y-76.1744 F120.00
G01 X124.8923 Y-76.2146 F120.00
G01 X125.2040 Y-76.2146 F120.00
G01 X125.1873 Y-76.2548 F120.00
G01 X124.8923 Y-76.2548 F120.00
G01 X124.8923 Y-76.2950 F120.00
G01 X125.1705 Y-76.2950 F120.00
G01 X125.1538 Y-76.3352 F120.00
G01 X124.8923 Y-76.3352 F120.00
G01 X124.8923 Y-76.3754 F120.00
G01 X125.1370 Y-76.3754 F120.00
M5
G00 X125.1215 Y-76.4156
G01 F60.00
M03 S5000.0
G01 F120.00
G01 X124.8923 Y-76.4156 F120.00
G01 X124.8923 Y-76.4558 F120.00
G01 X125.1091 Y-76.4558 F120.00
G01 X125.0967 Y-76.4960 F120.00
G01 X124.8923 Y-76.4960 F120.00
G01 X124.8923 Y-76.5362 F120.00
G01 X125.0843 Y-76.5362 F120.00
G01 X125.0719 Y-76.5764 F120.00
G01 X124.8923 Y-76.5764 F120.00
G01 X124.8923 Y-76.6166 F120.00
G01 X125.0594 Y-76.6166 F120.00
G01 X125.0470 Y-76.6568 F120.00
G01 X124.8923 Y-76.6568 F120.00
G01 X124.8923 Y-76.6970 F120.00
G01 X125.0346 Y-76.6970 F120.00
M5
G00 X125.0252 Y-76.7372
G01 F60.00
M03 S5000.0
G01 F120.00
G01 X124.8923 Y-76.7372 F120.00
G01 X124.8923 Y-76.7774 F120.00
G01 X125.0169 Y-76.7774 F120.00
G01 X125.0086 Y-76.8176 F120.00
G01 X124.8923 Y-76.8176 F120.00
G01 X124.8923 Y-76.8578 F120.00
G01 X125.0002 Y-76.8578 F120.00
G01 X124.9919 Y-76.8980 F120.00
G01 X124.8923 Y-76.8980 F120.00
G01 X124.8923 Y-76.9382 F120.00
G01 X124.9836 Y-76.9382 F120.00
G01 X124.9752 Y-76.9784 F120.00
G01 X124.8923 Y-76.9784 F120.00
G01 X124.8923 Y-77.0186 F120.00
G01 X124.9671 Y-77.0186 F120.00
M5
G00 X124.9625 Y-77.0588
G01 F60.00
M03 S5000.0
G01 F120.00
G01 X124.8923 Y-77.0588 F120.00
G01 X124.8923 Y-77.0990 F120.00
G01 X124.9581 Y-77.0990 F120.00
G01 X124.9537 Y-77.1392 F120.00
G01 X124.8923 Y-77.1392 F120.00
G01 X124.8923 Y-77.1794 F120.00
G01 X124.9493 Y-77.1794 F120.00
G01 X124.9449 Y-77.2196 F120.00
G01 X124.8923 Y-77.2196 F120.00
G01 X124.8923 Y-77.2598 F120.00
G01 X124.9405 Y-77.2598 F120.00
G01 X124.9361 Y-77.3000 F120.00
G01 X124.8923 Y-77.3000 F120.00
G01 X124.8923 Y-77.3402 F120.00
G01 X124.9323 Y-77.3402 F120.00
G01 X124.9323 Y-77.3804 F120.00
G01 X124.8923 Y-77.3804 F120.00
G01 X124.8923 Y-77.4206 F120.00
G01 X124.9323 Y-77.4206 F120.00
G01 X124.9323 Y-77.4608 F120.00
G01 X124.8923 Y-77.4608 F120.00
G01 X124.8923 Y-77.5010 F120.00
G01 X124.9323 Y-77.5010 F120.00
G01 X124.9323 Y-77.5412 F120.00
G01 X124.8923 Y-77.5412 F120.00
G01 X124.8923 Y-77.5814 F120.00
G01 X124.9323 Y-77.5814 F120.00
G01 X124.9323 Y-77.6216 F120.00
G01 X124.8923 Y-77.6216 F120.00
G01 X124.8923 Y-77.6618 F120.00
G01 X124.9323 Y-77.6618 F120.00
G01 X124.9323 Y-77.7020 F120.00
G01 X124.8923 Y-77.7020 F120.00
G01 X124.8923 Y-77.7422 F120.00
G01 X124.9323 Y-77.7422 F120.00
G01 X124.9323 Y-77.7824 F120.00
G01 X124.8923 Y-77.7824 F120.00
G01 X124.8923 Y-77.8226 F120.00
G01 X124.9323 Y-77.8226 F120.00
G01 X124.9323 Y-77.8628 F120.00
G01 X124.8923 Y-77.8628 F120.00
G01 X124.8923 Y-77.9030 F120.00
G01 X124.9323 Y-77.9030 F120.00
G01 X124.9323 Y-77.9432 F120.00
G01 X124.8923 Y-77.9432 F120.00
G01 X124.8923 Y-77.9834 F120.00
G01 X124.9323 Y-77.9834 F120.00
G01 X124.9323 Y-78.0236 F120.00
G01 X124.8923 Y-78.0236 F120.00
G01 X124.8923 Y-78.0638 F120.00
G01 X124.9323 Y-78.0638 F120.00
G01 X124.9323 Y-78.1040 F120.00
G01 X124.8923 Y-78.1040 F120.00
G01 X124.8923 Y-78.1442 F120.00
G01 X124.9323 Y-78.1442 F120.00
G01 X124.9323 Y-78.1844 F120.00
G01 X124.8923 Y-78.1844 F120.00
G01 X124.8923 Y-78.2246 F120.00
G01 X124.9323 Y-78.2246 F120.00
G01 X124.9323 Y-78.2648 F120.00
G01 X124.8923 Y-78.2648 F120.00
G01 X124.8923 Y-78.3050 F120.00
G01 X124.9323 Y-78.3050 F120.00
G01 X124.9323 Y-78.3452 F120.00
G01 X124.8923 Y-78.3452 F120.00
G01 X124.8923 Y-78.3854 F120.00
G01 X124.9323 Y-78.3854 F120.00
G01 X124.9323 Y-78.4256 F120.00
G01 X124.8923 Y-78.4256 F120.00
G01 X124.8923 Y-78.4658 F120.00
G01 X124.9323 Y-78.4658 F120.00
G01 X124.9323 Y-78.5060 F120.00
G01 X124.8923 Y-78.5060 F120.00
G01 X124.8923 Y-78.5462 F120.00
G01 X124.9323 Y-78.5462 F120.00
G01 X124.9323 Y-78.5864 F120.00
G01 X124.8923 Y-78.5864 F120.00
G01 X124.8923 Y-78.6266 F120.00
G01 X124.9323 Y-78.6266 F120.00
G01 X124.9323 Y-78.6668 F120.00
G01 X124.8923 Y-78.6668 F120.00
G01 X124.8923 Y-78.7070 F120.00
G01 X124.9323 Y-78.7070 F120.00
G01 X124.9323 Y-78.7472 F120.00
G01 X124.8923 Y-78.7472 F120.00
G01 X124.8923 Y-78.7874 F120.00
G01 X124.9323 Y-78.7874 F120.00
G01 X124.9323 Y-78.8276 F120.00
G01 X124.8923 Y-78.8276 F120.00
G01 X124.8923 Y-78.8678 F120.00
G01 X124.9323 Y-78.8678 F120.00
G01 X124.9323 Y-78.9080 F120.00
G01 X124.8923 Y-78.9080 F120.00
G01 X124.8923 Y-78.9482 F120.00
G01 X124.9323 Y-78.9482 F120.00
G01 X124.9323 Y-78.9884 F120.00
G01 X124.8923 Y-78.9884 F120.00
G01 X124.8923 Y-79.0286 F120.00
G01 X124.9323 Y-79.0286 F120.00
G01 X124.9323 Y-79.0688 F120.00
G01 X124.8923 Y-79.0688 F120.00
G01 X124.8923 Y-79.1090 F120.00
G01 X124.9323 Y-79.1090 F120.00
G01 X124.9323 Y-79.1492 F120.00
G01 X124.8923 Y-79.1492 F120.00
G01 X124.8923 Y-79.1894 F120.00
G01 X124.9323 Y-79.1894 F120.00
G01 X124.9323 Y-79.2296 F120.00
G01 X124.8923 Y-79.2296 F120.00
G01 X124.8923 Y-79.2698 F120.00
G01 X124.9323 Y-79.2698 F120.00
G01 X124.9323 Y-79.3100 F120.00
G01 X124.8923 Y-79.3100 F120.00
G01 X124.8923 Y-79.3502 F120.00
G01 X124.9323 Y-79.3502 F120.00
G01 X124.9323 Y-79.3904 F120.00
G01 X124.8923 Y-79.3904 F120.00
G01 X124.8923 Y-79.4306 F120.00
G01 X124.9323 Y-79.4306 F120.00
G01 X124.9323 Y-79.4708 F120.00
G01 X124.8923 Y-79.4708 F120.00
G01 X124.8923 Y-79.5110 F120.00
G01 X124.9323 Y-79.5110 F120.00
G01 X124.9323 Y-79.5512 F120.00
G01 X124.8923 Y-79.5512 F120.00
G01 X124.8923 Y-79.5914 F120.00
G01 X124.9323 Y-79.5914 F120.00
G01 X124.9323 Y-79.6316 F120.00
G01 X124.8923 Y-79.6316 F120.00
G01 X124.8923 Y-79.6718 F120.00
G01 X124.9323 Y-79.6718 F120.00
G01 X124.9323 Y-79.7120 F120.00
G01 X124.8923 Y-79.7120 F120.00
G01 X124.8923 Y-79.7522 F120.00
G01 X124.9323 Y-79.7522 F120.00
G01 X124.9323 Y-79.7924 F120.00
G01 X124.8923 Y-79.7924 F120.00
G01 X124.8923 Y-79.8326 F120.00
G01 X124.9323 Y-79.8326 F120.00
G01 X124.9323 Y-79.8728 F120.00
G01 X124.8923 Y-79.8728 F120.00
G01 X124.8923 Y-79.9130 F120.00
G01 X124.9323 Y-79.9130 F120.00
G01 X124.9323 Y-79.9532 F120.00
G01 X124.8923 Y-79.9532 F120.00
G01 X124.8923 Y-79.9934 F120.00
G01 X124.9323 Y-79.9934 F120.00
G01 X124.9323 Y-80.0336 F120.00
G01 X124.8923 Y-80.0336 F120.00
G01 X124.8923 Y-80.0738 F120.00
G01 X124.9323 Y-80.0738 F120.00
G01 X124.9323 Y-80.1140 F120.00
G01 X124.8923 Y-80.1140 F120.00
G01 X124.8923 Y-80.1542 F120.00
G01 X124.9323 Y-80.1542 F120.00
G01 X124.9323 Y-80.1944 F120.00
G01 X124.8923 Y-80.1944 F120.00
G01 X124.8923 Y-80.2346 F120.00
G01 X124.9323 Y-80.2346 F120.00
G01 X124.9323 Y-80.2748 F120.00
G01 X124.8923 Y-80.2748 F120.00
G01 X124.8923 Y-80.3150 F120.00
G01 X124.9323 Y-80.3150 F120.00
G01 X124.9323 Y-80.3552 F120.00
G01 X124.8923 Y-80.3552 F120.00
G01 X124.8923 Y-80.3954 F120.00
G01 X124.9323 Y-80.3954 F120.00
G01 X124.9323 Y-80.4356 F120.00
G01 X124.8923 Y-80.4356 F120.00
G01 X124.8923 Y-80.4758 F120.00
G01 X124.9323 Y-80.4758 F120.00
G01 X124.9323 Y-80.5160 F120.00
G01 X124.8923 Y-80.5160 F120.00
G01 X124.8923 Y-80.5562 F120.00
G01 X124.9323 Y-80.5562 F120.00
G01 X124.9323 Y-80.5964 F120.00
G01 X124.8923 Y-80.5964 F120.00
G01 X124.8923 Y-80.6366 F120.00
G01 X124.9323 Y-80.6366 F120.00
G01 X124.9323 Y-80.6768 F120.00
G01 X124.8923 Y-80.6768 F120.00
G01 X124.8923 Y-80.7170 F120.00
G01 X124.9323 Y-80.7170 F120.00
G01 X124.9323 Y-80.7572 F120.00
G01 X124.8923 Y-80.7572 F120.00
G01 X124.8923 Y-80.7974 F120.00
G01 X124.9323 Y-80.7974 F120.00
G01 X124.9323 Y-80.8376 F120.00
G01 X124.8923 Y-80.8376 F120.00
G01 X124.8923 Y-80.8778 F120.00
G01 X124.9323 Y-80.8778 F120.00
G01 X124.9323 Y-80.9180 F120.00
G01 X124.8923 Y-80.9180 F120.00
G01 X124.8923 Y-80.9582 F120.00
G01 X124.9323 Y-80.9582 F120.00
G01 X124.9323 Y-80.9984 F120.00
G01 X124.8923 Y-80.9984 F120.00
G01 X124.8923 Y-81.0386 F120.00
G01 X124.9323 Y-81.0386 F120.00
G01 X124.9323 Y-81.0788 F120.00
G01 X124.8923 Y-81.0788 F120.00
G01 X124.8923 Y-81.1190 F120.00
G01 X124.9323 Y-81.1190 F120.00
G01 X124.9323 Y-81.1592 F120.00
G01 X124.8923 Y-81.1592 F120.00
G01 X124.8923 Y-81.1994 F120.00
G01 X124.9323 Y-81.1994 F120.00
G01 X124.9323 Y-81.2396 F120.00
G01 X124.8923 Y-81.2396 F120.00
G01 X124.8923 Y-81.2798 F120.00
G01 X124.9323 Y-81.2798 F120.00
G01 X124.9323 Y-81.3200 F120.00
G01 X124.8923 Y-81.3200 F120.00
G01 X124.8923 Y-81.3602 F120.00
G01 X124.9323 Y-81.3602 F120.00
G01 X124.9323 Y-81.4004 F120.00
G01 X124.8923 Y-81.4004 F120.00
G01 X124.8923 Y-81.4406 F120.00
G01 X124.9323 Y-81.4406 F120.00
G01 X124.9323 Y-81.4808 F120.00
G01 X124.8923 Y-81.4808 F120.00
G01 X124.8923 Y-81.5210 F120.00
G01 X124.9323 Y-81.5210 F120.00
G01 X124.9323 Y-81.5612 F120.00
G01 X124.8923 Y-81.5612 F120.00
G01 X124.8923 Y-81.6014 F120.00
G01 X124.9323 Y-81.6014 F120.00
G01 X124.9323 Y-81.6416 F120.00
G01 X124.8923 Y-81.6416 F120.00
G01 X124.8923 Y-81.6818 F120.00
G01 X124.9323 Y-81.6818 F120.00
G01 X124.9323 Y-81.7220 F120.00
G01 X124.8923 Y-81.7220 F120.00
G01 X124.8923 Y-81.7622 F120.00
G01 X124.9323 Y-81.7622 F120.00
G01 X124.9323 Y-81.8024 F120.00
G01 X124.8923 Y-81.8024 F120.00
G01 X124.8923 Y-81.8426 F120.00
G01 X124.9323 Y-81.8426 F120.00
G01 X124.9323 Y-81.8828 F120.00
G01 X124.8923 Y-81.8828 F120.00
G01 X124.8923 Y-81.9230 F120.00
G01 X124.9323 Y-81.9230 F120.00
G01 X124.9323 Y-81.9632 F120.00
G01 X124.8923 Y-81.9632 F120.00
G01 X124.8923 Y-82.0034 F120.00
G01 X124.9323 Y-82.0034 F120.00
G01 X124.9323 Y-82.0436 F120.00
G01 X124.8923 Y-82.0436 F120.00
G01 X124.8923 Y-82.0838 F120.00
G01 X124.9323 Y-82.0838 F120.00
G01 X124.9323 Y-82.1240 F120.00
G01 X124.8923 Y-82.1240 F120.00
G01 X124.8923 Y-82.1642 F120.00
G01 X124.9323 Y-82.1642 F120.00
G01 X124.9323 Y-82.2044 F120.00
G01 X124.8923 Y-82.2044 F120.00
G01 X124.8923 Y-82.2446 F120.00
G01 X124.9323 Y-82.2446 F120.00
G01 X124.9323 Y-82.2848 F120.00
G01 X124.8923 Y-82.2848 F120.00
G01 X124.8923 Y-82.3250 F120.00
G01 X124.9323 Y-82.3250 F120.00
G01 X124.9323 Y-82.3652 F120.00
G01 X124.8923 Y-82.3652 F120.00
G01 X124.8923 Y-82.4054 F120.00
G01 X124.9323 Y-82.4054 F120.00
G01 X124.9323 Y-82.4456 F120.00
G01 X124.8923 Y-82.4456 F120.00
G01 X124.8923 Y-82.4858 F120.00
G01 X124.9323 Y-82.4858 F120.00
G01 X124.9323 Y-82.5260 F120.00
G01 X124.8923 Y-82.5260 F120.00
G01 X124.8923 Y-82.5662 F120.00
G01 X124.9323 Y-82.5662 F120.00
G01 X124.9323 Y-82.6064 F120.00
G01 X124.8923 Y-82.6064 F120.00
G01 X124.8923 Y-82.6466 F120.00
G01 X124.9323 Y-82.6466 F120.00
G01 X124.9323 Y-82.6868 F120.00
G01 X124.8923 Y-82.6868 F120.00
G01 X124.8923 Y-82.7270 F120.00
G01 X124.9323 Y-82.7270 F120.00
G01 X124.9323 Y-82.7672 F120.00
G01 X124.8923 Y-82.7672 F120.00
G01 X124.8923 Y-82.8074 F120.00
G01 X124.9323 Y-82.8074 F120.00
G01 X124.9323 Y-82.8476 F120.00
G01 X124.8923 Y-82.8476 F120.00
G01 X124.8923 Y-82.8878 F120.00
G01 X124.9323 Y-82.8878 F120.00
G01 X124.9323 Y-82.9280 F120.00
G01 X124.8923 Y-82.9280 F120.00
G01 X124.8923 Y-82.9682 F120.00
G01 X124.9323 Y-82.9682 F120.00
G01 X124.9323 Y-83.0084 F120.00
G01 X124.8923 Y-83.0084 F120.00
G01 X124.8923 Y-83.0486 F120.00
G01 X124.9323 Y-83.0486 F120.00
G01 X124.9323 Y-83.0888 F120.00
G01 X124.8923 Y-83.0888 F120.00
G01 X124.8923 Y-83.1290 F120.00
G01 X124.9323 Y-83.1290 F120.00
G01 X124.9323 Y-83.1692 F120.00
G01 X124.8923 Y-83.1692 F120.00
G01 X124.8923 Y-83.2094 F120.00
G01 X124.9323 Y-83.2094 F120.00
G01 X124.9323 Y-83.2496 F120.00
G01 X124.8923 Y-83.2496 F120.00
G01 X124.8923 Y-83.2898 F120.00
G01 X124.9323 Y-83.2898 F120.00
G01 X124.9323 Y-83.3300 F120.00
G01 X124.8923 Y-83.3300 F120.00
G01 X124.8923 Y-83.3702 F120.00
G01 X124.9323 Y-83.3702 F120.00
G01 X124.9323 Y-83.4104 F120.00
G01 X124.8923 Y-83.4104 F120.00
G01 X124.8923 Y-83.4506 F120.00
G01 X124.9323 Y-83.4506 F120.00
G01 X124.9323 Y-83.4908 F120.00
G01 X124.8923 Y-83.4908 F120.00
G01 X124.8923 Y-83.5310 F120.00
G01 X124.9323 Y-83.5310 F120.00
G01 X124.9323 Y-83.5712 F120.00
G01 X124.8923 Y-83.5712 F120.00
G01 X124.8923 Y-83.6114 F120.00
G01 X124.9323 Y-83.6114 F120.00
G01 X124.9323 Y-83.6516 F120.00
G01 X124.8923 Y-83.6516 F120.00
G01 X124.8923 Y-83.6918 F120.00
G01 X124.9323 Y-83.6918 F120.00
G01 X124.9323 Y-83.7320 F120.00
G01 X124.8923 Y-83.7320 F120.00
G01 X124.8923 Y-83.7722 F120.00
G01 X124.9323 Y-83.7722 F120.00
G01 X124.9323 Y-83.8124 F120.00
G01 X124.8923 Y-83.8124 F120.00
G01 X124.8923 Y-83.8526 F120.00
G01 X124.9323 Y-83.8526 F120.00
G01 X124.9323 Y-83.8928 F120.00
G01 X124.8923 Y-83.8928 F120.00
G01 X124.8923 Y-83.9330 F120.00
G01 X124.9323 Y-83.9330 F120.00
G01 X124.9323 Y-83.9732 F120.00
G01 X124.8923 Y-83.9732 F120.00
G01 X124.8923 Y-84.0134 F120.00
G01 X124.9323 Y-84.0134 F120.00
G01 X124.9323 Y-84.0536 F120.00
G01 X124.8923 Y-84.0536 F120.00
G01 X124.8923 Y-84.0938 F120.00
G01 X124.9323 Y-84.0938 F120.00
G01 X124.9323 Y-84.1340 F120.00
G01 X124.8923 Y-84.1340 F120.00
G01 X124.8923 Y-84.1742 F120.00
G01 X124.9323 Y-84.1742 F120.00
G01 X124.9323 Y-84.2144 F120.00
G01 X124.8923 Y-84.2144 F120.00
G01 X124.8923 Y-84.2546 F120.00
G01 X124.9323 Y-84.2546 F120.00
G01 X124.9323 Y-84.2948 F120.00
G01 X124.8923 Y-84.2948 F120.00
G01 X124.8923 Y-84.3350 F120.00
G01 X124.9323 Y-84.3350 F120.00
G01 X124.9323 Y-84.3752 F120.00
G01 X124.8923 Y-84.3752 F120.00
G01 X124.8923 Y-84.4154 F120.00
G01 X124.9323 Y-84.4154 F120.00
G01 X124.9323 Y-84.4556 F120.00
G01 X124.8923 Y-84.4556 F120.00
G01 X124.8923 Y-84.4958 F120.00
G01 X124.9323 Y-84.4958 F120.00
G01 X124.9323 Y-84.5360 F120.00
G01 X124.8923 Y-84.5360 F120.00
G01 X124.8923 Y-84.5762 F120.00
G01 X124.9323 Y-84.5762 F120.00
G01 X124.9323 Y-84.6164 F120.00
G01 X124.8923 Y-84.6164 F120.00
G01 X124.8923 Y-84.6566 F120.00
G01 X124.9323 Y-84.6566 F120.00
G01 X124.9323 Y-84.6968 F120.00
G01 X124.8923 Y-84.6968 F120.00
G01 X124.8923 Y-84.7370 F120.00
G01 X124.9323 Y-84.7370 F120.00
G01 X124.9323 Y-84.7772 F120.00
G01 X124.8923 Y-84.7772 F120.00
G01 X124.8923 Y-84.8174 F120.00
G01 X124.9323 Y-84.8174 F120.00
G01 X124.9323 Y-84.8576 F120.00
G01 X124.8923 Y-84.8576 F120.00
G01 X124.8923 Y-84.8978 F120.00
G01 X124.9323 Y-84.8978 F120.00
G01 X124.9323 Y-84.9380 F120.00
G01 X124.8923 Y-84.9380 F120.00
G01 X124.8923 Y-84.9782 F120.00
G01 X124.9323 Y-84.9782 F120.00
G01 X124.9323 Y-85.0184 F120.00
G01 X124.8923 Y-85.0184 F120.00
G01 X124.8923 Y-85.0586 F120.00
G01 X124.9323 Y-85.0586 F120.00
G01 X124.9323 Y-85.0988 F120.00
G01 X124.8923 Y-85.0988 F120.00
G01 X124.8923 Y-85.1390 F120.00
G01 X124.9323 Y-85.1390 F120.00
G01 X124.9323 Y-85.1792 F120.00
G01 X124.8923 Y-85.1792 F120.00
G01 X124.8923 Y-85.2194 F120.00
G01 X124.9323 Y-85.2194 F120.00
G01 X124.9323 Y-85.2596 F120.00
G01 X124.8923 Y-85.2596 F120.00
G01 X124.8923 Y-85.2998 F120.00
G01 X124.9323 Y-85.2998 F120.00
G01 X124.9323 Y-85.3400 F120.00
G01 X124.8923 Y-85.3400 F120.00
G01 X124.8923 Y-85.3802 F120.00
G01 X124.9323 Y-85.3802 F120.00
G01 X124.9323 Y-85.4204 F120.00
G01 X124.8923 Y-85.4204 F120.00
G01 X124.8923 Y-85.4606 F120.00
G01 X124.9323 Y-85.4606 F120.00
G01 X124.9323 Y-85.5008 F120.00
G01 X124.8923 Y-85.5008 F120.00
G01 X124.8923 Y-85.5410 F120.00
G01 X124.9323 Y-85.5410 F120.00
G01 X124.9323 Y-85.5812 F120.00
G01 X124.8923 Y-85.5812 F120.00
G01 X124.8923 Y-85.6214 F120.00
G01 X124.9323 Y-85.6214 F120.00
G01 X124.9323 Y-85.6616 F120.00
G01 X124.8923 Y-85.6616 F120.00
G01 X124.8923 Y-85.7018 F120.00
G01 X124.9323 Y-85.7018 F120.00
G01 X124.9323 Y-85.7420 F120.00
G01 X124.8923 Y-85.7420 F120.00
G01 X124.8923 Y-85.7822 F120.00
G01 X124.9323 Y-85.7822 F120.00
G01 X124.9323 Y-85.8224 F120.00
G01 X124.8923 Y-85.8224 F120.00
G01 X124.8923 Y-85.8626 F120.00
G01 X124.9323 Y-85.8626 F120.00
G01 X124.9323 Y-85.9028 F120.00
G01 X124.8923 Y-85.9028 F120.00
G01 X124.8923 Y-85.9430 F120.00
G01 X124.9323 Y-85.9430 F120.00
G01 X124.9323 Y-85.9832 F120.00
G01 X124.8923 Y-85.9832 F120.00
G01 X124.8923 Y-86.0234 F120.00
G01 X124.9323 Y-86.0234 F120.00
G01 X124.9323 Y-86.0636 F120.00
G01 X124.8923 Y-86.0636 F120.00
G01 X124.8923 Y-86.1038 F120.00
G01 X124.9323 Y-86.1038 F120.00
G01 X124.9323 Y-86.1440 F120.00
G01 X124.8923 Y-86.1440 F120.00
G01 X124.8923 Y-86.1842 F120.00
G01 X124.9323 Y-86.1842 F120.00
G01 X124.9323 Y-86.2244 F120.00
G01 X124.8923 Y-86.2244 F120.00
G01 X124.8923 Y-86.2646 F120.00
G01 X124.9323 Y-86.2646 F120.00
G01 X124.9323 Y-86.3048 F120.00
G01 X124.8923 Y-86.3048 F120.00
G01 X124.8923 Y-86.3450 F120.00
G01 X124.9323 Y-86.3450 F120.00
G01 X124.9323 Y-86.3852 F120.00
G01 X124.8923 Y-86.3852 F120.00
G01 X124.8923 Y-86.4254 F120.00
G01 X124.9323 Y-86.4254 F120.00
G01 X124.9323 Y-86.4656 F120.00
G01 X124.8923 Y-86.4656 F120.00
G01 X124.8923 Y-86.5058 F120.00
G01 X124.9323 Y-86.5058 F120.00
G01 X124.9323 Y-86.5460 F120.00
G01 X124.8923 Y-86.5460 F120.00
G01 X124.8923 Y-86.5862 F120.00
G01 X124.9323 Y-86.5862 F120.00
G01 X124.9323 Y-86.6264 F120.00
G01 X124.8923 Y-86.6264 F120.00
G01 X124.8923 Y-86.6666 F120.00
G01 X124.9323 Y-86.6666 F120.00
G01 X124.9323 Y-86.7068 F120.00
G01 X124.8923 Y-86.7068 F120.00
G01 X124.8923 Y-86.7470 F120.00
G01 X124.9323 Y-86.7470 F120.00
G01 X124.9323 Y-86.7872 F120.00
G01 X124.8923 Y-86.7872 F120.00
G01 X124.8923 Y-86.8274 F120.00
G01 X124.9323 Y-86.8274 F120.00
G01 X124.9323 Y-86.8676 F120.00
G01 X124.8923 Y-86.8676 F120.00
G01 X124.8923 Y-86.9078 F120.00
G01 X124.9323 Y-86.9078 F120.00
G01 X124.9323 Y-86.9480 F120.00
G01 X124.8923 Y-86.9480 F120.00
G01 X124.8923 Y-86.9882 F120.00
G01 X124.9323 Y-86.9882 F120.00
G01 X124.9323 Y-87.0284 F120.00
G01 X124.8923 Y-87.0284 F120.00
G01 X124.8923 Y-87.0686 F120.00
G01 X124.9323 Y-87.0686 F120.00
G01 X124.9323 Y-87.1088 F120.00
G01 X124.8923 Y-87.1088 F120.00
G01 X124.8923 Y-87.1490 F120.00
G01 X124.9323 Y-87.1490 F120.00
G01 X124.9323 Y-87.1892 F120.00
G01 X124.8923 Y-87.1892 F120.00
G01 X124.8923 Y-87.2294 F120.00
G01 X124.9323 Y-87.2294 F120.00
G01 X124.9323 Y-87.2696 F120.00
G01 X124.8923 Y-87.2696 F120.00
G01 X124.8923 Y-87.3098 F120.00
G01 X124.9323 Y-87.3098 F120.00
G01 X124.9323 Y-87.3500 F120.00
G01 X124.8923 Y-87.3500 F120.00
G01 X124.8923 Y-87.3902 F120.00
G01 X124.9323 Y-87.3902 F120.00
G01 X124.9323 Y-87.4304 F120.00
G01 X124.8923 Y-87.4304 F120.00
G01 X124.8923 Y-87.4706 F120.00
G01 X124.9323 Y-87.4706 F120.00
G01 X124.9323 Y-87.5108 F120.00
G01 X124.8923 Y-87.5108 F120.00
G01 X124.8923 Y-87.5510 F120.00
G01 X124.9323 Y-87.5510 F120.00
G01 X124.9323 Y-87.5912 F120.00
G01 X124.8923 Y-87.5912 F120.00
G01 X124.8923 Y-87.6314 F120.00
G01 X124.9323 Y-87.6314 F120.00
G01 X124.9323 Y-87.6716 F120.00
G01 X124.8923 Y-87.6716 F120.00
G01 X124.8923 Y-87.7118 F120.00
G01 X124.9323 Y-87.7118 F120.00
G01 X124.9323 Y-87.7520 F120.00
G01 X124.8923 Y-87.7520 F120.00
G01 X124.8923 Y-87.7922 F120.00
G01 X124.9323 Y-87.7922 F120.00
G01 X124.9323 Y-87.8324 F120.00
G01 X124.8923 Y-87.8324 F120.00
G01 X124.8923 Y-87.8726 F120.00
G01 X124.9323 Y-87.8726 F120.00
G01 X124.9323 Y-87.9128 F120.00
G01 X124.8923 Y-87.9128 F120.00
G01 X124.8923 Y-87.9530 F120.00
G01 X124.9323 Y-87.9530 F120.00
G01 X124.9323 Y-87.9932 F120.00
G01 X124.8923 Y-87.9932 F120.00
G01 X124.8923 Y-88.0334 F120.00
G01 X124.9323 Y-88.0334 F120.00
G01 X124.9323 Y-88.0736 F120.00
G01 X124.8923 Y-88.0736 F120.00
G01 X124.8923 Y-88.1138 F120.00
G01 X124.9323 Y-88.1138 F120.00
G01 X124.9323 Y-88.1540 F120.00
G01 X124.8923 Y-88.1540 F120.00
G01 X124.8923 Y-88.1942 F120.00
G01 X124.9323 Y-88.1942 F120.00
G01 X124.9323 Y-88.2344 F120.00
G01 X124.8923 Y-88.2344 F120.00
G01 X124.8923 Y-88.2746 F120.00
G01 X124.9323 Y-88.2746 F120.00
G01 X124.9323 Y-88.3148 F120.00
G01 X124.8923 Y-88.3148 F120.00
G01 X124.8923 Y-88.3550 F120.00
G01 X124.9323 Y-88.3550 F120.00
G01 X124.9323 Y-88.3952 F120.00
G01 X124.8923 Y-88.3952 F120.00
G01 X124.8923 Y-88.4354 F120.00
G01 X124.9323 Y-88.4354 F120.00
G01 X124.9323 Y-88.4756 F120.00
G01 X124.8923 Y-88.4756 F120.00
G01 X124.8923 Y-88.5158 F120.00
G01 X124.9323 Y-88.5158 F120.00
G01 X124.9323 Y-88.5560 F120.00
G01 X124.8923 Y-88.5560 F120.00
G01 X124.8923 Y-88.5962 F120.00
G01 X124.9323 Y-88.5962 F120.00
G01 X124.9323 Y-88.6364 F120.00
G01 X124.8923 Y-88.6364 F120.00
G01 X124.8923 Y-88.6766 F120.00
G01 X124.9323 Y-88.6766 F120.00
G01 X124.9323 Y-88.7168 F120.00
G01 X124.8923 Y-88.7168 F120.00
G01 X124.8923 Y-88.7570 F120.00
G01 X124.9323 Y-88.7570 F120.00
G01 X124.9323 Y-88.7972 F120.00
G01 X124.8923 Y-88.7972 F120.00
G01 X124.8923 Y-88.8374 F120.00
G01 X124.9323 Y-88.8374 F120.00
G01 X124.9323 Y-88.8776 F120.00
G01 X124.8923 Y-88.8776 F120.00
G01 X124.8923 Y-88.9178 F120.00
G01 X124.9323 Y-88.9178 F120.00
G01 X124.9323 Y-88.9580 F120.00
G01 X124.8923 Y-88.9580 F120.00
G01 X124.8923 Y-88.9982 F120.00
G01 X124.9323 Y-88.9982 F120.00
G01 X124.9323 Y-89.0384 F120.00
G01 X124.8923 Y-89.0384 F120.00
G01 X124.8923 Y-89.0786 F120.00
G01 X124.9323 Y-89.0786 F120.00
G01 X124.9323 Y-89.1188 F120.00
G01 X124.8923 Y-89.1188 F120.00
G01 X124.8923 Y-89.1590 F120.00
G01 X124.9323 Y-89.1590 F120.00
G01 X124.9323 Y-89.1992 F120.00
G01 X124.8923 Y-89.1992 F120.00
G01 X124.8923 Y-89.2394 F120.00
G01 X124.9323 Y-89.2394 F120.00
G01 X124.9323 Y-89.2796 F120.00
G01 X124.8923 Y-89.2796 F120.00
G01 X124.8923 Y-89.3198 F120.00
G01 X124.9323 Y-89.3198 F120.00
G01 X124.9323 Y-89.3600 F120.00
G01 X124.8923 Y-89.3600 F120.00
G01 X124.8923 Y-89.4002 F120.00
G01 X124.9323 Y-89.4002 F120.00
G01 X124.9323 Y-89.4404 F120.00
G01 X124.8923 Y-89.4404 F120.00
G01 X124.8923 Y-89.4806 F120.00
G01 X124.9323 Y-89.4806 F120.00
G01 X124.9323 Y-89.5208 F120.00
G01 X124.8923 Y-89.5208 F120.00
G01 X124.8923 Y-89.5610 F120.00
G01 X124.9323 Y-89.5610 F120.00
G01 X124.9323 Y-89.6012 F120.00
G01 X124.8923 Y-89.6012 F120.00
G01 X124.8923 Y-89.6414 F120.00
G01 X124.9323 Y-89.6414 F120.00
G01 X124.9323 Y-89.6816 F120.00
G01 X124.8923 Y-89.6816 F120.00
G01 X124.8923 Y-89.7218 F120.00
G01 X124.9323 Y-89.7218 F120.00
G01 X124.9323 Y-89.7620 F120.00
G01 X124.8923 Y-89.7620 F120.00
G01 X124.8923 Y-89.8022 F120.00
G01 X124.9323 Y-89.8022 F120.00
G01 X124.9323 Y-89.8424 F120.00
G01 X124.8923 Y-89.8424 F120.00
G01 X124.8923 Y-89.8826 F120.00
G01 X124.9323 Y-89.8826 F120.00
G01 X124.9323 Y-89.9228 F120.00
G01 X124.8923 Y-89.9228 F120.00
G01 X124.8923 Y-89.9630 F120.00
G01 X124.9323 Y-89.9630 F120.00
G01 X124.9323 Y-90.0032 F120.00
G01 X124.8923 Y-90.0032 F120.00
G01 X124.8923 Y-90.0434 F120.00
G01 X124.9323 Y-90.0434 F120.00
G01 X124.9323 Y-90.0836 F120.00
G01 X124.8923 Y-90.0836 F120.00
G01 X124.8923 Y-90.1238 F120.00
G01 X124.9323 Y-90.1238 F120.00
G01 X124.9323 Y-90.1640 F120.00
G01 X124.8923 Y-90.1640 F120.00
G01 X124.8923 Y-90.2042 F120.00
G01 X124.9323 Y-90.2042 F120.00
G01 X124.9323 Y-90.2444 F120.00
G01 X124.8923 Y-90.2444 F120.00
G01 X124.8923 Y-90.2846 F120.00
G01 X124.9323 Y-90.2846 F120.00
G01 X124.9323 Y-90.3248 F120.00
G01 X124.8923 Y-90.3248 F120.00
G01 X124.8923 Y-90.3650 F120.00
G01 X124.9323 Y-90.3650 F120.00
G01 X124.9323 Y-90.4052 F120.00
G01 X124.8923 Y-90.4052 F120.00
G01 X124.8923 Y-90.4454 F120.00
G01 X124.9323 Y-90.4454 F120.00
G01 X124.9323 Y-90.4856 F120.00
G01 X124.8923 Y-90.4856 F120.00
G01 X124.8923 Y-90.5258 F120.00
G01 X124.9323 Y-90.5258 F120.00
G01 X124.9323 Y-90.5660 F120.00
G01 X124.8923 Y-90.5660 F120.00
G01 X124.8923 Y-90.6062 F120.00
G01 X124.9323 Y-90.6062 F120.00
G01 X124.9323 Y-90.6464 F120.00
G01 X124.8923 Y-90.6464 F120.00
G01 X124.8923 Y-90.6866 F120.00
G01 X124.9323 Y-90.6866 F120.00
G01 X124.9323 Y-90.7268 F120.00
G01 X124.8923 Y-90.7268 F120.00
G01 X124.8923 Y-90.7670 F120.00
G01 X124.9323 Y-90.7670 F120.00
G01 X124.9323 Y-90.8072 F120.00
G01 X124.8923 Y-90.8072 F120.00
G01 X124.8923 Y-90.8474 F120.00
G01 X124.9323 Y-90.8474 F120.00
G01 X124.9323 Y-90.8876 F120.00
G01 X124.8923 Y-90.8876 F120.00
G01 X124.8923 Y-90.9278 F120.00
G01 X124.9323 Y-90.9278 F120.00
G01 X124.9323 Y-90.9680 F120.00
G01 X124.8923 Y-90.9680 F120.00
G01 X124.8923 Y-91.0082 F120.00
G01 X124.9323 Y-91.0082 F120.00
G01 X124.9323 Y-91.0484 F120.00
G01 X124.8923 Y-91.0484 F120.00
G01 X124.8923 Y-91.0886 F120.00
G01 X124.9323 Y-91.0886 F120.00
G01 X124.9323 Y-91.1288 F120.00
G01 X124.8923 Y-91.1288 F120.00
G01 X124.8923 Y-91.1690 F120.00
G01 X124.9323 Y-91.1690 F120.00
G01 X124.9323 Y-91.2092 F120.00
G01 X124.8923 Y-91.2092 F120.00
G01 X124.8923 Y-91.2494 F120.00
G01 X124.9323 Y-91.2494 F120.00
G01 X124.9323 Y-91.2896 F120.00
G01 X124.8923 Y-91.2896 F120.00
G01 X124.8923 Y-91.3298 F120.00
G01 X124.9323 Y-91.3298 F120.00
G01 X124.9323 Y-91.3700 F120.00
G01 X124.8923 Y-91.3700 F120.00
G01 X124.8923 Y-91.4102 F120.00
G01 X124.9323 Y-91.4102 F120.00
G01 X124.9323 Y-91.4504 F120.00
G01 X124.8923 Y-91.4504 F120.00
G01 X124.8923 Y-91.4906 F120.00
G01 X124.9323 Y-91.4906 F120.00
G01 X124.9323 Y-91.5308 F120.00
G01 X124.8923 Y-91.5308 F120.00
G01 X124.8923 Y-91.5710 F120.00
G01 X124.9323 Y-91.5710 F120.00
G01 X124.9323 Y-91.6112 F120.00
G01 X124.8923 Y-91.6112 F120.00
G01 X124.8923 Y-91.6514 F120.00
G01 X124.9323 Y-91.6514 F120.00
G01 X124.9323 Y-91.6916 F120.00
G01 X124.8923 Y-91.6916 F120.00
G01 X124.8923 Y-91.7318 F120.00
G01 X124.9323 Y-91.7318 F120.00
G01 X124.9323 Y-91.7720 F120.00
G01 X124.8923 Y-91.7720 F120.00
G01 X124.8923 Y-91.8122 F120.00
G01 X124.9323 Y-91.8122 F120.00
G01 X124.9323 Y-91.8524 F120.00
G01 X124.8923 Y-91.8524 F120.00
G01 X124.8923 Y-91.8926 F120.00
G01 X124.9323 Y-91.8926 F120.00
G01 X124.9323 Y-91.9328 F120.00
G01 X124.8923 Y-91.9328 F120.00
G01 X124.8923 Y-91.9730 F120.00
G01 X124.9323 Y-91.9730 F120.00
G01 X124.9323 Y-92.0132 F120.00
G01 X124.8923 Y-92.0132 F120.00
G01 X124.8923 Y-92.0534 F120.00
G01 X124.9323 Y-92.0534 F120.00
G01 X124.9323 Y-92.0936 F120.00
G01 X124.8923 Y-92.0936 F120.00
G01 X124.8923 Y-92.1338 F120.00
G01 X124.9323 Y-92.1338 F120.00
G01 X124.9323 Y-92.1740 F120.00
G01 X124.8923 Y-92.1740 F120.00
G01 X124.8923 Y-92.2142 F120.00
G01 X124.9323 Y-92.2142 F120.00
G01 X124.9323 Y-92.2544 F120.00
G01 X124.8923 Y-92.2544 F120.00
G01 X124.8923 Y-92.2946 F120.00
G01 X124.9323 Y-92.2946 F120.00
G01 X124.9323 Y-92.3348 F120.00
G01 X124.8923 Y-92.3348 F120.00
G01 X124.8923 Y-92.3750 F120.00
G01 X124.9323 Y-92.3750 F120.00
G01 X124.9323 Y-92.4152 F120.00
G01 X124.8923 Y-92.4152 F120.00
G01 X124.8923 Y-92.4554 F120.00
G01 X124.9323 Y-92.4554 F120.00
G01 X124.9323 Y-92.4956 F120.00
G01 X124.8923 Y-92.4956 F120.00
G01 X124.8923 Y-92.5358 F120.00
G01 X124.9323 Y-92.5358 F120.00
G01 X124.9323 Y-92.5760 F120.00
G01 X124.8923 Y-92.5760 F120.00
G01 X124.8923 Y-92.6162 F120.00
G01 X124.9323 Y-92.6162 F120.00
G01 X124.9323 Y-92.6564 F120.00
G01 X124.8923 Y-92.6564 F120.00
G01 X124.8923 Y-92.6966 F120.00
G01 X124.9323 Y-92.6966 F120.00
G01 X124.9323 Y-92.7368 F120.00
G01 X124.8923 Y-92.7368 F120.00
G01 X124.8923 Y-92.7770 F120.00
G01 X124.9323 Y-92.7770 F120.00
G01 X124.9323 Y-92.8172 F120.00
G01 X124.8923 Y-92.8172 F120.00
G01 X124.8923 Y-92.8574 F120.00
G01 X124.9323 Y-92.8574 F120.00
G01 X124.9323 Y-92.8976 F120.00
G01 X124.8923 Y-92.8976 F120.00
G01 X124.8923 Y-92.9378 F120.00
G01 X124.9323 Y-92.9378 F120.00
G01 X124.9323 Y-92.9780 F120.00
G01 X124.8923 Y-92.9780 F120.00
G01 X124.8923 Y-93.0182 F120.00
G01 X124.9323 Y-93.0182 F120.00
G01 X124.9323 Y-93.0584 F120.00
G01 X124.8923 Y-93.0584 F120.00
G01 X124.8923 Y-93.0986 F120.00
G01 X124.9323 Y-93.0986 F120.00
G01 X124.9323 Y-93.1388 F120.00
G01 X124.8923 Y-93.1388 F120.00
G01 X124.8923 Y-93.1790 F120.00
G01 X124.9323 Y-93.1790 F120.00
G01 X124.9323 Y-93.2192 F120.00
G01 X124.8923 Y-93.2192 F120.00
G01 X124.8923 Y-93.2594 F120.00
G01 X124.9323 Y-93.2594 F120.00
G01 X124.9323 Y-93.2996 F120.00
G01 X124.8923 Y-93.2996 F120.00
G01 X124.8923 Y-93.3398 F120.00
G01 X124.9323 Y-93.3398 F120.00
G01 X124.9323 Y-93.3800 F120.00
G01 X124.8923 Y-93.3800 F120.00
G01 X124.8923 Y-93.4202 F120.00
G01 X124.9323 Y-93.4202 F120.00
G01 X124.9323 Y-93.4604 F120.00
G01 X124.8923 Y-93.4604 F120.00
G01 X124.8923 Y-93.5006 F120.00
G01 X124.9323 Y-93.5006 F120.00
G01 X124.9323 Y-93.5408 F120.00
G01 X124.8923 Y-93.5408 F120.00
G01 X124.8923 Y-93.5810 F120.00
G01 X124.9323 Y-93.5810 F120.00
G01 X124.9323 Y-93.6212 F120.00
G01 X124.8923 Y-93.6212 F120.00
G01 X124.8923 Y-93.6614 F120.00
G01 X124.9323 Y-93.6614 F120.00
G01 X124.9323 Y-93.7016 F120.00
G01 X124.8923 Y-93.7016 F120.00
G01 X124.8923 Y-93.7418 F120.00
G01 X124.9323 Y-93.7418 F120.00
G01 X124.9323 Y-93.7820 F120.00
G01 X124.8923 Y-93.7820 F120.00
G01 X124.8923 Y-93.8222 F120.00
G01 X124.9323 Y-93.8222 F120.00
G01 X124.9323 Y-93.8624 F120.00
G01 X124.8923 Y-93.8624 F120.00
G01 X124.8923 Y-93.9026 F120.00
G01 X124.9323 Y-93.9026 F120.00
G01 X124.9323 Y-93.9428 F120.00
G01 X124.8923 Y-93.9428 F120.00
G01 X124.8923 Y-93.9830 F120.00
G01 X124.9323 Y-93.9830 F120.00
G01 X124.9323 Y-94.0232 F120.00
G01 X124.8923 Y-94.0232 F120.00
G01 X124.8923 Y-94.0634 F120.00
G01 X124.9323 Y-94.0634 F120.00
G01 X124.9323 Y-94.1036 F120.00
G01 X124.8923 Y-94.1036 F120.00
G01 X124.8923 Y-94.1438 F120.00
G01 X124.9323 Y-94.1438 F120.00
G01 X124.9323 Y-94.1840 F120.00
G01 X124.8923 Y-94.1840 F120.00
G01 X124.8923 Y-94.2242 F120.00
G01 X124.9323 Y-94.2242 F120.00
G01 X124.9323 Y-94.2644 F120.00
G01 X124.8923 Y-94.2644 F120.00
G01 X124.8923 Y-94.3046 F120.00
G01 X124.9323 Y-94.3046 F120.00
G01 X124.9323 Y-94.3448 F120.00
G01 X124.8923 Y-94.3448 F120.00
G01 X124.8923 Y-94.3850 F120.00
G01 X124.9323 Y-94.3850 F120.00
G01 X124.9323 Y-94.4252 F120.00
G01 X124.8923 Y-94.4252 F120.00
G01 X124.8923 Y-94.4654 F120.00
G01 X124.9323 Y-94.4654 F120.00
G01 X124.9323 Y-94.5056 F120.00
G01 X124.8923 Y-94.5056 F120.00
G01 X124.8923 Y-94.5458 F120.00
G01 X124.9323 Y-94.5458 F120.00
G01 X124.9323 Y-94.5860 F120.00
G01 X124.8923 Y-94.5860 F120.00
G01 X124.8923 Y-94.6262 F120.00
G01 X124.9323 Y-94.6262 F120.00
G01 X124.9323 Y-94.6664 F120.00
G01 X124.8923 Y-94.6664 F120.00
G01 X124.8923 Y-94.7066 F120.00
G01 X124.9323 Y-94.7066 F120.00
G01 X124.9323 Y-94.7468 F120.00
G01 X124.8923 Y-94.7468 F120.00
G01 X124.8923 Y-94.7870 F120.00
G01 X124.9323 Y-94.7870 F120.00
G01 X124.9323 Y-94.8272 F120.00
G01 X124.8923 Y-94.8272 F120.00
G01 X124.8923 Y-94.8674 F120.00
G01 X124.9323 Y-94.8674 F120.00
G01 X124.9323 Y-94.9076 F120.00
G01 X124.8923 Y-94.9076 F120.00
G01 X124.8923 Y-94.9478 F120.00
G01 X124.9323 Y-94.9478 F120.00
G01 X124.9323 Y-94.9880 F120.00
G01 X124.8923 Y-94.9880 F120.00
G01 X124.8923 Y-95.0282 F120.00
G01 X124.9323 Y-95.0282 F120.00
G01 X124.9323 Y-95.0684 F120.00
G01 X124.8923 Y-95.0684 F120.00
G01 X124.8923 Y-95.1086 F120.00
G01 X124.9323 Y-95.1086 F120.00
G01 X124.9323 Y-95.1488 F120.00
G01 X124.8923 Y-95.1488 F120.00
G01 X124.8923 Y-95.1890 F120.00
G01 X124.9323 Y-95.1890 F120.00
G01 X124.9323 Y-95.2292 F120.00
G01 X124.8923 Y-95.2292 F120.00
G01 X124.8923 Y-95.2694 F120.00
G01 X124.9323 Y-95.2694 F120.00
G01 X124.9323 Y-95.3096 F120.00
G01 X124.8923 Y-95.3096 F120.00
G01 X124.8923 Y-95.3498 F120.00
G01 X124.9323 Y-95.3498 F120.00
G01 X124.9323 Y-95.3900 F120.00
G01 X124.8923 Y-95.3900 F120.00
G01 X124.8923 Y-95.4302 F120.00
G01 X124.9323 Y-95.4302 F120.00
G01 X124.9323 Y-95.4704 F120.00
G01 X124.8923 Y-95.4704 F120.00
G01 X124.8923 Y-95.5106 F120.00
G01 X124.9323 Y-95.5106 F120.00
G01 X124.9323 Y-95.5508 F120.00
G01 X124.8923 Y-95.5508 F120.00
G01 X124.8923 Y-95.5910 F120.00
G01 X124.9323 Y-95.5910 F120.00
G01 X124.9323 Y-95.6312 F120.00
G01 X124.8923 Y-95.6312 F120.00
G01 X124.8923 Y-95.6714 F120.00
G01 X124.9323 Y-95.6714 F120.00
G01 X124.9323 Y-95.7116 F120.00
G01 X124.8923 Y-95.7116 F120.00
G01 X124.8923 Y-95.7518 F120.00
G01 X124.9323 Y-95.7518 F120.00
G01 X124.9323 Y-95.7920 F120.00
G01 X124.8923 Y-95.7920 F120.00
G01 X124.8923 Y-95.8322 F120.00
G01 X124.9323 Y-95.8322 F120.00
G01 X124.9323 Y-95.8724 F120.00
G01 X124.8923 Y-95.8724 F120.00
G01 X124.8923 Y-95.9126 F120.00
G01 X124.9323 Y-95.9126 F120.00
G01 X124.9323 Y-95.9528 F120.00
G01 X124.8923 Y-95.9528 F120.00
G01 X124.8923 Y-95.9930 F120.00
G01 X124.9323 Y-95.9930 F120.00
G01 X124.9323 Y-96.0332 F120.00
G01 X124.8923 Y-96.0332 F120.00
G01 X124.8923 Y-96.0734 F120.00
G01 X124.9323 Y-96.0734 F120.00
G01 X124.9323 Y-96.1136 F120.00
G01 X124.8923 Y-96.1136 F120.00
G01 X124.8923 Y-96.1538 F120.00
G01 X124.9323 Y-96.1538 F120.00
G01 X124.9323 Y-96.1940 F120.00
G01 X124.8923 Y-96.1940 F120.00
G01 X124.8923 Y-96.2342 F120.00
G01 X124.9323 Y-96.2342 F120.00
G01 X124.9323 Y-96.2744 F120.00
G01 X124.8923 Y-96.2744 F120.00
G01 X124.8923 Y-96.3146 F120.00
G01 X124.9323 Y-96.3146 F120.00
G01 X124.9323 Y-96.3548 F120.00
G01 X124.8923 Y-96.3548 F120.00
G01 X124.8923 Y-96.3950 F120.00
G01 X124.9323 Y-96.3950 F120.00
G01 X124.9323 Y-96.4352 F120.00
G01 X124.8923 Y-96.4352 F120.00
G01 X124.8923 Y-96.4754 F120.00
G01 X124.9323 Y-96.4754 F120.00
G01 X124.9323 Y-96.5156 F120.00
G01 X124.8923 Y-96.5156 F120.00
G01 X124.8923 Y-96.5558 F120.00
G01 X124.9323 Y-96.5558 F120.00
G01 X124.9323 Y-96.5960 F120.00
G01 X124.8923 Y-96.5960 F120.00
G01 X124.8923 Y-96.6362 F120.00
G01 X124.9323 Y-96.6362 F120.00
G01 X124.9323 Y-96.6764 F120.00
G01 X124.8923 Y-96.6764 F120.00
G01 X124.8923 Y-96.7166 F120.00
G01 X124.9323 Y-96.7166 F120.00
G01 X124.9323 Y-96.7568 F120.00
G01 X124.8923 Y-96.7568 F120.00
G01 X124.8923 Y-96.7970 F120.00
G01 X124.9323 Y-96.7970 F120.00
G01 X124.9323 Y-96.8372 F120.00
G01 X124.8923 Y-96.8372 F120.00
G01 X124.8923 Y-96.8774 F120.00
G01 X124.9323 Y-96.8774 F120.00
G01 X124.9323 Y-96.9176 F120.00
G01 X124.8923 Y-96.9176 F120.00
G01 X124.8923 Y-96.9578 F120.00
G01 X124.9323 Y-96.9578 F120.00
G01 X124.9323 Y-96.9980 F120.00
G01 X124.8923 Y-96.9980 F120.00
G01 X124.8923 Y-97.0382 F120.00
G01 X124.9323 Y-97.0382 F120.00
G01 X124.9323 Y-97.0784 F120.00
G01 X124.8923 Y-97.0784 F120.00
G01 X124.8923 Y-97.1186 F120.00
G01 X124.9323 Y-97.1186 F120.00
G01 X124.9323 Y-97.1588 F120.00
G01 X124.8923 Y-97.1588 F120.00
G01 X124.8923 Y-97.1990 F120.00
G01 X124.9323 Y-97.1990 F120.00
G01 X124.9323 Y-97.2392 F120.00
G01 X124.8923 Y-97.2392 F120.00
G01 X124.8923 Y-97.2794 F120.00
G01 X124.9323 Y-97.2794 F120.00
G01 X124.9323 Y-97.3196 F120.00
G01 X124.8923 Y-97.3196 F120.00
G01 X124.8923 Y-97.3598 F120.00
G01 X124.9323 Y-97.3598 F120.00
G01 X124.9323 Y-97.4000 F120.00
G01 X124.8923 Y-97.4000 F120.00
G01 X124.8923 Y-97.4402 F120.00
G01 X124.9323 Y-97.4402 F120.00
G01 X124.9323 Y-97.4804 F120.00
G01 X124.8923 Y-97.4804 F120.00
G01 X124.8923 Y-97.5206 F120.00
G01 X124.9323 Y-97.5206 F120.00
G01 X124.9323 Y-97.5608 F120.00
G01 X124.8923 Y-97.5608 F120.00
G01 X124.8923 Y-97.6010 F120.00
G01 X124.9323 Y-97.6010 F120.00
G01 X124.9323 Y-97.6412 F120.00
G01 X124.8923 Y-97.6412 F120.00
G01 X124.8923 Y-97.6814 F120.00
G01 X124.9323 Y-97.6814 F120.00
G01 X124.9323 Y-97.7216 F120.00
G01 X124.8923 Y-97.7216 F120.00
G01 X124.8923 Y-97.7618 F120.00
G01 X124.9323 Y-97.7618 F120.00
G01 X124.9323 Y-97.8020 F120.00
G01 X124.8923 Y-97.8020 F120.00
G01 X124.8923 Y-97.8422 F120.00
G01 X124.9323 Y-97.8422 F120.00
G01 X124.9323 Y-97.8824 F120.00
G01 X124.8923 Y-97.8824 F120.00
G01 X124.8923 Y-97.9226 F120.00
G01 X124.9323 Y-97.9226 F120.00
G01 X124.9323 Y-97.9628 F120.00
G01 X124.8923 Y-97.9628 F120.00
G01 X124.8923 Y-98.0030 F120.00
G01 X124.9323 Y-98.0030 F120.00
G01 X124.9323 Y-98.0432 F120.00
G01 X124.8923 Y-98.0432 F120.00
G01 X124.8923 Y-98.0834 F120.00
G01 X124.9323 Y-98.0834 F120.00
G01 X124.9323 Y-98.1236 F120.00
G01 X124.8923 Y-98.1236 F120.00
G01 X124.8923 Y-98.1638 F120.00
G01 X124.9323 Y-98.1638 F120.00
G01 X124.9323 Y-98.2040 F120.00
G01 X124.8923 Y-98.2040 F120.00
G01 X124.8923 Y-98.2442 F120.00
G01 X124.9323 Y-98.2442 F120.00
G01 X124.9323 Y-98.2844 F120.00
G01 X124.8923 Y-98.2844 F120.00
G01 X124.8923 Y-98.3246 F120.00
G01 X124.9323 Y-98.3246 F120.00
G01 X124.9323 Y-98.3648 F120.00
G01 X124.8923 Y-98.3648 F120.00
G01 X124.8923 Y-98.4050 F120.00
G01 X124.9323 Y-98.4050 F120.00
G01 X124.9323 Y-98.4452 F120.00
G01 X124.8923 Y-98.4452 F120.00
G01 X124.8923 Y-98.4854 F120.00
G01 X124.9323 Y-98.4854 F120.00
G01 X124.9323 Y-98.5256 F120.00
G01 X124.8923 Y-98.5256 F120.00
G01 X124.8923 Y-98.5658 F120.00
G01 X124.9323 Y-98.5658 F120.00
G01 X124.9323 Y-98.6060 F120.00
G01 X124.8923 Y-98.6060 F120.00
G01 X124.8923 Y-98.6462 F120.00
G01 X124.9323 Y-98.6462 F120.00
G01 X124.9323 Y-98.6864 F120.00
G01 X124.8923 Y-98.6864 F120.00
G01 X124.8923 Y-98.7266 F120.00
G01 X124.9323 Y-98.7266 F120.00
G01 X124.9323 Y-98.7668 F120.00
G01 X124.8923 Y-98.7668 F120.00
G01 X124.8923 Y-98.8070 F120.00
G01 X124.9323 Y-98.8070 F120.00
G01 X124.9323 Y-98.8472 F120.00
G01 X124.8923 Y-98.8472 F120.00
G01 X124.8923 Y-98.8874 F120.00
G01 X124.9323 Y-98.8874 F120.00
G01 X124.9323 Y-98.9276 F120.00
G01 X124.8923 Y-98.9276 F120.00
G01 X124.8923 Y-98.9678 F120.00
G01 X124.9323 Y-98.9678 F120.00
G01 X124.9323 Y-99.0080 F120.00
G01 X124.8923 Y-99.0080 F120.00
G01 X124.8923 Y-99.0482 F120.00
G01 X124.9323 Y-99.0482 F120.00
G01 X124.9323 Y-99.0884 F120.00
G01 X124.8923 Y-99.0884 F120.00
G01 X124.8923 Y-99.1286 F120.00
G01 X124.9323 Y-99.1286 F120.00
G01 X124.9323 Y-99.1688 F120.00
G01 X124.8923 Y-99.1688 F120.00
G01 X124.8923 Y-99.2090 F120.00
G01 X124.9323 Y-99.2090 F120.00
G01 X124.9323 Y-99.2492 F120.00
G01 X124.8923 Y-99.2492 F120.00
G01 X124.8923 Y-99.2894 F120.00
G01 X124.9323 Y-99.2894 F120.00
G01 X124.9323 Y-99.3296 F120.00
G01 X124.8923 Y-99.3296 F120.00
G01 X124.8923 Y-99.3698 F120.00
G01 X124.9323 Y-99.3698 F120.00
G01 X124.9323 Y-99.4100 F120.00
G01 X124.8923 Y-99.4100 F120.00
G01 X124.8923 Y-99.4502 F120.00
G01 X124.9323 Y-99.4502 F120.00
G01 X124.9323 Y-99.4904 F120.00
G01 X124.8923 Y-99.4904 F120.00
G01 X124.8923 Y-99.5306 F120.00
G01 X124.9323 Y-99.5306 F120.00
G01 X124.9323 Y-99.5708 F120.00
G01 X124.8923 Y-99.5708 F120.00
G01 X124.8923 Y-99.6110 F120.00
G01 X124.9323 Y-99.6110 F120.00
G01 X124.9323 Y-99.6512 F120.00
G01 X124.8923 Y-99.6512 F120.00
G01 X124.8923 Y-99.6914 F120.00
G01 X124.9323 Y-99.6914 F120.00
G01 X124.9323 Y-99.7316 F120.00
G01 X124.8923 Y-99.7316 F120.00
G01 X124.8923 Y-99.7718 F120.00
G01 X124.9323 Y-99.7718 F120.00
G01 X124.9323 Y-99.8120 F120.00
G01 X124.8923 Y-99.8120 F120.00
G01 X124.8923 Y-99.8522 F120.00
G01 X124.9323 Y-99.8522 F120.00
G01 X124.9323 Y-99.8924 F120.00
G01 X124.8923 Y-99.8924 F120.00
G01 X124.8923 Y-99.9326 F120.00
G01 X124.9323 Y-99.9326 F120.00
G01 X124.9323 Y-99.9728 F120.00
G01 X124.8923 Y-99.9728 F120.00
G01 X124.8923 Y-100.0130 F120.00
G01 X124.9323 Y-100.0130 F120.00
G01 X124.9323 Y-100.0532 F120.00
G01 X124.8923 Y-100.0532 F120.00
G01 X124.8923 Y-100.0934 F120.00
G01 X124.9323 Y-100.0934 F120.00
G01 X124.9323 Y-100.1336 F120.00
G01 X124.8923 Y-100.1336 F120.00
G01 X124.8923 Y-100.1738 F120.00
G01 X124.9323 Y-100.1738 F120.00
G01 X124.9323 Y-100.2140 F120.00
G01 X124.8923 Y-100.2140 F120.00
G01 X124.8923 Y-100.2542 F120.00
G01 X124.9323 Y-100.2542 F120.00
G01 X124.9323 Y-100.2944 F120.00
G01 X124.8923 Y-100.2944 F120.00
G01 X124.8923 Y-100.3346 F120.00
G01 X124.9323 Y-100.3346 F120.00
G01 X124.9323 Y-100.3748 F120.00
G01 X124.8923 Y-100.3748 F120.00
G01 X124.8923 Y-100.4150 F120.00
G01 X124.9323 Y-100.4150 F120.00
G01 X124.9323 Y-100.4552 F120.00
G01 X124.8923 Y-100.4552 F120.00
G01 X124.8923 Y-100.4954 F120.00
G01 X124.9323 Y-100.4954 F120.00
G01 X124.9323 Y-100.5356 F120.00
G01 X124.8923 Y-100.5356 F120.00
G01 X124.8923 Y-100.5758 F120.00
G01 X124.9323 Y-100.5758 F120.00
G01 X124.9323 Y-100.6160 F120.00
G01 X124.8923 Y-100.6160 F120.00
G01 X124.8923 Y-100.6562 F120.00
G01 X124.9323 Y-100.6562 F120.00
G01 X124.9323 Y-100.6964 F120.00
G01 X124.8923 Y-100.6964 F120.00
G01 X124.8923 Y-100.7366 F120.00
G01 X124.9323 Y-100.7366 F120.00
G01 X124.9323 Y-100.7768 F120.00
G01 X124.8923 Y-100.7768 F120.00
G01 X124.8923 Y-100.8170 F120.00
G01 X124.9323 Y-100.8170 F120.00
G01 X124.9323 Y-100.8572 F120.00
G01 X124.8923 Y-100.8572 F120.00
G01 X124.8923 Y-100.8974 F120.00
G01 X124.9323 Y-100.8974 F120.00
G01 X124.9323 Y-100.9376 F120.00
G01 X124.8923 Y-100.9376 F120.00
G01 X124.8923 Y-100.9778 F120.00
G01 X124.9323 Y-100.9778 F120.00
G01 X124.9323 Y-101.0180 F120.00
G01 X124.8923 Y-101.0180 F120.00
G01 X124.8923 Y-101.0582 F120.00
G01 X124.9323 Y-101.0582 F120.00
G01 X124.9323 Y-101.0984 F120.00
G01 X124.8923 Y-101.0984 F120.00
G01 X124.8923 Y-101.1386 F120.00
G01 X124.9323 Y-101.1386 F120.00
G01 X124.9323 Y-101.1788 F120.00
G01 X124.8923 Y-101.1788 F120.00
G01 X124.8923 Y-101.2190 F120.00
G01 X124.9323 Y-101.2190 F120.00
G01 X124.9323 Y-101.2592 F120.00
G01 X124.8923 Y-101.2592 F120.00
G01 X124.8923 Y-101.2994 F120.00
G01 X124.9323 Y-101.2994 F120.00
G01 X124.9323 Y-101.3396 F120.00
G01 X124.8923 Y-101.3396 F120.00
G01 X124.8923 Y-101.3798 F120.00
G01 X124.9323 Y-101.3798 F120.00
G01 X124.9323 Y-101.4200 F120.00
G01 X124.8923 Y-101.4200 F120.00
G01 X124.8923 Y-101.4602 F120.00
G01 X124.9323 Y-101.4602 F120.00
G01 X124.9323 Y-101.5004 F120.00
G01 X124.8923 Y-101.5004 F120.00
G01 X124.8923 Y-101.5406 F120.00
G01 X124.9323 Y-101.5406 F120.00
G01 X124.9323 Y-101.5808 F120.00
G01 X124.8923 Y-101.5808 F120.00
G01 X124.8923 Y-101.6210 F120.00
G01 X124.9323 Y-101.6210 F120.00
G01 X124.9323 Y-101.6612 F120.00
G01 X124.8923 Y-101.6612 F120.00
G01 X124.8923 Y-101.7014 F120.00
G01 X124.9323 Y-101.7014 F120.00
G01 X124.9323 Y-101.7416 F120.00
G01 X124.8923 Y-101.7416 F120.00
G01 X124.8923 Y-101.7818 F120.00
G01 X124.9323 Y-101.7818 F120.00
G01 X124.9323 Y-101.8220 F120.00
G01 X124.8923 Y-101.8220 F120.00
G01 X124.8923 Y-101.8622 F120.00
G01 X124.9323 Y-101.8622 F120.00
G01 X124.9323 Y-101.9024 F120.00
G01 X124.8923 Y-101.9024 F120.00
G01 X124.8923 Y-101.9426 F120.00
G01 X124.9323 Y-101.9426 F120.00
G01 X124.9323 Y-101.9828 F120.00
G01 X124.8923 Y-101.9828 F120.00
G01 X124.8923 Y-102.0230 F120.00
G01 X124.9323 Y-102.0230 F120.00
G01 X124.9323 Y-102.0632 F120.00
G01 X124.8923 Y-102.0632 F120.00
G01 X124.8923 Y-102.1034 F120.00
G01 X124.9323 Y-102.1034 F120.00
G01 X124.9323 Y-102.1436 F120.00
G01 X124.8923 Y-102.1436 F120.00
G01 X124.8923 Y-102.1838 F120.00
G01 X124.9323 Y-102.1838 F120.00
G01 X124.9323 Y-102.2240 F120.00
G01 X124.8923 Y-102.2240 F120.00
G01 X124.8923 Y-102.2642 F120.00
G01 X124.9323 Y-102.2642 F120.00
G01 X124.9323 Y-102.3044 F120.00
G01 X124.8923 Y-102.3044 F120.00
G01 X124.8923 Y-102.3446 F120.00
G01 X124.9323 Y-102.3446 F120.00
G01 X124.9323 Y-102.3848 F120.00
G01 X124.8923 Y-102.3848 F120.00
G01 X124.8923 Y-102.4250 F120.00
G01 X124.9323 Y-102.4250 F120.00
G01 X124.9323 Y-102.4652 F120.00
G01 X124.8923 Y-102.4652 F120.00
G01 X124.8923 Y-102.5054 F120.00
G01 X124.9323 Y-102.5054 F120.00
G01 X124.9323 Y-102.5456 F120.00
G01 X124.8923 Y-102.5456 F120.00
G01 X124.8923 Y-102.5858 F120.00
G01 X124.9323 Y-102.5858 F120.00
G01 X124.9323 Y-102.6260 F120.00
G01 X124.8923 Y-102.6260 F120.00
G01 X124.8923 Y-102.6662 F120.00
G01 X124.9323 Y-102.6662 F120.00
G01 X124.9323 Y-102.7064 F120.00
G01 X124.8923 Y-102.7064 F120.00
G01 X124.8923 Y-102.7466 F120.00
G01 X124.9323 Y-102.7466 F120.00
G01 X124.9323 Y-102.7868 F120.00
G01 X124.8923 Y-102.7868 F120.00
G01 X124.8923 Y-102.8270 F120.00
G01 X124.9323 Y-102.8270 F120.00
G01 X124.9323 Y-102.8672 F120.00
G01 X124.8923 Y-102.8672 F120.00
G01 X124.8923 Y-102.9074 F120.00
G01 X124.9323 Y-102.9074 F120.00
G01 X124.9323 Y-102.9476 F120.00
G01 X124.8923 Y-102.9476 F120.00
G01 X124.8923 Y-102.9878 F120.00
G01 X124.9323 Y-102.9878 F120.00
G01 X124.9323 Y-103.0280 F120.00
G01 X124.8923 Y-103.0280 F120.00
G01 X124.8923 Y-103.0682 F120.00
G01 X124.9323 Y-103.0682 F120.00
G01 X124.9323 Y-103.1084 F120.00
G01 X124.8923 Y-103.1084 F120.00
G01 X124.8923 Y-103.1486 F120.00
G01 X124.9323 Y-103.1486 F120.00
G01 X124.9323 Y-103.1888 F120.00
G01 X124.8923 Y-103.1888 F120.00
G01 X124.8923 Y-103.2290 F120.00
G01 X124.9323 Y-103.2290 F120.00
G01 X124.9323 Y-103.2692 F120.00
G01 X124.8923 Y-103.2692 F120.00
G01 X124.8923 Y-103.3094 F120.00
G01 X124.9323 Y-103.3094 F120.00
G01 X124.9323 Y-103.3496 F120.00
G01 X124.8923 Y-103.3496 F120.00
G01 X124.8923 Y-103.3898 F120.00
G01 X124.9323 Y-103.3898 F120.00
G01 X124.9323 Y-103.4300 F120.00
G01 X124.8923 Y-103.4300 F120.00
G01 X124.8923 Y-103.4702 F120.00
G01 X124.9323 Y-103.4702 F120.00
G01 X124.9323 Y-103.5104 F120.00
G01 X124.8923 Y-103.5104 F120.00
G01 X124.8923 Y-103.5506 F120.00
G01 X124.9323 Y-103.5506 F120.00
G01 X124.9323 Y-103.5908 F120.00
G01 X124.8923 Y-103.5908 F120.00
G01 X124.8923 Y-103.6310 F120.00
G01 X124.9323 Y-103.6310 F120.00
G01 X124.9323 Y-103.6712 F120.00
G01 X124.8923 Y-103.6712 F120.00
G01 X124.8923 Y-103.7114 F120.00
G01 X124.9323 Y-103.7114 F120.00
G01 X124.9323 Y-103.7516 F120.00
G01 X124.8923 Y-103.7516 F120.00
G01 X124.8923 Y-103.7918 F120.00
G01 X124.9323 Y-103.7918 F120.00
G01 X124.9323 Y-103.8320 F120.00
G01 X124.8923 Y-103.8320 F120.00
G01 X124.8923 Y-103.8722 F120.00
G01 X124.9323 Y-103.8722 F120.00
G01 X124.9323 Y-103.9124 F120.00
G01 X124.8923 Y-103.9124 F120.00
G01 X124.8923 Y-103.9526 F120.00
G01 X124.9323 Y-103.9526 F120.00
G01 X124.9323 Y-103.9928 F120.00
G01 X124.8923 Y-103.9928 F120.00
G01 X124.8923 Y-104.0330 F120.00
G01 X124.9323 Y-104.0330 F120.00
G01 X124.9323 Y-104.0732 F120.00
G01 X124.8923 Y-104.0732 F120.00
G01 X124.8923 Y-104.1134 F120.00
G01 X124.9323 Y-104.1134 F120.00
G01 X124.9323 Y-104.1536 F120.00
G01 X124.8923 Y-104.1536 F120.00
G01 X124.8923 Y-104.1938 F120.00
G01 X124.9323 Y-104.1938 F120.00
G01 X124.9323 Y-104.2340 F120.00
G01 X124.8923 Y-104.2340 F120.00
G01 X124.8923 Y-104.2742 F120.00
G01 X124.9323 Y-104.2742 F120.00
G01 X124.9323 Y-104.3144 F120.00
G01 X124.8923 Y-104.3144 F120.00
G01 X124.8923 Y-104.3546 F120.00
G01 X124.9323 Y-104.3546 F120.00
G01 X124.9323 Y-104.3948 F120.00
G01 X124.8923 Y-104.3948 F120.00
G01 X124.8923 Y-104.4350 F120.00
G01 X124.9323 Y-104.4350 F120.00
G01 X124.9323 Y-104.4752 F120.00
G01 X124.8923 Y-104.4752 F120.00
G01 X124.8923 Y-104.5154 F120.00
G01 X124.9323 Y-104.5154 F120.00
G01 X124.9323 Y-104.5556 F120.00
G01 X124.8923 Y-104.5556 F120.00
G01 X124.8923 Y-104.5958 F120.00
G01 X124.9323 Y-104.5958 F120.00
G01 X124.9323 Y-104.6360 F120.00
G01 X124.8923 Y-104.6360 F120.00
G01 X124.8923 Y-104.6762 F120.00
G01 X124.9323 Y-104.6762 F120.00
G01 X124.9323 Y-104.7164 F120.00
G01 X124.8923 Y-104.7164 F120.00
G01 X124.8923 Y-104.7566 F120.00
G01 X124.9323 Y-104.7566 F120.00
G01 X124.9323 Y-104.7968 F120.00
G01 X124.8923 Y-104.7968 F120.00
G01 X124.8923 Y-104.8370 F120.00
G01 X124.9323 Y-104.8370 F120.00
G01 X124.9323 Y-104.8772 F120.00
G01 X124.8923 Y-104.8772 F120.00
G01 X124.8923 Y-104.9174 F120.00
G01 X124.9323 Y-104.9174 F120.00
G01 X124.9323 Y-104.9576 F120.00
G01 X124.8923 Y-104.9576 F120.00
G01 X124.8923 Y-104.9978 F120.00
G01 X124.9323 Y-104.9978 F120.00
G01 X124.9323 Y-105.0380 F120.00
G01 X124.8923 Y-105.0380 F120.00
G01 X124.8923 Y-105.0782 F120.00
G01 X124.9323 Y-105.0782 F120.00
G01 X124.9323 Y-105.1184 F120.00
G01 X124.8923 Y-105.1184 F120.00
G01 X124.8923 Y-105.1586 F120.00
G01 X124.9323 Y-105.1586 F120.00
G01 X124.9323 Y-105.1988 F120.00
G01 X124.8923 Y-105.1988 F120.00
G01 X124.8923 Y-105.2390 F120.00
G01 X124.9323 Y-105.2390 F120.00
G01 X124.9323 Y-105.2792 F120.00
G01 X124.8923 Y-105.2792 F120.00
G01 X124.8923 Y-105.3194 F120.00
G01 X124.9323 Y-105.3194 F120.00
G01 X124.9323 Y-105.3596 F120.00
G01 X124.8923 Y-105.3596 F120.00
G01 X124.8923 Y-105.3998 F120.00
G01 X124.9323 Y-105.3998 F120.00
G01 X124.9323 Y-105.4400 F120.00
G01 X124.8923 Y-105.4400 F120.00
G01 X124.8923 Y-105.4802 F120.00
G01 X124.9323 Y-105.4802 F120.00
G01 X124.9323 Y-105.5204 F120.00
G01 X124.8923 Y-105.5204 F120.00
G01 X124.8923 Y-105.5606 F120.00
G01 X124.9323 Y-105.5606 F120.00
G01 X124.9323 Y-105.6008 F120.00
G01 X124.8923 Y-105.6008 F120.00
G01 X124.8923 Y-105.6410 F120.00
G01 X124.9323 Y-105.6410 F120.00
G01 X124.9323 Y-105.6812 F120.00
G01 X124.8923 Y-105.6812 F120.00
G01 X124.8923 Y-105.7214 F120.00
G01 X124.9323 Y-105.7214 F120.00
G01 X124.9323 Y-105.7616 F120.00
G01 X124.8923 Y-105.7616 F120.00
G01 X124.8923 Y-105.8018 F120.00
G01 X124.9323 Y-105.8018 F120.00
G01 X124.9323 Y-105.8420 F120.00
G01 X124.8923 Y-105.8420 F120.00
G01 X124.8923 Y-105.8822 F120.00
G01 X124.9323 Y-105.8822 F120.00
G01 X124.9323 Y-105.9224 F120.00
G01 X124.8923 Y-105.9224 F120.00
G01 X124.8923 Y-105.9626 F120.00
G01 X124.9323 Y-105.9626 F120.00
G01 X124.9323 Y-106.0028 F120.00
G01 X124.8923 Y-106.0028 F120.00
G01 X124.8923 Y-106.0430 F120.00
G01 X124.9323 Y-106.0430 F120.00
G01 X124.9323 Y-106.0832 F120.00
G01 X124.8923 Y-106.0832 F120.00
G01 X124.8923 Y-106.1234 F120.00
G01 X124.9323 Y-106.1234 F120.00
G01 X124.9323 Y-106.1636 F120.00
G01 X124.8923 Y-106.1636 F120.00
G01 X124.8923 Y-106.2038 F120.00
G01 X124.9323 Y-106.2038 F120.00
G01 X124.9323 Y-106.2440 F120.00
G01 X124.8923 Y-106.2440 F120.00
G01 X124.8923 Y-106.2842 F120.00
G01 X124.9323 Y-106.2842 F120.00
G01 X124.9323 Y-106.3244 F120.00
G01 X124.8923 Y-106.3244 F120.00
G01 X124.8923 Y-106.3646 F120.00
G01 X124.9323 Y-106.3646 F120.00
G01 X124.9323 Y-106.4048 F120.00
G01 X124.8923 Y-106.4048 F120.00
G01 X124.8923 Y-106.4450 F120.00
G01 X124.9323 Y-106.4450 F120.00
G01 X124.9323 Y-106.4852 F120.00
G01 X124.8923 Y-106.4852 F120.00
G01 X124.8923 Y-106.5254 F120.00
G01 X124.9323 Y-106.5254 F120.00
G01 X124.9323 Y-106.5656 F120.00
G01 X124.8923 Y-106.5656 F120.00
G01 X124.8923 Y-106.6058 F120.00
G01 X124.9323 Y-106.6058 F120.00
G01 X124.9323 Y-106.6460 F120.00
G01 X124.8923 Y-106.6460 F120.00
G01 X124.8923 Y-106.6862 F120.00
G01 X124.9323 Y-106.6862 F120.00
G01 X124.9323 Y-106.7264 F120.00
G01 X124.8923 Y-106.7264 F120.00
G01 X124.8923 Y-106.7666 F120.00
G01 X124.9323 Y-106.7666 F120.00
G01 X124.9323 Y-106.8068 F120.00
G01 X124.8923 Y-106.8068 F120.00
G01 X124.8923 Y-106.8470 F120.00
G01 X124.9323 Y-106.8470 F120.00
G01 X124.9323 Y-106.8872 F120.00
G01 X124.8923 Y-106.8872 F120.00
G01 X124.8923 Y-106.9274 F120.00
G01 X124.9323 Y-106.9274 F120.00
G01 X124.9323 Y-106.9676 F120.00
G01 X124.8923 Y-106.9676 F120.00
G01 X124.8923 Y-107.0078 F120.00
G01 X124.9323 Y-107.0078 F120.00
G01 X124.9323 Y-107.0480 F120.00
G01 X124.8923 Y-107.0480 F120.00
G01 X124.8923 Y-107.0882 F120.00
G01 X124.9323 Y-107.0882 F120.00
G01 X124.9323 Y-107.1284 F120.00
G01 X124.8923 Y-107.1284 F120.00
G01 X124.8923 Y-107.1686 F120.00
G01 X124.9323 Y-107.1686 F120.00
G01 X124.9323 Y-107.2088 F120.00
G01 X124.8923 Y-107.2088 F120.00
G01 X124.8923 Y-107.2490 F120.00
G01 X124.9323 Y-107.2490 F120.00
G01 X124.9323 Y-107.2892 F120.00
G01 X124.8923 Y-107.2892 F120.00
G01 X124.8923 Y-107.3294 F120.00
G01 X124.9323 Y-107.3294 F120.00
G01 X124.9323 Y-107.3696 F120.00
G01 X124.8923 Y-107.3696 F120.00
G01 X124.8923 Y-107.4098 F120.00
G01 X124.9323 Y-107.4098 F120.00
G01 X124.9323 Y-107.4500 F120.00
G01 X124.8923 Y-107.4500 F120.00
G01 X124.8923 Y-107.4902 F120.00
G01 X124.9323 Y-107.4902 F120.00
G01 X124.9323 Y-107.5304 F120.00
G01 X124.8923 Y-107.5304 F120.00
G01 X124.8923 Y-107.5706 F120.00
G01 X124.9323 Y-107.5706 F120.00
G01 X124.9323 Y-107.6108 F120.00
G01 X124.8923 Y-107.6108 F120.00
G01 X124.8923 Y-107.6510 F120.00
G01 X124.9323 Y-107.6510 F120.00
G01 X124.9323 Y-107.6912 F120.00
G01 X124.8923 Y-107.6912 F120.00
G01 X124.8923 Y-107.7314 F120.00
G01 X124.9323 Y-107.7314 F120.00
G01 X124.9323 Y-107.7716 F120.00
G01 X124.8923 Y-107.7716 F120.00
G01 X124.8923 Y-107.8118 F120.00
G01 X124.9323 Y-107.8118 F120.00
G01 X124.9323 Y-107.8520 F120.00
G01 X124.8923 Y-107.8520 F120.00
G01 X124.8923 Y-107.8922 F120.00
G01 X124.9323 Y-107.8922 F120.00
G01 X124.9323 Y-107.9324 F120.00
G01 X124.8923 Y-107.9324 F120.00
G01 X124.8923 Y-107.9726 F120.00
G01 X124.9323 Y-107.9726 F120.00
G01 X124.9323 Y-108.0128 F120.00
G01 X124.8923 Y-108.0128 F120.00
G01 X124.8923 Y-108.0530 F120.00
G01 X124.9323 Y-108.0530 F120.00
G01 X124.9323 Y-108.0932 F120.00
G01 X124.8923 Y-108.0932 F120.00
G01 X124.8923 Y-108.1334 F120.00
G01 X124.9323 Y-108.1334 F120.00
G01 X124.9323 Y-108.1736 F120.00
G01 X124.8923 Y-108.1736 F120.00
G01 X124.8923 Y-108.2138 F120.00
G01 X124.9323 Y-108.2138 F120.00
G01 X124.9323 Y-108.2540 F120.00
G01 X124.8923 Y-108.2540 F120.00
G01 X124.8923 Y-108.2942 F120.00
G01 X124.9323 Y-108.2942 F120.00
G01 X124.9323 Y-108.3344 F120.00
G01 X124.8923 Y-108.3344 F120.00
G01 X124.8923 Y-108.3746 F120.00
G01 X124.9323 Y-108.3746 F120.00
G01 X124.9323 Y-108.4148 F120.00
G01 X124.8923 Y-108.4148 F120.00
G01 X124.8923 Y-108.4550 F120.00
G01 X124.9323 Y-108.4550 F120.00
G01 X124.9323 Y-108.4952 F120.00
G01 X124.8923 Y-108.4952 F120.00
G01 X124.8923 Y-108.5354 F120.00
G01 X124.9323 Y-108.5354 F120.00
G01 X124.9323 Y-108.5756 F120.00
G01 X124.8923 Y-108.5756 F120.00
G01 X124.8923 Y-108.6158 F120.00
G01 X124.9323 Y-108.6158 F120.00
G01 X124.9323 Y-108.6560 F120.00
G01 X124.8923 Y-108.6560 F120.00
G01 X124.8923 Y-108.6962 F120.00
G01 X124.9323 Y-108.6962 F120.00
G01 X124.9323 Y-108.7364 F120.00
G01 X124.8923 Y-108.7364 F120.00
G01 X124.8923 Y-108.7766 F120.00
G01 X124.9323 Y-108.7766 F120.00
G01 X124.9323 Y-108.8168 F120.00
G01 X124.8923 Y-108.8168 F120.00
G01 X124.8923 Y-108.8570 F120.00
G01 X124.9323 Y-108.8570 F120.00
G01 X124.9323 Y-108.8972 F120.00
G01 X124.8923 Y-108.8972 F120.00
G01 X124.8923 Y-108.9374 F120.00
G01 X124.9323 Y-108.9374 F120.00
G01 X124.9323 Y-108.9776 F120.00
G01 X124.8923 Y-108.9776 F120.00
G01 X124.8923 Y-109.0178 F120.00
G01 X124.9323 Y-109.0178 F120.00
G01 X124.9323 Y-109.0580 F120.00
G01 X124.8923 Y-109.0580 F120.00
G01 X124.8923 Y-109.0982 F120.00
G01 X124.9323 Y-109.0982 F120.00
G01 X124.9323 Y-109.1384 F120.00
G01 X124.8923 Y-109.1384 F120.00
G01 X124.8923 Y-109.1786 F120.00
G01 X124.9323 Y-109.1786 F120.00
G01 X124.9323 Y-109.2188 F120.00
G01 X124.8923 Y-109.2188 F120.00
G01 X124.8923 Y-109.2590 F120.00
G01 X124.9323 Y-109.2590 F120.00
G01 X124.9323 Y-109.2992 F120.00
G01 X124.8923 Y-109.2992 F120.00
G01 X124.8923 Y-109.3394 F120.00
G01 X124.9349 Y-109.3394 F120.00
M5
G00 X124.9323 Y-109.3107
G01 F60.00
M03 S5000.0
G01 F120.00
G01 X124.9327 Y-109.3195 F120.00
G01 X124.9665 Y-109.6279 F120.00
G01 X124.9677 Y-109.6354 F120.00
G01 X125.0307 Y-109.9391 F120.00
G01 X125.0322 Y-109.9451 F120.00
G01 X125.1241 Y-110.2428 F120.00
G01 X125.1267 Y-110.2500 F120.00
G01 X125.2461 Y-110.5363 F120.00
G01 X125.2487 Y-110.5419 F120.00
G01 X125.3954 Y-110.8168 F120.00
G01 X125.3986 Y-110.8222 F120.00
G01 X125.5708 Y-111.0819 F120.00
G01 X125.5744 Y-111.0869 F120.00
G01 X125.7705 Y-111.3290 F120.00
G01 X125.7756 Y-111.3347 F120.00
G01 X125.9929 Y-111.5561 F120.00
G01 X125.9974 Y-111.5603 F120.00
G01 X126.2359 Y-111.7609 F120.00
G01 X126.2408 Y-111.7647 F120.00
G01 X126.4972 Y-111.9417 F120.00
G01 X126.5024 Y-111.9450 F120.00
G01 X126.7746 Y-112.0968 F120.00
G01 X126.7801 Y-112.0996 F120.00
G01 X127.0654 Y-112.2248 F120.00
G01 X127.0712 Y-112.2271 F120.00
G01 X127.3672 Y-112.3246 F120.00
G01 X127.3731 Y-112.3263 F120.00
G01 X127.6770 Y-112.3952 F120.00
G01 X127.6831 Y-112.3963 F120.00
G01 X127.9922 Y-112.4359 F120.00
G01 X127.9991 Y-112.4365 F120.00
G01 X128.3123 Y-112.4466 F120.00
G01 X177.8498 Y-112.4858 F120.00
G01 X178.1625 Y-112.4757 F120.00
G01 X178.1701 Y-112.4751 F120.00
G01 X178.4778 Y-112.4357 F120.00
G01 X178.4839 Y-112.4346 F120.00
G01 X178.7892 Y-112.3654 F120.00
G01 X178.7951 Y-112.3638 F120.00
G01 X179.0897 Y-112.2667 F120.00
G01 X179.0969 Y-112.2640 F120.00
G01 X179.3809 Y-112.1394 F120.00
G01 X179.3865 Y-112.1367 F120.00
G01 X179.6592 Y-111.9846 F120.00
G01 X179.6651 Y-111.9809 F120.00
G01 X179.9204 Y-111.8047 F120.00
G01 X179.9253 Y-111.8010 F120.00
G01 X180.1638 Y-111.6004 F120.00
G01 X180.1694 Y-111.5953 F120.00
G01 X180.3877 Y-111.3729 F120.00
G01 X180.3918 Y-111.3682 F120.00
G01 X180.5870 Y-111.1272 F120.00
G01 X180.5915 Y-111.1211 F120.00
G01 X180.7630 Y-110.8626 F120.00
G01 X180.7662 Y-110.8573 F120.00
G01 X180.9129 Y-110.5824 F120.00
G01 X180.9162 Y-110.5755 F120.00
G01 X181.0361 Y-110.2879 F120.00
G01 X181.0381 Y-110.2820 F120.00
G01 X181.1297 Y-109.9857 F120.00
G01 X181.1316 Y-109.9783 F120.00
G01 X181.1948 Y-109.6732 F120.00
G01 X181.1958 Y-109.6670 F120.00
G01 X181.2295 Y-109.3587 F120.00
G01 X181.2300 Y-109.3515 F120.00
G01 X181.2300 Y-77.2993 F120.00
G01 X181.2295 Y-77.2913 F120.00
G01 X181.1956 Y-76.9815 F120.00
G01 X181.1946 Y-76.9754 F120.00
G01 X181.1316 Y-76.6717 F120.00
G01 X181.1297 Y-76.6643 F120.00
G01 X181.0377 Y-76.3666 F120.00
G01 X181.0356 Y-76.3608 F120.00
G01 X180.9162 Y-76.0745 F120.00
G01 X180.9129 Y-76.0676 F120.00
G01 X180.7669 Y-75.7940 F120.00
G01 X180.7637 Y-75.7886 F120.00
G01 X180.5915 Y-75.5289 F120.00
G01 X180.5870 Y-75.5228 F120.00
G01 X180.3909 Y-75.2807 F120.00
G01 X180.3867 Y-75.2761 F120.00
G01 X180.1694 Y-75.0547 F120.00
G01 X180.1638 Y-75.0496 F120.00
G01 X179.9253 Y-74.8490 F120.00
G01 X179.9204 Y-74.8453 F120.00
G01 X179.6651 Y-74.6691 F120.00
G01 X179.6586 Y-74.6651 F120.00
G01 X179.3865 Y-74.5133 F120.00
G01 X179.3809 Y-74.5106 F120.00
G01 X179.0969 Y-74.3860 F120.00
G01 X179.0897 Y-74.3833 F120.00
G01 X178.7951 Y-74.2862 F120.00
G01 X178.7892 Y-74.2846 F120.00
G01 X178.4853 Y-74.2157 F120.00
G01 X178.4778 Y-74.2143 F120.00
G01 X178.1701 Y-74.1749 F120.00
G01 X178.1639 Y-74.1743 F120.00
G01 X177.8518 Y-74.1642 F120.00
G01 X128.3123 Y-74.2034 F120.00
G01 X127.9998 Y-74.2135 F120.00
G01 X127.9922 Y-74.2141 F120.00
G01 X127.6845 Y-74.2535 F120.00
G01 X127.6784 Y-74.2546 F120.00
G01 X127.3731 Y-74.3238 F120.00
G01 X127.3672 Y-74.3254 F120.00
G01 X127.0726 Y-74.4225 F120.00
G01 X127.0655 Y-74.4252 F120.00
G01 X126.7814 Y-74.5498 F120.00
G01 X126.7758 Y-74.5525 F120.00
G01 X126.5031 Y-74.7046 F120.00
G01 X126.4972 Y-74.7083 F120.00
G01 X126.2419 Y-74.8845 F120.00
G01 X126.2370 Y-74.8882 F120.00
G01 X125.9985 Y-75.0888 F120.00
G01 X125.9929 Y-75.0939 F120.00
G01 X125.7746 Y-75.3163 F120.00
G01 X125.7705 Y-75.3210 F120.00
G01 X125.5753 Y-75.5620 F120.00
G01 X125.5708 Y-75.5681 F120.00
G01 X125.3993 Y-75.8266 F120.00
G01 X125.3961 Y-75.8319 F120.00
G01 X125.2494 Y-76.1068 F120.00
G01 X125.2461 Y-76.1137 F120.00
G01 X125.1262 Y-76.4013 F120.00
G01 X125.1242 Y-76.4072 F120.00
G01 X125.0326 Y-76.7035 F120.00
G01 X125.0307 Y-76.7109 F120.00
G01 X124.9675 Y-77.0160 F120.00
G01 X124.9665 Y-77.0221 F120.00
G01 X124.9328 Y-77.3305 F120.00
G01 X124.9323 Y-77.3377 F120.00
G01 X124.9323 Y-109.3107 F120.00
M5
G00 X124.9393 Y-109.3796
G01 F60.00
M03 S5000.0
G01 F120.00
G01 X124.8923 Y-109.3796 F120.00
G01 X124.8923 Y-109.4198 F120.00
G01 X124.9437 Y-109.4198 F120.00
G01 X124.9481 Y-109.4600 F120.00
G01 X124.8923 Y-109.4600 F120.00
G01 X124.8923 Y-109.5002 F120.00
G01 X124.9525 Y-109.5002 F120.00
G01 X124.9569 Y-109.5404 F120.00
G01 X124.8923 Y-109.5404 F120.00
G01 X124.8923 Y-109.5806 F120.00
G01 X124.9613 Y-109.5806 F120.00
G01 X124.9657 Y-109.6208 F120.00
G01 X124.8923 Y-109.6208 F120.00
G01 X124.8923 Y-109.6610 F120.00
G01 X124.9730 Y-109.6610 F120.00
G01 X124.9814 Y-109.7012 F120.00
G01 X124.8923 Y-109.7012 F120.00
G01 X124.8923 Y-109.7414 F120.00
G01 X124.9897 Y-109.7414 F120.00
G01 X124.9980 Y-109.7816 F120.00
G01 X124.8923 Y-109.7816 F120.00
G01 X124.8923 Y-109.8218 F120.00
G01 X125.0064 Y-109.8218 F120.00
G01 X125.0147 Y-109.8620 F120.00
G01 X124.8923 Y-109.8620 F120.00
G01 X124.8923 Y-109.9022 F120.00
G01 X125.0230 Y-109.9022 F120.00
M5
G00 X125.0315 Y-109.9424
G01 F60.00
M03 S5000.0
G01 F120.00
G01 X124.8923 Y-109.9424 F120.00
G01 X124.8923 Y-109.9826 F120.00
G01 X125.0437 Y-109.9826 F120.00
G01 X125.0562 Y-110.0228 F120.00
G01 X124.8923 Y-110.0228 F120.00
G01 X124.8923 Y-110.0630 F120.00
G01 X125.0686 Y-110.0630 F120.00
G01 X125.0810 Y-110.1032 F120.00
G01 X124.8923 Y-110.1032 F120.00
G01 X124.8923 Y-110.1434 F120.00
G01 X125.0934 Y-110.1434 F120.00
G01 X125.1058 Y-110.1836 F120.00
G01 X124.8923 Y-110.1836 F120.00
G01 X124.8923 Y-110.2238 F120.00
G01 X125.1183 Y-110.2238 F120.00
M5
G00 X125.1326 Y-110.2640
G01 F60.00
M03 S5000.0
G01 F120.00
G01 X124.8923 Y-110.2640 F120.00
G01 X124.8923 Y-110.3042 F120.00
G01 X125.1493 Y-110.3042 F120.00
G01 X125.1661 Y-110.3444 F120.00
G01 X124.8923 Y-110.3444 F120.00
G01 X124.8923 Y-110.3846 F120.00
G01 X125.1829 Y-110.3846 F120.00
G01 X125.1996 Y-110.4248 F120.00
G01 X124.8923 Y-110.4248 F120.00
G01 X124.8923 Y-110.4650 F120.00
G01 X125.2164 Y-110.4650 F120.00
G01 X125.2331 Y-110.5052 F120.00
G01 X124.8923 Y-110.5052 F120.00
G01 X124.8923 Y-110.5454 F120.00
G01 X125.2505 Y-110.5454 F120.00
G01 X125.2720 Y-110.5856 F120.00
G01 X124.8923 Y-110.5856 F120.00
G01 X124.8923 Y-110.6258 F120.00
G01 X125.2935 Y-110.6258 F120.00
G01 X125.3149 Y-110.6660 F120.00
G01 X124.8923 Y-110.6660 F120.00
G01 X124.8923 Y-110.7062 F120.00
G01 X125.3364 Y-110.7062 F120.00
G01 X125.3578 Y-110.7464 F120.00
G01 X124.8923 Y-110.7464 F120.00
G01 X124.8923 Y-110.7866 F120.00
G01 X125.3793 Y-110.7866 F120.00
M5
G00 X125.4016 Y-110.8268
G01 F60.00
M03 S5000.0
G01 F120.00
G01 X124.8923 Y-110.8268 F120.00
G01 X124.8923 Y-110.8670 F120.00
G01 X125.4283 Y-110.8670 F120.00
G01 X125.4549 Y-110.9072 F120.00
G01 X124.8923 Y-110.9072 F120.00
G01 X124.8923 Y-110.9474 F120.00
G01 X125.4816 Y-110.9474 F120.00
G01 X125.5082 Y-110.9876 F120.00
G01 X124.8923 Y-110.9876 F120.00
G01 X124.8923 Y-111.0278 F120.00
G01 X125.5349 Y-111.0278 F120.00
G01 X125.5616 Y-111.0680 F120.00
G01 X124.8923 Y-111.0680 F120.00
G01 X124.8923 Y-111.1082 F120.00
G01 X125.5916 Y-111.1082 F120.00
G01 X125.6242 Y-111.1484 F120.00
G01 X124.8923 Y-111.1484 F120.00
G01 X124.8923 Y-111.1886 F120.00
G01 X125.6568 Y-111.1886 F120.00
G01 X125.6893 Y-111.2288 F120.00
G01 X124.8923 Y-111.2288 F120.00
G01 X124.8923 Y-111.2690 F120.00
G01 X125.7219 Y-111.2690 F120.00
G01 X125.7545 Y-111.3092 F120.00
G01 X124.8923 Y-111.3092 F120.00
G01 X124.8923 Y-111.3494 F120.00
G01 X125.7900 Y-111.3494 F120.00
G01 X125.8295 Y-111.3896 F120.00
G01 X124.8923 Y-111.3896 F120.00
G01 X124.8923 Y-111.4298 F120.00
G01 X125.8689 Y-111.4298 F120.00
G01 X125.9084 Y-111.4700 F120.00
G01 X124.8923 Y-111.4700 F120.00
G01 X124.8923 Y-111.5102 F120.00
G01 X125.9479 Y-111.5102 F120.00
G01 X125.9873 Y-111.5504 F120.00
G01 X124.8923 Y-111.5504 F120.00
G01 X124.8923 Y-111.5906 F120.00
G01 X126.0334 Y-111.5906 F120.00
G01 X126.0812 Y-111.6308 F120.00
G01 X124.8923 Y-111.6308 F120.00
G01 X124.8923 Y-111.6710 F120.00
G01 X126.1290 Y-111.6710 F120.00
G01 X126.1768 Y-111.7112 F120.00
G01 X124.8923 Y-111.7112 F120.00
G01 X124.8923 Y-111.7514 F120.00
G01 X126.2246 Y-111.7514 F120.00
M5
G00 X126.2797 Y-111.7916
G01 F60.00
M03 S5000.0
G01 F120.00
G01 X124.8923 Y-111.7916 F120.00
G01 X124.8923 Y-111.8318 F120.00
G01 X126.3380 Y-111.8318 F120.00
G01 X126.3962 Y-111.8720 F120.00
G01 X124.8923 Y-111.8720 F120.00
G01 X124.8923 Y-111.9122 F120.00
G01 X126.4545 Y-111.9122 F120.00
M5
G00 X126.5157 Y-111.9524
G01 F60.00
M03 S5000.0
G01 F120.00
G01 X124.8923 Y-111.9524 F120.00
G01 X124.8923 Y-111.9926 F120.00
G01 X126.5878 Y-111.9926 F120.00
G01 X126.6598 Y-112.0328 F120.00
G01 X124.8923 Y-112.0328 F120.00
G01 X124.8923 Y-112.0730 F120.00
G01 X126.7319 Y-112.0730 F120.00
M5
G00 X126.8111 Y-112.1132
G01 F60.00
M03 S5000.0
G01 F120.00
G01 X124.8923 Y-112.1132 F120.00
G01 X124.8923 Y-112.1534 F120.00
G01 X126.9027 Y-112.1534 F120.00
G01 X126.9943 Y-112.1936 F120.00
G01 X124.8923 Y-112.1936 F120.00
G01 X124.8923 Y-112.2338 F120.00
G01 X127.0916 Y-112.2338 F120.00
G01 X127.2137 Y-112.2740 F120.00
G01 X124.8923 Y-112.2740 F120.00
G01 X124.8923 Y-112.3142 F120.00
G01 X127.3357 Y-112.3142 F120.00
M5
G00 X127.4972 Y-112.3544
G01 F60.00
M03 S5000.0
G01 F120.00
G01 X124.8923 Y-112.3544 F120.00
G01 X124.8923 Y-112.3946 F120.00
G01 X127.6746 Y-112.3946 F120.00
M5
G00 X127.9834 Y-112.4348
G01 F60.00
M03 S5000.0
G01 F120.00
G01 X124.8923 Y-112.4348 F120.00
G01 X124.8923 Y-112.4750 F120.00
G01 X164.2285 Y-112.4750 F120.00
M5
G00 X162.0800 Y-112.3133
G01 F60.00
M03 S5000.0
G01 F120.00
G01 X178.1741 Y-112.3133 F120.00
G01 X178.4728 Y-112.2731 F120.00
G01 X127.9803 Y-112.2731 F120.00
G01 X127.6850 Y-112.2329 F120.00
G01 X178.6502 Y-112.2329 F120.00
G01 X178.8030 Y-112.1927 F120.00
G01 X127.5076 Y-112.1927 F120.00
G01 X127.3563 Y-112.1525 F120.00
G01 X178.9250 Y-112.1525 F120.00
G01 X179.0443 Y-112.1123 F120.00
G01 X127.2342 Y-112.1123 F120.00
G01 X127.1156 Y-112.0721 F120.00
G01 X179.1360 Y-112.0721 F120.00
G01 X179.2276 Y-112.0319 F120.00
G01 X127.0240 Y-112.0319 F120.00
G01 X126.9324 Y-111.9917 F120.00
G01 X179.3179 Y-111.9917 F120.00
G01 X179.3900 Y-111.9515 F120.00
G01 X126.8426 Y-111.9515 F120.00
G01 X126.7705 Y-111.9113 F120.00
G01 X179.4621 Y-111.9113 F120.00
G01 X179.5342 Y-111.8711 F120.00
G01 X126.6984 Y-111.8711 F120.00
G01 X126.6263 Y-111.8309 F120.00
G01 X179.6007 Y-111.8309 F120.00
G01 X179.6590 Y-111.7907 F120.00
G01 X126.5601 Y-111.7907 F120.00
G01 X126.5019 Y-111.7505 F120.00
G01 X179.7172 Y-111.7505 F120.00
G01 X179.7755 Y-111.7103 F120.00
G01 X126.4436 Y-111.7103 F120.00
G01 X126.3854 Y-111.6701 F120.00
G01 X179.8324 Y-111.6701 F120.00
G01 X179.8802 Y-111.6299 F120.00
G01 X126.3287 Y-111.6299 F120.00
G01 X126.2809 Y-111.5897 F120.00
G01 X179.9280 Y-111.5897 F120.00
G01 X179.9758 Y-111.5495 F120.00
G01 X126.2331 Y-111.5495 F120.00
G01 X126.1853 Y-111.5093 F120.00
G01 X180.0236 Y-111.5093 F120.00
G01 X180.0690 Y-111.4691 F120.00
G01 X126.1375 Y-111.4691 F120.00
G01 X126.0923 Y-111.4289 F120.00
G01 X180.1085 Y-111.4289 F120.00
G01 X180.1479 Y-111.3887 F120.00
G01 X126.0528 Y-111.3887 F120.00
G01 X126.0134 Y-111.3485 F120.00
G01 X180.1874 Y-111.3485 F120.00
G01 X180.2269 Y-111.3083 F120.00
G01 X125.9739 Y-111.3083 F120.00
G01 X125.9344 Y-111.2681 F120.00
G01 X180.2663 Y-111.2681 F120.00
G01 X180.2995 Y-111.2279 F120.00
G01 X125.8950 Y-111.2279 F120.00
G01 X125.8620 Y-111.1877 F120.00
G01 X180.3321 Y-111.1877 F120.00
G01 X180.3646 Y-111.1475 F120.00
G01 X125.8294 Y-111.1475 F120.00
G01 X125.7968 Y-111.1073 F120.00
G01 X180.3972 Y-111.1073 F120.00
G01 X180.4298 Y-111.0671 F120.00
G01 X125.7643 Y-111.0671 F120.00
G01 X125.7317 Y-111.0269 F120.00
G01 X180.4620 Y-111.0269 F120.00
G01 X180.4886 Y-110.9867 F120.00
G01 X125.6997 Y-110.9867 F120.00
G01 X125.6730 Y-110.9465 F120.00
G01 X180.5153 Y-110.9465 F120.00
G01 X180.5419 Y-110.9063 F120.00
G01 X125.6463 Y-110.9063 F120.00
G01 X125.6197 Y-110.8661 F120.00
G01 X180.5686 Y-110.8661 F120.00
G01 X180.5953 Y-110.8259 F120.00
G01 X125.5930 Y-110.8259 F120.00
G01 X125.5664 Y-110.7857 F120.00
G01 X180.6219 Y-110.7857 F120.00
G01 X180.6445 Y-110.7455 F120.00
G01 X125.5397 Y-110.7455 F120.00
G01 X125.5173 Y-110.7053 F120.00
G01 X180.6659 Y-110.7053 F120.00
G01 X180.6874 Y-110.6651 F120.00
G01 X125.4958 Y-110.6651 F120.00
G01 X125.4744 Y-110.6249 F120.00
G01 X180.7088 Y-110.6249 F120.00
G01 X180.7303 Y-110.5847 F120.00
G01 X125.4529 Y-110.5847 F120.00
G01 X125.4315 Y-110.5445 F120.00
G01 X180.7517 Y-110.5445 F120.00
G01 X180.7725 Y-110.5043 F120.00
G01 X125.4100 Y-110.5043 F120.00
G01 X125.3894 Y-110.4641 F120.00
G01 X180.7892 Y-110.4641 F120.00
G01 X180.8060 Y-110.4239 F120.00
G01 X125.3726 Y-110.4239 F120.00
G01 X125.3559 Y-110.3837 F120.00
G01 X180.8228 Y-110.3837 F120.00
G01 X180.8395 Y-110.3435 F120.00
G01 X125.3391 Y-110.3435 F120.00
G01 X125.3223 Y-110.3033 F120.00
G01 X180.8563 Y-110.3033 F120.00
G01 X180.8730 Y-110.2631 F120.00
G01 X125.3056 Y-110.2631 F120.00
M5
G00 X124.8923 Y-112.5152
G01 F60.00
M03 S5000.0
G01 F120.00
G01 X181.2700 Y-112.5152 F120.00
M5
G00 X129.3889 Y-108.8159
G01 F60.00
M03 S5000.0
G01 F120.00
G01 X125.0923 Y-108.8159 F120.00
G01 X125.0923 Y-108.8561 F120.00
G01 X129.4253 Y-108.8561 F120.00
G01 X129.4617 Y-108.8963 F120.00
G01 X125.0923 Y-108.8963 F120.00
G01 X125.0923 Y-108.9365 F120.00
G01 X129.5017 Y-108.9365 F120.00
G01 X129.5461 Y-108.9767 F120.00
G01 X125.0923 Y-108.9767 F120.00
G01 X125.0923 Y-109.0169 F120.00
G01 X129.5913 Y-109.0169 F120.00
G01 X129.6455 Y-109.0571 F120.00
G01 X125.0923 Y-109.0571 F120.00
G01 X125.0923 Y-109.0973 F120.00
G01 X129.7000 Y-109.0973 F120.00
M5
G00 X129.3586 Y-108.7757
G01 F60.00
M03 S5000.0
G01 F120.00
G01 X125.0923 Y-108.7757 F120.00
G01 X125.0923 Y-108.7355 F120.00
G01 X129.3288 Y-108.7355 F120.00
M5
G00 X129.2997 Y-108.6953
G01 F60.00
M03 S5000.0
G01 F120.00
G01 X125.0923 Y-108.6953 F120.00
G01 X125.0923 Y-108.6551 F120.00
G01 X129.2756 Y-108.6551 F120.00
G01 X129.2515 Y-108.6149 F120.00
G01 X125.0923 Y-108.6149 F120.00
G01 X125.0923 Y-108.5747 F120.00
G01 X129.2280 Y-108.5747 F120.00
G01 X129.2089 Y-108.5345 F120.00
G01 X125.0923 Y-108.5345 F120.00
G01 X125.0923 Y-108.4943 F120.00
G01 X129.1899 Y-108.4943 F120.00
M5
G00 X129.1709 Y-108.4541
G01 F60.00
M03 S5000.0
G01 F120.00
G01 X125.0923 Y-108.4541 F120.00
G01 X125.0923 Y-108.4139 F120.00
G01 X129.1562 Y-108.4139 F120.00
G01 X129.1418 Y-108.3737 F120.00
G01 X125.0923 Y-108.3737 F120.00
G01 X125.0923 Y-108.3335 F120.00
G01 X129.1274 Y-108.3335 F120.00
M5
G00 X129.1157 Y-108.2933
G01 F60.00
M03 S5000.0
G01 F120.00
G01 X125.0923 Y-108.2933 F120.00
G01 X125.0923 Y-108.2531 F120.00
G01 X129.1056 Y-108.2531 F120.00
G01 X129.0956 Y-108.2129 F120.00
G01 X125.0923 Y-108.2129 F120.00
G01 X125.0923 Y-108.1727 F120.00
G01 X129.0863 Y-108.1727 F120.00
G01 X129.0804 Y-108.1325 F120.00
G01 X125.0923 Y-108.1325 F120.00
G01 X125.0923 Y-108.0923 F120.00
G01 X129.0744 Y-108.0923 F120.00
G01 X129.0684 Y-108.0521 F120.00
G01 X125.0923 Y-108.0521 F120.00
G01 X125.0923 Y-108.0119 F120.00
G01 X129.0654 Y-108.0119 F120.00
G01 X129.0634 Y-107.9717 F120.00
G01 X125.0923 Y-107.9717 F120.00
G01 X125.0923 Y-107.9315 F120.00
G01 X129.0614 Y-107.9315 F120.00
M5
G00 X129.0603 Y-107.8913
G01 F60.00
M03 S5000.0
G01 F120.00
G01 X125.0923 Y-107.8913 F120.00
G01 X125.0923 Y-107.8511 F120.00
G01 X129.0623 Y-107.8511 F120.00
G01 X129.0643 Y-107.8109 F120.00
G01 X125.0923 Y-107.8109 F120.00
G01 X125.0923 Y-107.7707 F120.00
G01 X129.0662 Y-107.7707 F120.00
M5
G00 X129.0710 Y-107.7305
G01 F60.00
M03 S5000.0
G01 F120.00
G01 X125.0923 Y-107.7305 F120.00
G01 X125.0923 Y-107.6903 F120.00
G01 X129.0770 Y-107.6903 F120.00
G01 X129.0830 Y-107.6501 F120.00
G01 X125.0923 Y-107.6501 F120.00
G01 X125.0923 Y-107.6099 F120.00
G01 X129.0899 Y-107.6099 F120.00
G01 X129.0999 Y-107.5697 F120.00
G01 X125.0923 Y-107.5697 F120.00
G01 X125.0923 Y-107.5295 F120.00
G01 X129.1100 Y-107.5295 F120.00
G01 X129.1201 Y-107.4893 F120.00
G01 X125.0923 Y-107.4893 F120.00
G01 X125.0923 Y-107.4491 F120.00
G01 X129.1337 Y-107.4491 F120.00
G01 X129.1481 Y-107.4089 F120.00
G01 X125.0923 Y-107.4089 F120.00
G01 X125.0923 Y-107.3687 F120.00
G01 X129.1624 Y-107.3687 F120.00
M5
G00 X129.1792 Y-107.3285
G01 F60.00
M03 S5000.0
G01 F120.00
G01 X125.0923 Y-107.3285 F120.00
G01 X125.0923 Y-107.2883 F120.00
G01 X129.1982 Y-107.2883 F120.00
G01 X129.2172 Y-107.2481 F120.00
G01 X125.0923 Y-107.2481 F120.00
G01 X125.0923 Y-107.2079 F120.00
G01 X129.2379 Y-107.2079 F120.00
G01 X129.2620 Y-107.1677 F120.00
G01 X125.0923 Y-107.1677 F120.00
G01 X125.0923 Y-107.1275 F120.00
G01 X129.2861 Y-107.1275 F120.00
M5
G00 X129.3120 Y-107.0873
G01 F60.00
M03 S5000.0
G01 F120.00
G01 X125.0923 Y-107.0873 F120.00
G01 X125.0923 Y-107.0471 F120.00
G01 X129.3418 Y-107.0471 F120.00
G01 X129.3716 Y-107.0069 F120.00
G01 X125.0923 Y-107.0069 F120.00
G01 X125.0923 Y-106.9667 F120.00
G01 X129.4047 Y-106.9667 F120.00
G01 X129.4411 Y-106.9265 F120.00
G01 X125.0923 Y-106.9265 F120.00
G01 X125.0923 Y-106.8863 F120.00
G01 X129.4775 Y-106.8863 F120.00
M5
G00 X129.5210 Y-106.8461
G01 F60.00
M03 S5000.0
G01 F120.00
G01 X125.0923 Y-106.8461 F120.00
G01 X125.0923 Y-106.8059 F120.00
G01 X129.5654 Y-106.8059 F120.00
M5
G00 X129.6149 Y-106.7657
G01 F60.00
M03 S5000.0
G01 F120.00
G01 X125.0923 Y-106.7657 F120.00
G01 X125.0923 Y-106.7255 F120.00
G01 X129.6691 Y-106.7255 F120.00
M5
G00 X129.7288 Y-106.6853
G01 F60.00
M03 S5000.0
G01 F120.00
G01 X125.0923 Y-106.6853 F120.00
G01 X125.0923 Y-106.6451 F120.00
G01 X129.7959 Y-106.6451 F120.00
M5
G00 X129.8742 Y-106.6049
G01 F60.00
M03 S5000.0
G01 F120.00
G01 X125.0923 Y-106.6049 F120.00
G01 X125.0923 Y-106.5647 F120.00
G01 X129.9625 Y-106.5647 F120.00
G01 X130.0748 Y-106.5245 F120.00
G01 X125.0923 Y-106.5245 F120.00
G01 X125.0923 Y-106.4843 F120.00
G01 X130.2413 Y-106.4843 F120.00
M5
G00 X130.0785 Y-106.5232
G01 F60.00
M03 S5000.0
G01 F120.00
G01 X129.9531 Y-106.5680 F120.00
G01 X129.9462 Y-106.5708 F120.00
G01 X129.8251 Y-106.6280 F120.00
G01 X129.8186 Y-106.6315 F120.00
G01 X129.7037 Y-106.7003 F120.00
G01 X129.6976 Y-106.7044 F120.00
G01 X129.5900 Y-106.7841 F120.00
G01 X129.5842 Y-106.7888 F120.00
G01 X129.4850 Y-106.8787 F120.00
G01 X129.4797 Y-106.8839 F120.00
G01 X129.3898 Y-106.9831 F120.00
G01 X129.3851 Y-106.9888 F120.00
G01 X129.3052 Y-107.0964 F120.00
G01 X129.3011 Y-107.1025 F120.00
G01 X129.2322 Y-107.2173 F120.00
G01 X129.2287 Y-107.2238 F120.00
G01 X129.1714 Y-107.3449 F120.00
G01 X129.1686 Y-107.3517 F120.00
G01 X129.1234 Y-107.4778 F120.00
G01 X129.1212 Y-107.4848 F120.00
G01 X129.0886 Y-107.6148 F120.00
G01 X129.0872 Y-107.6220 F120.00
G01 X129.0675 Y-107.7545 F120.00
G01 X129.0667 Y-107.7618 F120.00
G01 X129.0601 Y-107.8956 F120.00
G01 X129.0601 Y-107.9029 F120.00
G01 X129.0666 Y-108.0367 F120.00
G01 X129.0673 Y-108.0441 F120.00
G01 X129.0869 Y-108.1766 F120.00
G01 X129.0883 Y-108.1838 F120.00
G01 X129.1208 Y-108.3138 F120.00
G01 X129.1229 Y-108.3208 F120.00
G01 X129.1680 Y-108.4469 F120.00
G01 X129.1708 Y-108.4538 F120.00
G01 X129.2280 Y-108.5749 F120.00
G01 X129.2315 Y-108.5814 F120.00
G01 X129.3003 Y-108.6963 F120.00
G01 X129.3044 Y-108.7024 F120.00
G01 X129.3841 Y-108.8100 F120.00
G01 X129.3888 Y-108.8158 F120.00
G01 X129.4787 Y-108.9150 F120.00
G01 X129.4839 Y-108.9203 F120.00
G01 X129.5831 Y-109.0102 F120.00
G01 X129.5888 Y-109.0149 F120.00
G01 X129.6964 Y-109.0948 F120.00
G01 X129.7025 Y-109.0989 F120.00
G01 X129.8173 Y-109.1678 F120.00
G01 X129.8238 Y-109.1713 F120.00
G01 X129.9449 Y-109.2286 F120.00
G01 X129.9517 Y-109.2314 F120.00
G01 X130.0778 Y-109.2766 F120.00
G01 X130.0848 Y-109.2788 F120.00
G01 X130.2148 Y-109.3114 F120.00
G01 X130.2220 Y-109.3128 F120.00
G01 X130.3545 Y-109.3325 F120.00
G01 X130.3618 Y-109.3333 F120.00
G01 X130.4956 Y-109.3399 F120.00
G01 X130.5029 Y-109.3399 F120.00
G01 X130.6367 Y-109.3334 F120.00
G01 X130.6441 Y-109.3327 F120.00
G01 X130.7766 Y-109.3131 F120.00
G01 X130.7838 Y-109.3117 F120.00
G01 X130.9138 Y-109.2792 F120.00
G01 X130.9208 Y-109.2771 F120.00
G01 X131.0469 Y-109.2320 F120.00
G01 X131.0538 Y-109.2292 F120.00
G01 X131.1749 Y-109.1720 F120.00
G01 X131.1814 Y-109.1685 F120.00
G01 X131.2963 Y-109.0997 F120.00
G01 X131.3024 Y-109.0956 F120.00
G01 X131.4100 Y-109.0159 F120.00
G01 X131.4158 Y-109.0112 F120.00
G01 X131.5150 Y-108.9213 F120.00
G01 X131.5203 Y-108.9161 F120.00
G01 X131.6102 Y-108.8169 F120.00
G01 X131.6149 Y-108.8112 F120.00
G01 X131.6948 Y-108.7036 F120.00
G01 X131.6989 Y-108.6975 F120.00
G01 X131.7678 Y-108.5827 F120.00
G01 X131.7713 Y-108.5762 F120.00
G01 X131.8286 Y-108.4551 F120.00
G01 X131.8314 Y-108.4483 F120.00
G01 X131.8766 Y-108.3222 F120.00
G01 X131.8788 Y-108.3152 F120.00
G01 X131.9114 Y-108.1852 F120.00
G01 X131.9128 Y-108.1780 F120.00
G01 X131.9325 Y-108.0455 F120.00
G01 X131.9333 Y-108.0382 F120.00
G01 X131.9400 Y-107.8996 F120.00
G01 X131.9334 Y-107.7633 F120.00
G01 X131.9327 Y-107.7559 F120.00
G01 X131.9131 Y-107.6234 F120.00
G01 X131.9117 Y-107.6162 F120.00
G01 X131.8792 Y-107.4862 F120.00
G01 X131.8771 Y-107.4792 F120.00
G01 X131.8320 Y-107.3531 F120.00
G01 X131.8292 Y-107.3462 F120.00
G01 X131.7720 Y-107.2251 F120.00
G01 X131.7685 Y-107.2186 F120.00
G01 X131.6997 Y-107.1037 F120.00
G01 X131.6956 Y-107.0976 F120.00
G01 X131.6159 Y-106.9900 F120.00
G01 X131.6112 Y-106.9842 F120.00
G01 X131.5213 Y-106.8850 F120.00
G01 X131.5161 Y-106.8797 F120.00
G01 X131.4169 Y-106.7898 F120.00
G01 X131.4112 Y-106.7851 F120.00
G01 X131.3036 Y-106.7052 F120.00
G01 X131.2975 Y-106.7011 F120.00
G01 X131.1827 Y-106.6322 F120.00
G01 X131.1762 Y-106.6287 F120.00
G01 X131.0551 Y-106.5714 F120.00
G01 X131.0483 Y-106.5686 F120.00
G01 X130.9222 Y-106.5234 F120.00
G01 X130.9152 Y-106.5212 F120.00
G01 X130.7852 Y-106.4886 F120.00
G01 X130.7780 Y-106.4872 F120.00
G01 X130.6455 Y-106.4675 F120.00
G01 X130.6382 Y-106.4667 F120.00
G01 X130.5044 Y-106.4601 F120.00
G01 X130.4971 Y-106.4601 F120.00
G01 X130.3633 Y-106.4666 F120.00
G01 X130.3559 Y-106.4673 F120.00
G01 X130.2234 Y-106.4869 F120.00
G01 X130.2162 Y-106.4883 F120.00
G01 X130.0862 Y-106.5208 F120.00
G01 X130.0785 Y-106.5232 F120.00
M5
G00 X130.7587 Y-106.4843
G01 F60.00
M03 S5000.0
G01 F120.00
G01 X175.3305 Y-106.4843 F120.00
M5
G00 X175.2704 Y-106.5245
G01 F60.00
M03 S5000.0
G01 F120.00
G01 X130.9252 Y-106.5245 F120.00
G01 X131.0375 Y-106.5647 F120.00
G01 X175.2162 Y-106.5647 F120.00
M5
G00 X175.1665 Y-106.6049
G01 F60.00
M03 S5000.0
G01 F120.00
G01 X131.1258 Y-106.6049 F120.00
M5
G00 X131.2041 Y-106.6451
G01 F60.00
M03 S5000.0
G01 F120.00
G01 X175.1221 Y-106.6451 F120.00
M5
G00 X175.0785 Y-106.6853
G01 F60.00
M03 S5000.0
G01 F120.00
G01 X131.2712 Y-106.6853 F120.00
M5
G00 X131.3309 Y-106.7255
G01 F60.00
M03 S5000.0
G01 F120.00
G01 X175.0420 Y-106.7255 F120.00
G01 X175.0056 Y-106.7657 F120.00
G01 X131.3851 Y-106.7657 F120.00
M5
G00 X131.4346 Y-106.8059
G01 F60.00
M03 S5000.0
G01 F120.00
G01 X174.9724 Y-106.8059 F120.00
M5
G00 X174.8385 Y-107.0069
G01 F60.00
M03 S5000.0
G01 F120.00
G01 X164.1932 Y-107.0069 F120.00
M5
G00 X164.2510 Y-107.0471
G01 F60.00
M03 S5000.0
G01 F120.00
G01 X174.8177 Y-107.0471 F120.00
M5
G00 X174.7340 Y-107.2481
G01 F60.00
M03 S5000.0
G01 F120.00
G01 X164.4497 Y-107.2481 F120.00
G01 X164.4199 Y-107.2079 F120.00
G01 X174.7484 Y-107.2079 F120.00
G01 X174.7628 Y-107.1677 F120.00
G01 X164.3841 Y-107.1677 F120.00
M5
G00 X164.3462 Y-107.1275
G01 F60.00
M03 S5000.0
G01 F120.00
G01 X174.7796 Y-107.1275 F120.00
G01 X174.7987 Y-107.0873 F120.00
G01 X164.3018 Y-107.0873 F120.00
M5
G00 X164.1242 Y-106.9667
G01 F60.00
M03 S5000.0
G01 F120.00
G01 X174.8626 Y-106.9667 F120.00
G01 X174.8867 Y-106.9265 F120.00
G01 X164.0358 Y-106.9265 F120.00
M5
G00 X163.9066 Y-106.8863
G01 F60.00
M03 S5000.0
G01 F120.00
G01 X174.9127 Y-106.8863 F120.00
G01 X174.9425 Y-106.8461 F120.00
G01 X131.4790 Y-106.8461 F120.00
M5
G00 X131.5225 Y-106.8863
G01 F60.00
M03 S5000.0
G01 F120.00
G01 X147.5365 Y-106.8863 F120.00
M5
G00 X147.5132 Y-106.9265
G01 F60.00
M03 S5000.0
G01 F120.00
G01 X131.5589 Y-106.9265 F120.00
G01 X131.5953 Y-106.9667 F120.00
G01 X147.5100 Y-106.9667 F120.00
G01 X147.5100 Y-107.0069 F120.00
G01 X131.6284 Y-107.0069 F120.00
G01 X131.6582 Y-107.0471 F120.00
G01 X147.5100 Y-107.0471 F120.00
G01 X147.5100 Y-107.0873 F120.00
G01 X131.6880 Y-107.0873 F120.00
M5
G00 X131.7139 Y-107.1275
G01 F60.00
M03 S5000.0
G01 F120.00
G01 X147.5100 Y-107.1275 F120.00
G01 X147.5100 Y-107.1677 F120.00
G01 X131.7380 Y-107.1677 F120.00
G01 X131.7621 Y-107.2079 F120.00
G01 X147.5100 Y-107.2079 F120.00
G01 X147.5100 Y-107.2481 F120.00
G01 X131.7828 Y-107.2481 F120.00
G01 X131.8018 Y-107.2883 F120.00
G01 X147.5100 Y-107.2883 F120.00
G01 X147.5100 Y-107.3285 F120.00
G01 X131.8208 Y-107.3285 F120.00
M5
G00 X131.8376 Y-107.3687
G01 F60.00
M03 S5000.0
G01 F120.00
G01 X147.5100 Y-107.3687 F120.00
G01 X147.5100 Y-107.4089 F120.00
G01 X131.8519 Y-107.4089 F120.00
G01 X131.8663 Y-107.4491 F120.00
G01 X147.5100 Y-107.4491 F120.00
G01 X147.5100 Y-107.4893 F120.00
G01 X131.8799 Y-107.4893 F120.00
G01 X131.8900 Y-107.5295 F120.00
G01 X147.5100 Y-107.5295 F120.00
G01 X147.5100 Y-107.5697 F120.00
G01 X131.9001 Y-107.5697 F120.00
G01 X131.9101 Y-107.6099 F120.00
G01 X147.5100 Y-107.6099 F120.00
G01 X147.5100 Y-107.6501 F120.00
G01 X131.9170 Y-107.6501 F120.00
G01 X131.9230 Y-107.6903 F120.00
G01 X147.5100 Y-107.6903 F120.00
G01 X147.5100 Y-107.7305 F120.00
G01 X131.9290 Y-107.7305 F120.00
M5
G00 X131.9338 Y-107.7707
G01 F60.00
M03 S5000.0
G01 F120.00
G01 X147.5100 Y-107.7707 F120.00
G01 X147.5100 Y-107.8109 F120.00
G01 X131.9357 Y-107.8109 F120.00
G01 X131.9377 Y-107.8511 F120.00
G01 X147.5100 Y-107.8511 F120.00
G01 X147.5100 Y-107.8913 F120.00
G01 X131.9397 Y-107.8913 F120.00
M5
G00 X131.9386 Y-107.9315
G01 F60.00
M03 S5000.0
G01 F120.00
G01 X147.5100 Y-107.9315 F120.00
G01 X147.5100 Y-107.9717 F120.00
G01 X131.9366 Y-107.9717 F120.00
G01 X131.9346 Y-108.0119 F120.00
G01 X147.5100 Y-108.0119 F120.00
G01 X147.5100 Y-108.0521 F120.00
G01 X131.9316 Y-108.0521 F120.00
G01 X131.9256 Y-108.0923 F120.00
G01 X147.5100 Y-108.0923 F120.00
G01 X147.5100 Y-108.1325 F120.00
G01 X131.9196 Y-108.1325 F120.00
G01 X131.9137 Y-108.1727 F120.00
G01 X147.5100 Y-108.1727 F120.00
G01 X147.5100 Y-108.2129 F120.00
G01 X131.9044 Y-108.2129 F120.00
G01 X131.8944 Y-108.2531 F120.00
G01 X147.5100 Y-108.2531 F120.00
G01 X147.5100 Y-108.2933 F120.00
G01 X131.8843 Y-108.2933 F120.00
M5
G00 X131.8726 Y-108.3335
G01 F60.00
M03 S5000.0
G01 F120.00
G01 X147.5100 Y-108.3335 F120.00
G01 X147.5100 Y-108.3737 F120.00
G01 X131.8582 Y-108.3737 F120.00
G01 X131.8438 Y-108.4139 F120.00
G01 X147.5100 Y-108.4139 F120.00
G01 X147.5100 Y-108.4541 F120.00
G01 X131.8291 Y-108.4541 F120.00
M5
G00 X131.8101 Y-108.4943
G01 F60.00
M03 S5000.0
G01 F120.00
G01 X147.5100 Y-108.4943 F120.00
G01 X147.5100 Y-108.5345 F120.00
G01 X131.7911 Y-108.5345 F120.00
G01 X131.7720 Y-108.5747 F120.00
G01 X147.5100 Y-108.5747 F120.00
G01 X147.5100 Y-108.6149 F120.00
G01 X131.7485 Y-108.6149 F120.00
G01 X131.7244 Y-108.6551 F120.00
G01 X147.5102 Y-108.6551 F120.00
M5
G00 X147.5223 Y-108.6953
G01 F60.00
M03 S5000.0
G01 F120.00
G01 X131.7003 Y-108.6953 F120.00
M5
G00 X131.6712 Y-108.7355
G01 F60.00
M03 S5000.0
G01 F120.00
G01 X147.5719 Y-108.7355 F120.00
M5
G00 X147.5656 Y-108.7331
G01 F60.00
M03 S5000.0
G01 F120.00
G01 X147.5739 Y-108.7361 F120.00
G01 X147.5824 Y-108.7383 F120.00
G01 X147.5912 Y-108.7396 F120.00
G01 X147.6000 Y-108.7400 F120.00
G01 X149.3000 Y-108.7400 F120.00
G01 X149.3088 Y-108.7396 F120.00
G01 X149.3176 Y-108.7383 F120.00
G01 X149.3261 Y-108.7361 F120.00
G01 X149.3344 Y-108.7331 F120.00
G01 X149.3424 Y-108.7294 F120.00
G01 X149.3500 Y-108.7248 F120.00
G01 X149.3571 Y-108.7196 F120.00
G01 X149.3642 Y-108.7131 F120.00
G01 X149.3696 Y-108.7071 F120.00
G01 X149.3748 Y-108.7000 F120.00
G01 X149.3794 Y-108.6924 F120.00
G01 X149.3831 Y-108.6844 F120.00
G01 X149.3861 Y-108.6761 F120.00
G01 X149.3883 Y-108.6676 F120.00
G01 X149.3896 Y-108.6588 F120.00
G01 X149.3900 Y-108.6507 F120.00
G01 X149.3900 Y-106.9500 F120.00
G01 X149.3896 Y-106.9412 F120.00
G01 X149.3883 Y-106.9324 F120.00
G01 X149.3861 Y-106.9239 F120.00
G01 X149.3831 Y-106.9156 F120.00
G01 X149.3794 Y-106.9076 F120.00
G01 X149.3748 Y-106.9000 F120.00
G01 X149.3696 Y-106.8929 F120.00
G01 X149.3631 Y-106.8858 F120.00
G01 X149.3571 Y-106.8804 F120.00
G01 X149.3500 Y-106.8752 F120.00
G01 X149.3424 Y-106.8706 F120.00
G01 X149.3344 Y-106.8669 F120.00
G01 X149.3261 Y-106.8639 F120.00
G01 X149.3176 Y-106.8617 F120.00
G01 X149.3088 Y-106.8604 F120.00
G01 X149.3007 Y-106.8600 F120.00
G01 X147.6000 Y-106.8600 F120.00
G01 X147.5912 Y-106.8604 F120.00
G01 X147.5824 Y-106.8617 F120.00
G01 X147.5739 Y-106.8639 F120.00
G01 X147.5656 Y-106.8669 F120.00
G01 X147.5576 Y-106.8706 F120.00
G01 X147.5500 Y-106.8752 F120.00
G01 X147.5429 Y-106.8804 F120.00
G01 X147.5358 Y-106.8869 F120.00
G01 X147.5304 Y-106.8929 F120.00
G01 X147.5252 Y-106.9000 F120.00
G01 X147.5206 Y-106.9076 F120.00
G01 X147.5169 Y-106.9156 F120.00
G01 X147.5139 Y-106.9239 F120.00
G01 X147.5117 Y-106.9324 F120.00
G01 X147.5104 Y-106.9412 F120.00
G01 X147.5100 Y-106.9493 F120.00
G01 X147.5100 Y-108.6507 F120.00
G01 X147.5104 Y-108.6588 F120.00
G01 X147.5115 Y-108.6661 F120.00
G01 X147.5139 Y-108.6761 F120.00
G01 X147.5174 Y-108.6858 F120.00
G01 X147.5206 Y-108.6924 F120.00
G01 X147.5252 Y-108.7000 F120.00
G01 X147.5304 Y-108.7071 F120.00
G01 X147.5353 Y-108.7126 F120.00
G01 X147.5429 Y-108.7196 F120.00
G01 X147.5512 Y-108.7256 F120.00
G01 X147.5576 Y-108.7294 F120.00
G01 X147.5656 Y-108.7331 F120.00
M5
G00 X149.3281 Y-108.7355
G01 F60.00
M03 S5000.0
G01 F120.00
G01 X150.8985 Y-108.7355 F120.00
M5
G00 X151.0815 Y-108.7355
G01 F60.00
M03 S5000.0
G01 F120.00
G01 X153.4385 Y-108.7355 F120.00
M5
G00 X153.6215 Y-108.7355
G01 F60.00
M03 S5000.0
G01 F120.00
G01 X155.9785 Y-108.7355 F120.00
M5
G00 X156.1615 Y-108.7355
G01 F60.00
M03 S5000.0
G01 F120.00
G01 X158.5185 Y-108.7355 F120.00
M5
G00 X158.7015 Y-108.7355
G01 F60.00
M03 S5000.0
G01 F120.00
G01 X161.0585 Y-108.7355 F120.00
M5
G00 X161.2415 Y-108.7355
G01 F60.00
M03 S5000.0
G01 F120.00
G01 X163.5985 Y-108.7355 F120.00
M5
G00 X163.7815 Y-108.7355
G01 F60.00
M03 S5000.0
G01 F120.00
G01 X168.0740 Y-108.7355 F120.00
G01 X168.0597 Y-108.7757 F120.00
G01 X131.6414 Y-108.7757 F120.00
M5
G00 X131.6111 Y-108.8159
G01 F60.00
M03 S5000.0
G01 F120.00
G01 X168.0487 Y-108.8159 F120.00
G01 X168.0387 Y-108.8561 F120.00
G01 X131.5747 Y-108.8561 F120.00
G01 X131.5383 Y-108.8963 F120.00
G01 X168.0295 Y-108.8963 F120.00
G01 X168.0235 Y-108.9365 F120.00
G01 X131.4983 Y-108.9365 F120.00
G01 X131.4539 Y-108.9767 F120.00
G01 X168.0176 Y-108.9767 F120.00
M5
G00 X168.0140 Y-109.0169
G01 F60.00
M03 S5000.0
G01 F120.00
G01 X131.4087 Y-109.0169 F120.00
G01 X131.3545 Y-109.0571 F120.00
G01 X168.0120 Y-109.0571 F120.00
M5
G00 X168.0101 Y-109.0973
G01 F60.00
M03 S5000.0
G01 F120.00
G01 X131.3000 Y-109.0973 F120.00
M5
G00 X131.2333 Y-109.1375
G01 F60.00
M03 S5000.0
G01 F120.00
G01 X168.0117 Y-109.1375 F120.00
G01 X168.0137 Y-109.1777 F120.00
G01 X131.1628 Y-109.1777 F120.00
G01 X131.0778 Y-109.2179 F120.00
G01 X168.0168 Y-109.2179 F120.00
G01 X168.0227 Y-109.2581 F120.00
G01 X130.9740 Y-109.2581 F120.00
M5
G00 X130.8375 Y-109.2983
G01 F60.00
M03 S5000.0
G01 F120.00
G01 X168.0287 Y-109.2983 F120.00
M5
G00 X168.0373 Y-109.3385
G01 F60.00
M03 S5000.0
G01 F120.00
G01 X130.5335 Y-109.3385 F120.00
M5
G00 X130.4665 Y-109.3385
G01 F60.00
M03 S5000.0
G01 F120.00
G01 X125.0958 Y-109.3385 F120.00
G01 X125.0923 Y-109.3066 F120.00
G01 X125.0923 Y-77.3436 F120.00
G01 X125.1252 Y-77.0434 F120.00
G01 X125.1866 Y-76.7471 F120.00
G01 X125.2759 Y-76.4581 F120.00
G01 X125.3924 Y-76.1788 F120.00
G01 X125.5348 Y-75.9119 F120.00
G01 X125.7020 Y-75.6598 F120.00
G01 X125.8925 Y-75.4247 F120.00
G01 X126.1044 Y-75.2088 F120.00
G01 X126.3360 Y-75.0140 F120.00
G01 X126.5850 Y-74.8422 F120.00
G01 X126.8492 Y-74.6948 F120.00
G01 X127.1263 Y-74.5733 F120.00
G01 X127.4136 Y-74.4787 F120.00
G01 X127.7087 Y-74.4118 F120.00
G01 X128.0088 Y-74.3733 F120.00
G01 X128.3141 Y-74.3634 F120.00
G01 X177.8487 Y-74.3243 F120.00
G01 X178.1535 Y-74.3341 F120.00
G01 X178.4536 Y-74.3726 F120.00
G01 X178.7487 Y-74.4395 F120.00
G01 X179.0360 Y-74.5341 F120.00
G01 X179.3131 Y-74.6556 F120.00
G01 X179.5773 Y-74.8030 F120.00
G01 X179.8263 Y-74.9748 F120.00
G01 X180.0579 Y-75.1696 F120.00
G01 X180.2698 Y-75.3855 F120.00
G01 X180.4603 Y-75.6206 F120.00
G01 X180.6275 Y-75.8727 F120.00
G01 X180.7699 Y-76.1396 F120.00
G01 X180.8864 Y-76.4189 F120.00
G01 X180.9757 Y-76.7079 F120.00
G01 X181.0371 Y-77.0042 F120.00
G01 X181.0700 Y-77.3044 F120.00
G01 X181.0700 Y-109.3456 F120.00
G01 X181.0371 Y-109.6458 F120.00
G01 X180.9757 Y-109.9421 F120.00
G01 X180.8864 Y-110.2311 F120.00
G01 X180.7699 Y-110.5104 F120.00
G01 X180.6275 Y-110.7773 F120.00
G01 X180.4603 Y-111.0294 F120.00
G01 X180.2698 Y-111.2645 F120.00
G01 X180.0579 Y-111.4804 F120.00
G01 X179.8263 Y-111.6752 F120.00
G01 X179.5773 Y-111.8470 F120.00
G01 X179.3131 Y-111.9944 F120.00
G01 X179.0360 Y-112.1159 F120.00
G01 X178.7487 Y-112.2105 F120.00
G01 X178.4536 Y-112.2774 F120.00
G01 X178.1535 Y-112.3159 F120.00
G01 X177.8487 Y-112.3257 F120.00
G01 X128.3137 Y-112.2866 F120.00
G01 X128.0088 Y-112.2767 F120.00
G01 X127.7087 Y-112.2382 F120.00
G01 X127.4136 Y-112.1714 F120.00
G01 X127.1263 Y-112.0767 F120.00
G01 X126.8492 Y-111.9552 F120.00
G01 X126.5850 Y-111.8078 F120.00
G01 X126.3360 Y-111.6360 F120.00
G01 X126.1044 Y-111.4412 F120.00
G01 X125.8925 Y-111.2253 F120.00
G01 X125.7020 Y-110.9902 F120.00
G01 X125.5348 Y-110.7381 F120.00
G01 X125.3924 Y-110.4712 F120.00
G01 X125.2759 Y-110.1919 F120.00
G01 X125.1866 Y-109.9029 F120.00
G01 X125.1252 Y-109.6066 F120.00
G01 X125.0923 Y-109.3066 F120.00
G01 X125.0923 Y-109.2983 F120.00
G01 X130.1625 Y-109.2983 F120.00
M5
G00 X130.0260 Y-109.2581
G01 F60.00
M03 S5000.0
G01 F120.00
G01 X125.0923 Y-109.2581 F120.00
G01 X125.0923 Y-109.2179 F120.00
G01 X129.9222 Y-109.2179 F120.00
G01 X129.8372 Y-109.1777 F120.00
G01 X125.0923 Y-109.1777 F120.00
G01 X125.0923 Y-109.1375 F120.00
G01 X129.7667 Y-109.1375 F120.00
M5
G00 X125.0923 Y-106.2833
G01 F60.00
M03 S5000.0
G01 F120.00
G01 X175.8480 Y-106.2833 F120.00
M5
G00 X125.0923 Y-103.8311
G01 F60.00
M03 S5000.0
G01 F120.00
G01 X139.2736 Y-103.8311 F120.00
M5
G00 X139.1745 Y-103.7909
G01 F60.00
M03 S5000.0
G01 F120.00
G01 X125.0923 Y-103.7909 F120.00
G01 X125.0923 Y-103.7507 F120.00
G01 X139.1207 Y-103.7507 F120.00
M5
G00 X139.0832 Y-103.7105
G01 F60.00
M03 S5000.0
G01 F120.00
G01 X125.0923 Y-103.7105 F120.00
G01 X125.0923 Y-103.6703 F120.00
G01 X139.0560 Y-103.6703 F120.00
M5
G00 X139.0359 Y-103.6301
G01 F60.00
M03 S5000.0
G01 F120.00
G01 X125.0923 Y-103.6301 F120.00
G01 X125.0923 Y-103.5899 F120.00
G01 X137.2965 Y-103.5899 F120.00
M5
G00 X137.3065 Y-103.5899
G01 F60.00
M03 S5000.0
G01 F120.00
G01 X139.0223 Y-103.5899 F120.00
M5
G00 X139.0140 Y-103.5497
G01 F60.00
M03 S5000.0
G01 F120.00
G01 X137.5802 Y-103.5497 F120.00
M5
G00 X137.6915 Y-103.5095
G01 F60.00
M03 S5000.0
G01 F120.00
G01 X139.0104 Y-103.5095 F120.00
M5
G00 X139.0100 Y-103.5000
G01 F60.00
M03 S5000.0
G01 F120.00
G01 X139.0114 Y-103.5304 F120.00
G01 X139.0122 Y-103.5377 F120.00
G01 X139.0158 Y-103.5620 F120.00
G01 X139.0173 Y-103.5699 F120.00
G01 X139.0235 Y-103.5944 F120.00
G01 X139.0260 Y-103.6029 F120.00
G01 X139.0343 Y-103.6260 F120.00
G01 X139.0371 Y-103.6328 F120.00
G01 X139.0482 Y-103.6563 F120.00
G01 X139.0516 Y-103.6628 F120.00
G01 X139.0657 Y-103.6864 F120.00
G01 X139.0698 Y-103.6925 F120.00
G01 X139.0854 Y-103.7134 F120.00
G01 X139.0901 Y-103.7190 F120.00
G01 X139.1076 Y-103.7383 F120.00
G01 X139.1128 Y-103.7435 F120.00
G01 X139.1310 Y-103.7599 F120.00
G01 X139.1372 Y-103.7651 F120.00
G01 X139.1575 Y-103.7802 F120.00
G01 X139.1648 Y-103.7851 F120.00
G01 X139.1859 Y-103.7977 F120.00
G01 X139.1924 Y-103.8012 F120.00
G01 X139.2158 Y-103.8123 F120.00
G01 X139.2226 Y-103.8152 F120.00
G01 X139.2485 Y-103.8244 F120.00
G01 X139.2556 Y-103.8265 F120.00
G01 X139.2808 Y-103.8328 F120.00
G01 X139.2880 Y-103.8342 F120.00
G01 X139.3138 Y-103.8380 F120.00
G01 X139.3211 Y-103.8387 F120.00
G01 X139.3496 Y-103.8400 F120.00
G01 X140.0500 Y-103.8400 F120.00
G01 X140.0797 Y-103.8386 F120.00
G01 X140.0877 Y-103.8378 F120.00
G01 X140.1120 Y-103.8342 F120.00
G01 X140.1206 Y-103.8325 F120.00
G01 X140.1444 Y-103.8265 F120.00
G01 X140.1515 Y-103.8244 F120.00
G01 X140.1774 Y-103.8152 F120.00
G01 X140.1842 Y-103.8123 F120.00
G01 X140.2076 Y-103.8012 F120.00
G01 X140.2141 Y-103.7977 F120.00
G01 X140.2352 Y-103.7851 F120.00
G01 X140.2425 Y-103.7802 F120.00
G01 X140.2622 Y-103.7655 F120.00
G01 X140.2685 Y-103.7604 F120.00
G01 X140.2872 Y-103.7435 F120.00
G01 X140.2924 Y-103.7383 F120.00
G01 X140.3099 Y-103.7190 F120.00
G01 X140.3146 Y-103.7134 F120.00
G01 X140.3302 Y-103.6925 F120.00
G01 X140.3343 Y-103.6864 F120.00
G01 X140.3477 Y-103.6641 F120.00
G01 X140.3518 Y-103.6563 F120.00
G01 X140.3623 Y-103.6342 F120.00
G01 X140.3652 Y-103.6274 F120.00
G01 X140.3740 Y-103.6029 F120.00
G01 X140.3764 Y-103.5952 F120.00
G01 X140.3825 Y-103.5706 F120.00
G01 X140.3842 Y-103.5620 F120.00
G01 X140.3880 Y-103.5362 F120.00
G01 X140.3887 Y-103.5289 F120.00
G01 X140.3899 Y-103.5037 F120.00
G01 X140.3900 Y-102.6000 F120.00
G01 X140.3886 Y-102.5703 F120.00
G01 X140.3878 Y-102.5623 F120.00
G01 X140.3842 Y-102.5380 F120.00
G01 X140.3825 Y-102.5294 F120.00
G01 X140.3765 Y-102.5056 F120.00
G01 X140.3744 Y-102.4985 F120.00
G01 X140.3657 Y-102.4740 F120.00
G01 X140.3629 Y-102.4672 F120.00
G01 X140.3512 Y-102.4424 F120.00
G01 X140.3477 Y-102.4359 F120.00
G01 X140.3351 Y-102.4148 F120.00
G01 X140.3302 Y-102.4075 F120.00
G01 X140.3155 Y-102.3878 F120.00
G01 X140.3104 Y-102.3815 F120.00
G01 X140.2935 Y-102.3628 F120.00
G01 X140.2883 Y-102.3576 F120.00
G01 X140.2690 Y-102.3401 F120.00
G01 X140.2634 Y-102.3354 F120.00
G01 X140.2425 Y-102.3198 F120.00
G01 X140.2364 Y-102.3157 F120.00
G01 X140.2141 Y-102.3023 F120.00
G01 X140.2063 Y-102.2982 F120.00
G01 X140.1842 Y-102.2877 F120.00
G01 X140.1774 Y-102.2848 F120.00
G01 X140.1529 Y-102.2760 F120.00
G01 X140.1452 Y-102.2736 F120.00
G01 X140.1206 Y-102.2675 F120.00
G01 X140.1127 Y-102.2659 F120.00
G01 X140.0870 Y-102.2621 F120.00
G01 X140.0789 Y-102.2613 F120.00
G01 X140.0541 Y-102.2601 F120.00
G01 X139.3500 Y-102.2600 F120.00
G01 X139.3196 Y-102.2614 F120.00
G01 X139.3123 Y-102.2622 F120.00
G01 X139.2866 Y-102.2660 F120.00
G01 X139.2794 Y-102.2675 F120.00
G01 X139.2556 Y-102.2735 F120.00
G01 X139.2471 Y-102.2760 F120.00
G01 X139.2240 Y-102.2843 F120.00
G01 X139.2172 Y-102.2871 F120.00
G01 X139.1924 Y-102.2988 F120.00
G01 X139.1859 Y-102.3023 F120.00
G01 X139.1648 Y-102.3149 F120.00
G01 X139.1575 Y-102.3198 F120.00
G01 X139.1378 Y-102.3345 F120.00
G01 X139.1315 Y-102.3396 F120.00
G01 X139.1128 Y-102.3565 F120.00
G01 X139.1076 Y-102.3617 F120.00
G01 X139.0901 Y-102.3810 F120.00
G01 X139.0854 Y-102.3866 F120.00
G01 X139.0698 Y-102.4075 F120.00
G01 X139.0657 Y-102.4136 F120.00
G01 X139.0523 Y-102.4359 F120.00
G01 X139.0488 Y-102.4424 F120.00
G01 X139.0377 Y-102.4658 F120.00
G01 X139.0348 Y-102.4726 F120.00
G01 X139.0260 Y-102.4971 F120.00
G01 X139.0239 Y-102.5041 F120.00
G01 X139.0175 Y-102.5294 F120.00
G01 X139.0160 Y-102.5366 F120.00
G01 X139.0120 Y-102.5638 F120.00
G01 X139.0113 Y-102.5711 F120.00
G01 X139.0100 Y-102.6000 F120.00
G01 X139.0100 Y-103.5000 F120.00
G01 X139.0100 Y-103.4693 F120.00
G01 X137.7748 Y-103.4693 F120.00
G01 X137.8418 Y-103.4291 F120.00
G01 X139.0100 Y-103.4291 F120.00
G01 X139.0100 Y-103.3889 F120.00
G01 X137.8979 Y-103.3889 F120.00
M5
G00 X137.9480 Y-103.3487
G01 F60.00
M03 S5000.0
G01 F120.00
G01 X139.0100 Y-103.3487 F120.00
G01 X139.0100 Y-103.3085 F120.00
G01 X137.9924 Y-103.3085 F120.00
M5
G00 X138.0305 Y-103.2683
G01 F60.00
M03 S5000.0
G01 F120.00
G01 X139.0100 Y-103.2683 F120.00
G01 X139.0100 Y-103.2281 F120.00
G01 X138.0666 Y-103.2281 F120.00
M5
G00 X138.0967 Y-103.1879
G01 F60.00
M03 S5000.0
G01 F120.00
G01 X139.0100 Y-103.1879 F120.00
G01 X139.0100 Y-103.1477 F120.00
G01 X138.1261 Y-103.1477 F120.00
M5
G00 X138.1503 Y-103.1075
G01 F60.00
M03 S5000.0
G01 F120.00
G01 X139.0100 Y-103.1075 F120.00
G01 X139.0100 Y-103.0673 F120.00
G01 X138.1742 Y-103.0673 F120.00
M5
G00 X138.1934 Y-103.0271
G01 F60.00
M03 S5000.0
G01 F120.00
G01 X139.0100 Y-103.0271 F120.00
G01 X139.0100 Y-102.9869 F120.00
G01 X138.2124 Y-102.9869 F120.00
M5
G00 X138.2277 Y-102.9467
G01 F60.00
M03 S5000.0
G01 F120.00
G01 X139.0100 Y-102.9467 F120.00
G01 X139.0100 Y-102.9065 F120.00
G01 X138.2421 Y-102.9065 F120.00
M5
G00 X138.2542 Y-102.8663
G01 F60.00
M03 S5000.0
G01 F120.00
G01 X139.0100 Y-102.8663 F120.00
G01 X139.0100 Y-102.8261 F120.00
G01 X138.2643 Y-102.8261 F120.00
M5
G00 X138.2736 Y-102.7859
G01 F60.00
M03 S5000.0
G01 F120.00
G01 X139.0100 Y-102.7859 F120.00
G01 X139.0100 Y-102.7457 F120.00
G01 X138.2796 Y-102.7457 F120.00
G01 X138.2856 Y-102.7055 F120.00
G01 X139.0100 Y-102.7055 F120.00
G01 X139.0100 Y-102.6653 F120.00
G01 X138.2884 Y-102.6653 F120.00
G01 X138.2903 Y-102.6251 F120.00
G01 X139.0100 Y-102.6251 F120.00
M5
G00 X139.0106 Y-102.5849
G01 F60.00
M03 S5000.0
G01 F120.00
G01 X138.2908 Y-102.5849 F120.00
G01 X138.2889 Y-102.5447 F120.00
G01 X139.0148 Y-102.5447 F120.00
M5
G00 X139.0238 Y-102.5045
G01 F60.00
M03 S5000.0
G01 F120.00
G01 X138.2868 Y-102.5045 F120.00
M5
G00 X138.2811 Y-102.4643
G01 F60.00
M03 S5000.0
G01 F120.00
G01 X139.0384 Y-102.4643 F120.00
M5
G00 X139.0594 Y-102.4241
G01 F60.00
M03 S5000.0
G01 F120.00
G01 X138.2751 Y-102.4241 F120.00
M5
G00 X138.2668 Y-102.3839
G01 F60.00
M03 S5000.0
G01 F120.00
G01 X139.0876 Y-102.3839 F120.00
M5
G00 X139.1270 Y-102.3437
G01 F60.00
M03 S5000.0
G01 F120.00
G01 X138.2567 Y-102.3437 F120.00
M5
G00 X138.2457 Y-102.3035
G01 F60.00
M03 S5000.0
G01 F120.00
G01 X139.1840 Y-102.3035 F120.00
M5
G00 X139.3050 Y-102.2633
G01 F60.00
M03 S5000.0
G01 F120.00
G01 X138.2313 Y-102.2633 F120.00
M5
G00 X138.2168 Y-102.2231
G01 F60.00
M03 S5000.0
G01 F120.00
G01 X146.2600 Y-102.2231 F120.00
G01 X146.2600 Y-102.1829 F120.00
G01 X138.1981 Y-102.1829 F120.00
G01 X138.1791 Y-102.1427 F120.00
G01 X146.2600 Y-102.1427 F120.00
