(G-CODE GENERATED BY FLATCAM v8.994 - www.flatcam.org - Version Date: 2020/11/7)

(Name: Paste_mt_paint_cnc)
(Type: G-code from Geometry)
(Units: MM)

(Created on Saturday, 19 July 2025 at 08:13)

(This preprocessor is used with a motion controller loaded with GRBL firmware. )
(It is for the case when it is used together with a LASER connected on the SPINDLE connector.)

(Feedrate: 120.0 mm/min)
(Feedrate rapids: 1500.0 mm/min)

(Z Focus: 2.0 mm)
(Steps per circle: 64)
(Preprocessor Geometry: GRBL_laser)

(X range:  128.4801 ...  178.3550  mm)
(Y range: -110.1299 ...  -75.0200  mm)

(Laser Power - Spindle Speed: 5000.0)

G21
G90
G17
G94

G01 F120.00

M5
G01 F120.00
G00 X128.9346 Y-78.4633
G01 F60.00
M03 S5000.0
G01 F120.00
G01 X131.2654 Y-78.4633 F120.00
G01 X131.2895 Y-78.5035 F120.00
G01 X128.9105 Y-78.5035 F120.00
G01 X128.8864 Y-78.5437 F120.00
G01 X131.3136 Y-78.5437 F120.00
G01 X131.3334 Y-78.5839 F120.00
G01 X128.8666 Y-78.5839 F120.00
G01 X128.8476 Y-78.6241 F120.00
G01 X131.3524 Y-78.6241 F120.00
G01 X131.3714 Y-78.6643 F120.00
G01 X128.8286 Y-78.6643 F120.00
G01 X128.8134 Y-78.7045 F120.00
G01 X131.3866 Y-78.7045 F120.00
G01 X131.4010 Y-78.7447 F120.00
G01 X128.7990 Y-78.7447 F120.00
G01 X128.7846 Y-78.7849 F120.00
G01 X131.4154 Y-78.7849 F120.00
G01 X131.4270 Y-78.8251 F120.00
G01 X128.7730 Y-78.8251 F120.00
G01 X128.7629 Y-78.8653 F120.00
G01 X131.4371 Y-78.8653 F120.00
G01 X131.4472 Y-78.9055 F120.00
G01 X128.7528 Y-78.9055 F120.00
G01 X128.7443 Y-78.9457 F120.00
G01 X131.4557 Y-78.9457 F120.00
G01 X131.4617 Y-78.9859 F120.00
G01 X128.7383 Y-78.9859 F120.00
G01 X128.7323 Y-79.0261 F120.00
G01 X131.4677 Y-79.0261 F120.00
G01 X131.4734 Y-79.0663 F120.00
G01 X128.7266 Y-79.0663 F120.00
G01 X128.7246 Y-79.1065 F120.00
G01 X131.4754 Y-79.1065 F120.00
G01 X131.4774 Y-79.1467 F120.00
G01 X128.7226 Y-79.1467 F120.00
G01 X128.7206 Y-79.1869 F120.00
G01 X131.4794 Y-79.1869 F120.00
G01 X131.4787 Y-79.2271 F120.00
G01 X128.7213 Y-79.2271 F120.00
G01 X128.7233 Y-79.2673 F120.00
G01 X131.4767 Y-79.2673 F120.00
G01 X131.4748 Y-79.3075 F120.00
G01 X128.7252 Y-79.3075 F120.00
G01 X128.7284 Y-79.3477 F120.00
G01 X131.4716 Y-79.3477 F120.00
G01 X131.4656 Y-79.3879 F120.00
G01 X128.7344 Y-79.3879 F120.00
G01 X128.7404 Y-79.4281 F120.00
G01 X131.4596 Y-79.4281 F120.00
G01 X131.4536 Y-79.4683 F120.00
G01 X128.7464 Y-79.4683 F120.00
G01 X128.7563 Y-79.5085 F120.00
G01 X131.4437 Y-79.5085 F120.00
G01 X131.4336 Y-79.5487 F120.00
G01 X128.7664 Y-79.5487 F120.00
G01 X128.7764 Y-79.5889 F120.00
G01 X131.4236 Y-79.5889 F120.00
G01 X131.4104 Y-79.6291 F120.00
G01 X128.7896 Y-79.6291 F120.00
G01 X128.8040 Y-79.6693 F120.00
G01 X131.3960 Y-79.6693 F120.00
G01 X131.3817 Y-79.7095 F120.00
G01 X128.8183 Y-79.7095 F120.00
G01 X128.8352 Y-79.7497 F120.00
G01 X131.3648 Y-79.7497 F120.00
G01 X131.3458 Y-79.7899 F120.00
G01 X128.8542 Y-79.7899 F120.00
G01 X128.8732 Y-79.8301 F120.00
G01 X131.3268 Y-79.8301 F120.00
G01 X131.3053 Y-79.8703 F120.00
G01 X128.8947 Y-79.8703 F120.00
G01 X128.9188 Y-79.9105 F120.00
G01 X131.2812 Y-79.9105 F120.00
G01 X131.2571 Y-79.9507 F120.00
G01 X128.9429 Y-79.9507 F120.00
G01 X128.9705 Y-79.9909 F120.00
G01 X131.2295 Y-79.9909 F120.00
G01 X131.1997 Y-80.0311 F120.00
G01 X129.0003 Y-80.0311 F120.00
G01 X129.0301 Y-80.0713 F120.00
G01 X131.1699 Y-80.0713 F120.00
G01 X131.1342 Y-80.1115 F120.00
G01 X129.0658 Y-80.1115 F120.00
G01 X129.1023 Y-80.1517 F120.00
G01 X131.0977 Y-80.1517 F120.00
G01 X131.0581 Y-80.1919 F120.00
G01 X129.1419 Y-80.1919 F120.00
G01 X129.1862 Y-80.2321 F120.00
G01 X131.0138 Y-80.2321 F120.00
G01 X130.9681 Y-80.2723 F120.00
G01 X129.2319 Y-80.2723 F120.00
G01 X129.2861 Y-80.3125 F120.00
G01 X130.9139 Y-80.3125 F120.00
G01 X130.8580 Y-80.3527 F120.00
G01 X129.3420 Y-80.3527 F120.00
G01 X129.4091 Y-80.3929 F120.00
G01 X130.7909 Y-80.3929 F120.00
G01 X130.7167 Y-80.4331 F120.00
G01 X129.4833 Y-80.4331 F120.00
G01 X129.5683 Y-80.4733 F120.00
G01 X130.6317 Y-80.4733 F120.00
G01 X130.5206 Y-80.5135 F120.00
G01 X129.6794 Y-80.5135 F120.00
G01 X129.8321 Y-80.5537 F120.00
G01 X130.3679 Y-80.5537 F120.00
M5
G00 X131.2399 Y-78.4231
G01 F60.00
M03 S5000.0
G01 F120.00
G01 X128.9601 Y-78.4231 F120.00
G01 X128.9899 Y-78.3829 F120.00
G01 X131.2101 Y-78.3829 F120.00
G01 X131.1802 Y-78.3427 F120.00
G01 X129.0198 Y-78.3427 F120.00
G01 X129.0532 Y-78.3025 F120.00
G01 X131.1468 Y-78.3025 F120.00
G01 X131.1104 Y-78.2623 F120.00
G01 X129.0896 Y-78.2623 F120.00
G01 X129.1265 Y-78.2221 F120.00
G01 X131.0735 Y-78.2221 F120.00
G01 X131.0292 Y-78.1819 F120.00
G01 X129.1708 Y-78.1819 F120.00
G01 X129.2152 Y-78.1417 F120.00
G01 X130.9848 Y-78.1417 F120.00
G01 X130.9327 Y-78.1015 F120.00
G01 X129.2673 Y-78.1015 F120.00
G01 X129.3215 Y-78.0613 F120.00
G01 X130.8785 Y-78.0613 F120.00
G01 X130.8142 Y-78.0211 F120.00
G01 X129.3858 Y-78.0211 F120.00
G01 X129.4538 Y-77.9809 F120.00
G01 X130.7462 Y-77.9809 F120.00
G01 X130.6612 Y-77.9407 F120.00
G01 X129.5388 Y-77.9407 F120.00
G01 X129.6405 Y-77.9005 F120.00
G01 X130.5595 Y-77.9005 F120.00
G01 X130.4243 Y-77.8603 F120.00
G01 X129.7757 Y-77.8603 F120.00
G01 X129.6973 Y-77.8801 F120.00
G01 X129.7015 Y-77.8789 F120.00
G01 X129.8286 Y-77.8470 F120.00
G01 X129.8330 Y-77.8462 F120.00
G01 X129.9669 Y-77.8265 F120.00
G01 X130.1022 Y-77.8201 F120.00
G01 X130.2375 Y-77.8269 F120.00
G01 X130.3670 Y-77.8462 F120.00
G01 X130.3714 Y-77.8470 F120.00
G01 X130.4985 Y-77.8789 F120.00
G01 X130.5027 Y-77.8801 F120.00
G01 X130.6260 Y-77.9243 F120.00
G01 X130.6301 Y-77.9260 F120.00
G01 X130.7485 Y-77.9820 F120.00
G01 X130.7524 Y-77.9841 F120.00
G01 X130.8648 Y-78.0514 F120.00
G01 X130.8685 Y-78.0539 F120.00
G01 X130.9737 Y-78.1319 F120.00
G01 X130.9771 Y-78.1347 F120.00
G01 X131.0742 Y-78.2227 F120.00
G01 X131.0773 Y-78.2258 F120.00
G01 X131.1653 Y-78.3229 F120.00
G01 X131.1681 Y-78.3263 F120.00
G01 X131.2461 Y-78.4315 F120.00
G01 X131.2486 Y-78.4352 F120.00
G01 X131.3180 Y-78.5515 F120.00
G01 X131.3757 Y-78.6740 F120.00
G01 X131.4199 Y-78.7973 F120.00
G01 X131.4538 Y-78.9330 F120.00
G01 X131.4735 Y-79.0669 F120.00
G01 X131.4800 Y-79.2000 F120.00
G01 X131.4735 Y-79.3331 F120.00
G01 X131.4530 Y-79.4714 F120.00
G01 X131.4199 Y-79.6027 F120.00
G01 X131.3757 Y-79.7260 F120.00
G01 X131.3159 Y-79.8524 F120.00
G01 X131.2461 Y-79.9685 F120.00
G01 X131.1681 Y-80.0737 F120.00
G01 X131.0742 Y-80.1773 F120.00
G01 X130.9737 Y-80.2681 F120.00
G01 X130.8685 Y-80.3461 F120.00
G01 X130.7485 Y-80.4180 F120.00
G01 X130.6260 Y-80.4757 F120.00
G01 X130.4985 Y-80.5211 F120.00
G01 X130.3714 Y-80.5530 F120.00
G01 X130.2331 Y-80.5735 F120.00
G01 X130.0978 Y-80.5799 F120.00
G01 X129.9625 Y-80.5731 F120.00
G01 X129.8330 Y-80.5538 F120.00
G01 X129.6973 Y-80.5199 F120.00
G01 X129.5699 Y-80.4740 F120.00
G01 X129.4515 Y-80.4180 F120.00
G01 X129.3315 Y-80.3461 F120.00
G01 X129.2229 Y-80.2653 F120.00
G01 X129.1227 Y-80.1742 F120.00
G01 X129.0319 Y-80.0737 F120.00
G01 X128.9539 Y-79.9685 F120.00
G01 X128.8820 Y-79.8485 F120.00
G01 X128.8243 Y-79.7260 F120.00
G01 X128.7789 Y-79.5985 F120.00
G01 X128.7462 Y-79.4670 F120.00
G01 X128.7269 Y-79.3375 F120.00
G01 X128.7201 Y-79.1978 F120.00
G01 X128.7269 Y-79.0625 F120.00
G01 X128.7462 Y-78.9330 F120.00
G01 X128.7801 Y-78.7973 F120.00
G01 X128.8260 Y-78.6699 F120.00
G01 X128.8841 Y-78.5476 F120.00
G01 X128.9539 Y-78.4315 F120.00
G01 X129.0319 Y-78.3263 F120.00
G01 X129.0347 Y-78.3229 F120.00
G01 X129.1227 Y-78.2258 F120.00
G01 X129.1258 Y-78.2227 F120.00
G01 X129.2229 Y-78.1347 F120.00
G01 X129.2263 Y-78.1319 F120.00
G01 X129.3315 Y-78.0539 F120.00
G01 X129.3352 Y-78.0514 F120.00
G01 X129.4476 Y-77.9841 F120.00
G01 X129.4515 Y-77.9820 F120.00
G01 X129.5699 Y-77.9260 F120.00
G01 X129.5740 Y-77.9243 F120.00
G01 X129.6973 Y-77.8801 F120.00
M5
G00 X135.0700 Y-80.0602
G01 F60.00
M03 S5000.0
G01 F120.00
G01 X136.6800 Y-80.0602 F120.00
G01 X136.6800 Y-80.1004 F120.00
G01 X135.0700 Y-80.1004 F120.00
G01 X135.0700 Y-80.1406 F120.00
G01 X136.6800 Y-80.1406 F120.00
G01 X136.6800 Y-80.1808 F120.00
G01 X135.0700 Y-80.1808 F120.00
G01 X135.0700 Y-80.2210 F120.00
G01 X136.6800 Y-80.2210 F120.00
G01 X136.6800 Y-80.2612 F120.00
G01 X135.0700 Y-80.2612 F120.00
G01 X135.0700 Y-80.3014 F120.00
G01 X136.6800 Y-80.3014 F120.00
G01 X136.6800 Y-80.3416 F120.00
G01 X135.0700 Y-80.3416 F120.00
G01 X135.0700 Y-80.3818 F120.00
G01 X136.6800 Y-80.3818 F120.00
G01 X136.6800 Y-80.4220 F120.00
G01 X135.0700 Y-80.4220 F120.00
G01 X135.0700 Y-80.4622 F120.00
G01 X136.6800 Y-80.4622 F120.00
G01 X136.6800 Y-80.5024 F120.00
G01 X135.0700 Y-80.5024 F120.00
G01 X135.0700 Y-80.5426 F120.00
G01 X136.6800 Y-80.5426 F120.00
G01 X136.6800 Y-80.5828 F120.00
G01 X135.0700 Y-80.5828 F120.00
G01 X135.0700 Y-80.6230 F120.00
G01 X136.6800 Y-80.6230 F120.00
G01 X136.6800 Y-80.6632 F120.00
G01 X135.0700 Y-80.6632 F120.00
G01 X135.0700 Y-80.7034 F120.00
G01 X136.6800 Y-80.7034 F120.00
G01 X136.6800 Y-80.7436 F120.00
G01 X135.0700 Y-80.7436 F120.00
G01 X135.0700 Y-80.7838 F120.00
G01 X136.6800 Y-80.7838 F120.00
G01 X136.6800 Y-80.8240 F120.00
G01 X135.0700 Y-80.8240 F120.00
G01 X135.0700 Y-80.8642 F120.00
G01 X136.6800 Y-80.8642 F120.00
G01 X136.6800 Y-80.9044 F120.00
G01 X135.0700 Y-80.9044 F120.00
G01 X135.0700 Y-80.9446 F120.00
G01 X136.6800 Y-80.9446 F120.00
G01 X136.6800 Y-80.9848 F120.00
G01 X135.0700 Y-80.9848 F120.00
G01 X135.0700 Y-81.0250 F120.00
G01 X136.6800 Y-81.0250 F120.00
G01 X136.6800 Y-81.0652 F120.00
G01 X135.0700 Y-81.0652 F120.00
G01 X135.0700 Y-81.1054 F120.00
G01 X136.6800 Y-81.1054 F120.00
G01 X136.6800 Y-81.1456 F120.00
G01 X135.0700 Y-81.1456 F120.00
G01 X135.0700 Y-81.1858 F120.00
G01 X136.6800 Y-81.1858 F120.00
G01 X136.6800 Y-81.2260 F120.00
G01 X135.0700 Y-81.2260 F120.00
G01 X135.0700 Y-81.2662 F120.00
G01 X136.6800 Y-81.2662 F120.00
G01 X136.6800 Y-81.3064 F120.00
G01 X135.0700 Y-81.3064 F120.00
G01 X135.0700 Y-81.3466 F120.00
G01 X136.6800 Y-81.3466 F120.00
M5
G00 X135.0700 Y-81.3493
G01 F60.00
M03 S5000.0
G01 F120.00
G01 X135.0700 Y-80.0507 F120.00
G01 X135.0706 Y-80.0442 F120.00
G01 X135.0723 Y-80.0385 F120.00
G01 X135.0736 Y-80.0359 F120.00
G01 X135.0768 Y-80.0310 F120.00
G01 X135.0810 Y-80.0268 F120.00
G01 X135.0859 Y-80.0236 F120.00
G01 X135.0913 Y-80.0213 F120.00
G01 X135.0971 Y-80.0202 F120.00
G01 X135.1007 Y-80.0200 F120.00
G01 X136.6493 Y-80.0200 F120.00
G01 X136.6558 Y-80.0206 F120.00
G01 X136.6615 Y-80.0223 F120.00
G01 X136.6666 Y-80.0251 F120.00
G01 X136.6712 Y-80.0288 F120.00
G01 X136.6732 Y-80.0310 F120.00
G01 X136.6764 Y-80.0359 F120.00
G01 X136.6787 Y-80.0413 F120.00
G01 X136.6798 Y-80.0471 F120.00
G01 X136.6800 Y-80.0507 F120.00
G01 X136.6800 Y-81.3493 F120.00
G01 X136.6794 Y-81.3558 F120.00
G01 X136.6777 Y-81.3615 F120.00
G01 X136.6764 Y-81.3641 F120.00
G01 X136.6732 Y-81.3690 F120.00
G01 X136.6690 Y-81.3732 F120.00
G01 X136.6641 Y-81.3764 F120.00
G01 X136.6587 Y-81.3787 F120.00
G01 X136.6529 Y-81.3798 F120.00
G01 X136.6493 Y-81.3800 F120.00
G01 X135.1007 Y-81.3800 F120.00
G01 X135.0942 Y-81.3794 F120.00
G01 X135.0885 Y-81.3777 F120.00
G01 X135.0834 Y-81.3749 F120.00
G01 X135.0788 Y-81.3712 F120.00
G01 X135.0751 Y-81.3666 F120.00
G01 X135.0723 Y-81.3615 F120.00
G01 X135.0706 Y-81.3558 F120.00
G01 X135.0700 Y-81.3493 F120.00
M5
G00 X135.0700 Y-84.5602
G01 F60.00
M03 S5000.0
G01 F120.00
G01 X136.6800 Y-84.5602 F120.00
G01 X136.6800 Y-84.6004 F120.00
G01 X135.0700 Y-84.6004 F120.00
G01 X135.0700 Y-84.6406 F120.00
G01 X136.6800 Y-84.6406 F120.00
G01 X136.6800 Y-84.6808 F120.00
G01 X135.0700 Y-84.6808 F120.00
G01 X135.0700 Y-84.7210 F120.00
G01 X136.6800 Y-84.7210 F120.00
G01 X136.6800 Y-84.7612 F120.00
G01 X135.0700 Y-84.7612 F120.00
G01 X135.0700 Y-84.8014 F120.00
G01 X136.6800 Y-84.8014 F120.00
G01 X136.6800 Y-84.8416 F120.00
G01 X135.0700 Y-84.8416 F120.00
G01 X135.0700 Y-84.8818 F120.00
G01 X136.6800 Y-84.8818 F120.00
G01 X136.6800 Y-84.9220 F120.00
G01 X135.0700 Y-84.9220 F120.00
G01 X135.0700 Y-84.9622 F120.00
G01 X136.6800 Y-84.9622 F120.00
G01 X136.6800 Y-85.0024 F120.00
G01 X135.0700 Y-85.0024 F120.00
G01 X135.0700 Y-85.0426 F120.00
G01 X136.6800 Y-85.0426 F120.00
G01 X136.6800 Y-85.0828 F120.00
G01 X135.0700 Y-85.0828 F120.00
G01 X135.0700 Y-85.1230 F120.00
G01 X136.6800 Y-85.1230 F120.00
G01 X136.6800 Y-85.1632 F120.00
G01 X135.0700 Y-85.1632 F120.00
G01 X135.0700 Y-85.2034 F120.00
G01 X136.6800 Y-85.2034 F120.00
G01 X136.6800 Y-85.2436 F120.00
G01 X135.0700 Y-85.2436 F120.00
G01 X135.0700 Y-85.2838 F120.00
G01 X136.6800 Y-85.2838 F120.00
G01 X136.6800 Y-85.3240 F120.00
G01 X135.0700 Y-85.3240 F120.00
G01 X135.0700 Y-85.3642 F120.00
G01 X136.6800 Y-85.3642 F120.00
G01 X136.6800 Y-85.4044 F120.00
G01 X135.0700 Y-85.4044 F120.00
G01 X135.0700 Y-85.4446 F120.00
G01 X136.6800 Y-85.4446 F120.00
G01 X136.6800 Y-85.4848 F120.00
G01 X135.0700 Y-85.4848 F120.00
G01 X135.0700 Y-85.5250 F120.00
G01 X136.6800 Y-85.5250 F120.00
G01 X136.6800 Y-85.5652 F120.00
G01 X135.0700 Y-85.5652 F120.00
G01 X135.0700 Y-85.6054 F120.00
G01 X136.6800 Y-85.6054 F120.00
G01 X136.6800 Y-85.6456 F120.00
G01 X135.0700 Y-85.6456 F120.00
G01 X135.0700 Y-85.6858 F120.00
G01 X136.6800 Y-85.6858 F120.00
G01 X136.6800 Y-85.7260 F120.00
G01 X135.0700 Y-85.7260 F120.00
G01 X135.0700 Y-85.7662 F120.00
G01 X136.6800 Y-85.7662 F120.00
G01 X136.6800 Y-85.8064 F120.00
G01 X135.0700 Y-85.8064 F120.00
G01 X135.0700 Y-85.8466 F120.00
G01 X136.6800 Y-85.8466 F120.00
M5
G00 X135.0700 Y-85.8493
G01 F60.00
M03 S5000.0
G01 F120.00
G01 X135.0700 Y-84.5507 F120.00
G01 X135.0706 Y-84.5442 F120.00
G01 X135.0723 Y-84.5385 F120.00
G01 X135.0736 Y-84.5359 F120.00
G01 X135.0768 Y-84.5310 F120.00
G01 X135.0810 Y-84.5268 F120.00
G01 X135.0859 Y-84.5236 F120.00
G01 X135.0913 Y-84.5213 F120.00
G01 X135.0971 Y-84.5202 F120.00
G01 X135.1007 Y-84.5200 F120.00
G01 X136.6493 Y-84.5200 F120.00
G01 X136.6558 Y-84.5206 F120.00
G01 X136.6615 Y-84.5223 F120.00
G01 X136.6666 Y-84.5251 F120.00
G01 X136.6712 Y-84.5288 F120.00
G01 X136.6732 Y-84.5310 F120.00
G01 X136.6764 Y-84.5359 F120.00
G01 X136.6787 Y-84.5413 F120.00
G01 X136.6798 Y-84.5471 F120.00
G01 X136.6800 Y-84.5507 F120.00
G01 X136.6800 Y-85.8493 F120.00
G01 X136.6794 Y-85.8558 F120.00
G01 X136.6777 Y-85.8615 F120.00
G01 X136.6764 Y-85.8641 F120.00
G01 X136.6732 Y-85.8690 F120.00
G01 X136.6690 Y-85.8732 F120.00
G01 X136.6641 Y-85.8764 F120.00
G01 X136.6587 Y-85.8787 F120.00
G01 X136.6529 Y-85.8798 F120.00
G01 X136.6493 Y-85.8800 F120.00
G01 X135.1007 Y-85.8800 F120.00
G01 X135.0942 Y-85.8794 F120.00
G01 X135.0885 Y-85.8777 F120.00
G01 X135.0834 Y-85.8749 F120.00
G01 X135.0788 Y-85.8712 F120.00
G01 X135.0751 Y-85.8666 F120.00
G01 X135.0723 Y-85.8615 F120.00
G01 X135.0706 Y-85.8558 F120.00
G01 X135.0700 Y-85.8493 F120.00
M5
G00 X132.6963 Y-88.1204
G01 F60.00
M03 S5000.0
G01 F120.00
G01 X131.1037 Y-88.1204 F120.00
G01 X131.1560 Y-88.0802 F120.00
G01 X132.6440 Y-88.0802 F120.00
M5
G00 X131.2166 Y-88.0528
G01 F60.00
M03 S5000.0
G01 F120.00
G01 X131.2476 Y-88.0450 F120.00
G01 X131.2748 Y-88.0412 F120.00
G01 X131.3004 Y-88.0400 F120.00
G01 X132.4996 Y-88.0400 F120.00
G01 X132.5252 Y-88.0412 F120.00
G01 X132.5524 Y-88.0450 F120.00
G01 X132.5791 Y-88.0515 F120.00
G01 X132.6051 Y-88.0605 F120.00
G01 X132.6300 Y-88.0721 F120.00
G01 X132.6537 Y-88.0860 F120.00
G01 X132.6759 Y-88.1022 F120.00
G01 X132.6964 Y-88.1205 F120.00
G01 X132.7150 Y-88.1407 F120.00
G01 X132.7340 Y-88.1663 F120.00
G01 X132.7479 Y-88.1900 F120.00
G01 X132.7595 Y-88.2149 F120.00
G01 X132.7685 Y-88.2409 F120.00
G01 X132.7750 Y-88.2676 F120.00
G01 X132.7788 Y-88.2948 F120.00
G01 X132.7799 Y-88.3182 F120.00
G01 X132.7800 Y-89.5196 F120.00
G01 X132.7784 Y-89.5496 F120.00
G01 X132.7741 Y-89.5768 F120.00
G01 X132.7672 Y-89.6034 F120.00
G01 X132.7578 Y-89.6292 F120.00
G01 X132.7458 Y-89.6539 F120.00
G01 X132.7315 Y-89.6774 F120.00
G01 X132.7150 Y-89.6993 F120.00
G01 X132.6964 Y-89.7195 F120.00
G01 X132.6793 Y-89.7350 F120.00
G01 X132.6537 Y-89.7540 F120.00
G01 X132.6300 Y-89.7679 F120.00
G01 X132.6051 Y-89.7795 F120.00
G01 X132.5791 Y-89.7885 F120.00
G01 X132.5524 Y-89.7950 F120.00
G01 X132.5252 Y-89.7988 F120.00
G01 X132.5018 Y-89.7999 F120.00
G01 X131.3004 Y-89.8000 F120.00
G01 X131.2704 Y-89.7984 F120.00
G01 X131.2432 Y-89.7941 F120.00
G01 X131.2166 Y-89.7872 F120.00
G01 X131.1908 Y-89.7778 F120.00
G01 X131.1661 Y-89.7658 F120.00
G01 X131.1426 Y-89.7515 F120.00
G01 X131.1207 Y-89.7350 F120.00
G01 X131.1005 Y-89.7164 F120.00
G01 X131.0850 Y-89.6993 F120.00
G01 X131.0660 Y-89.6737 F120.00
G01 X131.0521 Y-89.6500 F120.00
G01 X131.0405 Y-89.6251 F120.00
G01 X131.0315 Y-89.5991 F120.00
G01 X131.0250 Y-89.5724 F120.00
G01 X131.0212 Y-89.5452 F120.00
G01 X131.0201 Y-89.5218 F120.00
G01 X131.0200 Y-88.3204 F120.00
G01 X131.0212 Y-88.2948 F120.00
G01 X131.0259 Y-88.2632 F120.00
G01 X131.0328 Y-88.2366 F120.00
G01 X131.0405 Y-88.2149 F120.00
G01 X131.0542 Y-88.1861 F120.00
G01 X131.0685 Y-88.1626 F120.00
G01 X131.0822 Y-88.1441 F120.00
G01 X131.1036 Y-88.1205 F120.00
G01 X131.1241 Y-88.1022 F120.00
G01 X131.1426 Y-88.0885 F120.00
G01 X131.1700 Y-88.0721 F120.00
G01 X131.1949 Y-88.0605 F120.00
G01 X131.2166 Y-88.0528 F120.00
M5
G00 X131.0700 Y-88.1606
G01 F60.00
M03 S5000.0
G01 F120.00
G01 X132.7300 Y-88.1606 F120.00
G01 X132.7530 Y-88.2008 F120.00
G01 X131.0470 Y-88.2008 F120.00
G01 X131.0314 Y-88.2410 F120.00
G01 X132.7686 Y-88.2410 F120.00
G01 X132.7770 Y-88.2812 F120.00
G01 X131.0230 Y-88.2812 F120.00
G01 X131.0200 Y-88.3214 F120.00
G01 X132.7800 Y-88.3214 F120.00
G01 X132.7800 Y-88.3616 F120.00
G01 X131.0200 Y-88.3616 F120.00
G01 X131.0200 Y-88.4018 F120.00
G01 X132.7800 Y-88.4018 F120.00
G01 X132.7800 Y-88.4420 F120.00
G01 X131.0200 Y-88.4420 F120.00
G01 X131.0200 Y-88.4822 F120.00
G01 X132.7800 Y-88.4822 F120.00
G01 X132.7800 Y-88.5224 F120.00
G01 X131.0200 Y-88.5224 F120.00
G01 X131.0200 Y-88.5626 F120.00
G01 X132.7800 Y-88.5626 F120.00
G01 X132.7800 Y-88.6028 F120.00
G01 X131.0200 Y-88.6028 F120.00
G01 X131.0200 Y-88.6430 F120.00
G01 X132.7800 Y-88.6430 F120.00
G01 X132.7800 Y-88.6832 F120.00
G01 X131.0200 Y-88.6832 F120.00
G01 X131.0200 Y-88.7234 F120.00
G01 X132.7800 Y-88.7234 F120.00
G01 X132.7800 Y-88.7636 F120.00
G01 X131.0200 Y-88.7636 F120.00
G01 X131.0200 Y-88.8038 F120.00
G01 X132.7800 Y-88.8038 F120.00
G01 X132.7800 Y-88.8440 F120.00
G01 X131.0200 Y-88.8440 F120.00
G01 X131.0200 Y-88.8842 F120.00
G01 X132.7800 Y-88.8842 F120.00
G01 X132.7800 Y-88.9244 F120.00
G01 X131.0200 Y-88.9244 F120.00
G01 X131.0200 Y-88.9646 F120.00
G01 X132.7800 Y-88.9646 F120.00
G01 X132.7800 Y-89.0048 F120.00
G01 X131.0200 Y-89.0048 F120.00
G01 X131.0200 Y-89.0450 F120.00
G01 X132.7800 Y-89.0450 F120.00
G01 X132.7800 Y-89.0852 F120.00
G01 X131.0200 Y-89.0852 F120.00
G01 X131.0200 Y-89.1254 F120.00
G01 X132.7800 Y-89.1254 F120.00
G01 X132.7800 Y-89.1656 F120.00
G01 X131.0200 Y-89.1656 F120.00
G01 X131.0200 Y-89.2058 F120.00
G01 X132.7800 Y-89.2058 F120.00
G01 X132.7800 Y-89.2460 F120.00
G01 X131.0200 Y-89.2460 F120.00
G01 X131.0200 Y-89.2862 F120.00
G01 X132.7800 Y-89.2862 F120.00
G01 X132.7800 Y-89.3264 F120.00
G01 X131.0200 Y-89.3264 F120.00
G01 X131.0200 Y-89.3666 F120.00
G01 X132.7800 Y-89.3666 F120.00
G01 X132.7800 Y-89.4068 F120.00
G01 X131.0200 Y-89.4068 F120.00
G01 X131.0200 Y-89.4470 F120.00
G01 X132.7800 Y-89.4470 F120.00
G01 X132.7800 Y-89.4872 F120.00
G01 X131.0200 Y-89.4872 F120.00
G01 X131.0203 Y-89.5274 F120.00
G01 X132.7797 Y-89.5274 F120.00
G01 X132.7757 Y-89.5676 F120.00
G01 X131.0243 Y-89.5676 F120.00
G01 X131.0344 Y-89.6078 F120.00
G01 X132.7656 Y-89.6078 F120.00
G01 X132.7489 Y-89.6480 F120.00
G01 X131.0511 Y-89.6480 F120.00
G01 X131.0765 Y-89.6882 F120.00
G01 X132.7235 Y-89.6882 F120.00
G01 X132.6866 Y-89.7284 F120.00
G01 X131.1134 Y-89.7284 F120.00
G01 X131.1714 Y-89.7686 F120.00
G01 X132.6286 Y-89.7686 F120.00
M5
G00 X132.7487 Y-91.2306
G01 F60.00
M03 S5000.0
G01 F120.00
G01 X132.7487 Y-91.6894 F120.00
G01 X132.7085 Y-91.8064 F120.00
G01 X132.7085 Y-91.1136 F120.00
G01 X132.6683 Y-91.0321 F120.00
G01 X132.6683 Y-91.8879 F120.00
G01 X132.6281 Y-91.9538 F120.00
G01 X132.6281 Y-90.9662 F120.00
G01 X132.5879 Y-90.9120 F120.00
G01 X132.5879 Y-92.0080 F120.00
G01 X132.5477 Y-92.0543 F120.00
G01 X132.5477 Y-90.8657 F120.00
G01 X132.5075 Y-90.8243 F120.00
G01 X132.5075 Y-92.0957 F120.00
G01 X132.4673 Y-92.1321 F120.00
G01 X132.4673 Y-90.7879 F120.00
G01 X132.4271 Y-90.7566 F120.00
G01 X132.4271 Y-92.1634 F120.00
G01 X132.3869 Y-92.1930 F120.00
G01 X132.3869 Y-90.7270 F120.00
G01 X132.3467 Y-90.7030 F120.00
G01 X132.3467 Y-92.2170 F120.00
G01 X132.3065 Y-92.2401 F120.00
G01 X132.3065 Y-90.6799 F120.00
G01 X132.2663 Y-90.6609 F120.00
G01 X132.2663 Y-92.2591 F120.00
G01 X132.2261 Y-92.2769 F120.00
G01 X132.2261 Y-90.6431 F120.00
G01 X132.1859 Y-90.6287 F120.00
G01 X132.1859 Y-92.2913 F120.00
G01 X132.1457 Y-92.3046 F120.00
G01 X132.1457 Y-90.6154 F120.00
G01 X132.1055 Y-90.6053 F120.00
G01 X132.1055 Y-92.3147 F120.00
G01 X132.0653 Y-92.3241 F120.00
G01 X132.0653 Y-90.5959 F120.00
G01 X132.0251 Y-90.5900 F120.00
G01 X132.0251 Y-92.3300 F120.00
G01 X131.9849 Y-92.3358 F120.00
G01 X131.9849 Y-90.5842 F120.00
G01 X131.9447 Y-90.5822 F120.00
G01 X131.9447 Y-92.3378 F120.00
G01 X131.9045 Y-92.3398 F120.00
G01 X131.9045 Y-90.5802 F120.00
G01 X131.8643 Y-90.5817 F120.00
G01 X131.8643 Y-92.3383 F120.00
G01 X131.8241 Y-92.3363 F120.00
G01 X131.8241 Y-90.5837 F120.00
G01 X131.7839 Y-90.5886 F120.00
G01 X131.7839 Y-92.3314 F120.00
G01 X131.7437 Y-92.3254 F120.00
G01 X131.7437 Y-90.5946 F120.00
G01 X131.7035 Y-90.6031 F120.00
G01 X131.7035 Y-92.3169 F120.00
G01 X131.6633 Y-92.3068 F120.00
G01 X131.6633 Y-90.6132 F120.00
G01 X131.6425 Y-90.6186 F120.00
G01 X131.5653 Y-90.6462 F120.00
G01 X131.5612 Y-90.6479 F120.00
G01 X131.4872 Y-90.6829 F120.00
G01 X131.4833 Y-90.6850 F120.00
G01 X131.4130 Y-90.7271 F120.00
G01 X131.4093 Y-90.7296 F120.00
G01 X131.3435 Y-90.7784 F120.00
G01 X131.3401 Y-90.7812 F120.00
G01 X131.2794 Y-90.8362 F120.00
G01 X131.2762 Y-90.8394 F120.00
G01 X131.2212 Y-90.9001 F120.00
G01 X131.2184 Y-90.9035 F120.00
G01 X131.1696 Y-90.9693 F120.00
G01 X131.1250 Y-91.0433 F120.00
G01 X131.0862 Y-91.1253 F120.00
G01 X131.0586 Y-91.2025 F120.00
G01 X131.0374 Y-91.2862 F120.00
G01 X131.0241 Y-91.3759 F120.00
G01 X131.0201 Y-91.4578 F120.00
G01 X131.0241 Y-91.5441 F120.00
G01 X131.0365 Y-91.6295 F120.00
G01 X131.0586 Y-91.7175 F120.00
G01 X131.0862 Y-91.7947 F120.00
G01 X131.1229 Y-91.8728 F120.00
G01 X131.1671 Y-91.9470 F120.00
G01 X131.1696 Y-91.9507 F120.00
G01 X131.2184 Y-92.0165 F120.00
G01 X131.2212 Y-92.0199 F120.00
G01 X131.2762 Y-92.0806 F120.00
G01 X131.2794 Y-92.0838 F120.00
G01 X131.3401 Y-92.1388 F120.00
G01 X131.3435 Y-92.1416 F120.00
G01 X131.4093 Y-92.1904 F120.00
G01 X131.4130 Y-92.1929 F120.00
G01 X131.4833 Y-92.2350 F120.00
G01 X131.4872 Y-92.2371 F120.00
G01 X131.5612 Y-92.2721 F120.00
G01 X131.5653 Y-92.2738 F120.00
G01 X131.6425 Y-92.3014 F120.00
G01 X131.6467 Y-92.3027 F120.00
G01 X131.7262 Y-92.3226 F120.00
G01 X131.7305 Y-92.3235 F120.00
G01 X131.8116 Y-92.3355 F120.00
G01 X131.8159 Y-92.3359 F120.00
G01 X131.8978 Y-92.3399 F120.00
G01 X131.9022 Y-92.3399 F120.00
G01 X131.9841 Y-92.3359 F120.00
G01 X131.9884 Y-92.3355 F120.00
G01 X132.0695 Y-92.3235 F120.00
G01 X132.0738 Y-92.3226 F120.00
G01 X132.1533 Y-92.3027 F120.00
G01 X132.1575 Y-92.3014 F120.00
G01 X132.2347 Y-92.2738 F120.00
G01 X132.2388 Y-92.2721 F120.00
G01 X132.3128 Y-92.2371 F120.00
G01 X132.3167 Y-92.2350 F120.00
G01 X132.3870 Y-92.1929 F120.00
G01 X132.3907 Y-92.1904 F120.00
G01 X132.4565 Y-92.1416 F120.00
G01 X132.4599 Y-92.1388 F120.00
G01 X132.5206 Y-92.0838 F120.00
G01 X132.5238 Y-92.0806 F120.00
G01 X132.5788 Y-92.0199 F120.00
G01 X132.5816 Y-92.0165 F120.00
G01 X132.6304 Y-91.9507 F120.00
G01 X132.6329 Y-91.9470 F120.00
G01 X132.6750 Y-91.8767 F120.00
G01 X132.6771 Y-91.8728 F120.00
G01 X132.7121 Y-91.7988 F120.00
G01 X132.7414 Y-91.7175 F120.00
G01 X132.7427 Y-91.7133 F120.00
G01 X132.7626 Y-91.6338 F120.00
G01 X132.7635 Y-91.6295 F120.00
G01 X132.7755 Y-91.5484 F120.00
G01 X132.7799 Y-91.4622 F120.00
G01 X132.7759 Y-91.3759 F120.00
G01 X132.7626 Y-91.2862 F120.00
G01 X132.7427 Y-91.2067 F120.00
G01 X132.7138 Y-91.1253 F120.00
G01 X132.7121 Y-91.1212 F120.00
G01 X132.6771 Y-91.0472 F120.00
G01 X132.6750 Y-91.0433 F120.00
G01 X132.6329 Y-90.9730 F120.00
G01 X132.6304 Y-90.9693 F120.00
G01 X132.5816 Y-90.9035 F120.00
G01 X132.5788 Y-90.9001 F120.00
G01 X132.5238 Y-90.8394 F120.00
G01 X132.5206 Y-90.8362 F120.00
G01 X132.4599 Y-90.7812 F120.00
G01 X132.4565 Y-90.7784 F120.00
G01 X132.3907 Y-90.7296 F120.00
G01 X132.3870 Y-90.7271 F120.00
G01 X132.3167 Y-90.6850 F120.00
G01 X132.3128 Y-90.6829 F120.00
G01 X132.2388 Y-90.6479 F120.00
G01 X132.2347 Y-90.6462 F120.00
G01 X132.1575 Y-90.6186 F120.00
G01 X132.1533 Y-90.6173 F120.00
G01 X132.0738 Y-90.5974 F120.00
G01 X132.0695 Y-90.5965 F120.00
G01 X131.9884 Y-90.5845 F120.00
G01 X131.9841 Y-90.5841 F120.00
G01 X131.9022 Y-90.5801 F120.00
G01 X131.8978 Y-90.5801 F120.00
G01 X131.8159 Y-90.5841 F120.00
G01 X131.8116 Y-90.5845 F120.00
G01 X131.7305 Y-90.5965 F120.00
G01 X131.7262 Y-90.5974 F120.00
G01 X131.6467 Y-90.6173 F120.00
G01 X131.6425 Y-90.6186 F120.00
G01 X131.6231 Y-90.6255 F120.00
G01 X131.6231 Y-92.2945 F120.00
G01 X131.5829 Y-92.2801 F120.00
G01 X131.5829 Y-90.6399 F120.00
G01 X131.5427 Y-90.6567 F120.00
G01 X131.5427 Y-92.2633 F120.00
G01 X131.5025 Y-92.2443 F120.00
G01 X131.5025 Y-90.6757 F120.00
G01 X131.4623 Y-90.6976 F120.00
G01 X131.4623 Y-92.2224 F120.00
G01 X131.4221 Y-92.1983 F120.00
G01 X131.4221 Y-90.7217 F120.00
G01 X131.3819 Y-90.7499 F120.00
G01 X131.3819 Y-92.1701 F120.00
G01 X131.3417 Y-92.1401 F120.00
G01 X131.3417 Y-90.7799 F120.00
G01 X131.3015 Y-90.8162 F120.00
G01 X131.3015 Y-92.1038 F120.00
G01 X131.2613 Y-92.0641 F120.00
G01 X131.2613 Y-90.8559 F120.00
G01 X131.2211 Y-90.9002 F120.00
G01 X131.2211 Y-92.0198 F120.00
G01 X131.1809 Y-91.9659 F120.00
G01 X131.1809 Y-90.9541 F120.00
M5
G00 X131.1407 Y-91.0171
G01 F60.00
M03 S5000.0
G01 F120.00
G01 X131.1407 Y-91.9029 F120.00
G01 X131.1005 Y-91.8254 F120.00
G01 X131.1005 Y-91.0946 F120.00
G01 X131.0603 Y-91.1978 F120.00
G01 X131.0603 Y-91.7222 F120.00
M5
G00 X130.2087 Y-91.2306
G01 F60.00
M03 S5000.0
G01 F120.00
G01 X130.2087 Y-91.6894 F120.00
G01 X130.1685 Y-91.8064 F120.00
G01 X130.1685 Y-91.1136 F120.00
G01 X130.1283 Y-91.0321 F120.00
G01 X130.1283 Y-91.8879 F120.00
G01 X130.0881 Y-91.9538 F120.00
G01 X130.0881 Y-90.9662 F120.00
G01 X130.0479 Y-90.9120 F120.00
G01 X130.0479 Y-92.0080 F120.00
G01 X130.0077 Y-92.0543 F120.00
G01 X130.0077 Y-90.8657 F120.00
G01 X129.9675 Y-90.8243 F120.00
G01 X129.9675 Y-92.0957 F120.00
G01 X129.9273 Y-92.1321 F120.00
G01 X129.9273 Y-90.7879 F120.00
G01 X129.8871 Y-90.7566 F120.00
G01 X129.8871 Y-92.1634 F120.00
G01 X129.8469 Y-92.1930 F120.00
G01 X129.8469 Y-90.7270 F120.00
G01 X129.8067 Y-90.7030 F120.00
G01 X129.8067 Y-92.2170 F120.00
G01 X129.7665 Y-92.2401 F120.00
G01 X129.7665 Y-90.6799 F120.00
G01 X129.7263 Y-90.6609 F120.00
G01 X129.7263 Y-92.2591 F120.00
G01 X129.6861 Y-92.2769 F120.00
G01 X129.6861 Y-90.6431 F120.00
G01 X129.6459 Y-90.6287 F120.00
G01 X129.6459 Y-92.2913 F120.00
G01 X129.6057 Y-92.3046 F120.00
G01 X129.6057 Y-90.6154 F120.00
G01 X129.5655 Y-90.6053 F120.00
G01 X129.5655 Y-92.3147 F120.00
G01 X129.5253 Y-92.3241 F120.00
G01 X129.5253 Y-90.5959 F120.00
G01 X129.4851 Y-90.5900 F120.00
G01 X129.4851 Y-92.3300 F120.00
G01 X129.4449 Y-92.3358 F120.00
G01 X129.4449 Y-90.5842 F120.00
G01 X129.4047 Y-90.5822 F120.00
G01 X129.4047 Y-92.3378 F120.00
G01 X129.3645 Y-92.3398 F120.00
G01 X129.3645 Y-90.5802 F120.00
G01 X129.3243 Y-90.5817 F120.00
G01 X129.3243 Y-92.3383 F120.00
G01 X129.2841 Y-92.3363 F120.00
G01 X129.2841 Y-90.5837 F120.00
G01 X129.2439 Y-90.5886 F120.00
G01 X129.2439 Y-92.3314 F120.00
G01 X129.2037 Y-92.3254 F120.00
G01 X129.2037 Y-90.5946 F120.00
G01 X129.1635 Y-90.6031 F120.00
G01 X129.1635 Y-92.3169 F120.00
G01 X129.1233 Y-92.3068 F120.00
G01 X129.1233 Y-90.6132 F120.00
G01 X129.1025 Y-90.6186 F120.00
G01 X129.0253 Y-90.6462 F120.00
G01 X129.0212 Y-90.6479 F120.00
G01 X128.9472 Y-90.6829 F120.00
G01 X128.9433 Y-90.6850 F120.00
G01 X128.8730 Y-90.7271 F120.00
G01 X128.8693 Y-90.7296 F120.00
G01 X128.8035 Y-90.7784 F120.00
G01 X128.8001 Y-90.7812 F120.00
G01 X128.7394 Y-90.8362 F120.00
G01 X128.7362 Y-90.8394 F120.00
G01 X128.6812 Y-90.9001 F120.00
G01 X128.6784 Y-90.9035 F120.00
G01 X128.6296 Y-90.9693 F120.00
G01 X128.5850 Y-91.0433 F120.00
G01 X128.5462 Y-91.1253 F120.00
G01 X128.5186 Y-91.2025 F120.00
G01 X128.4974 Y-91.2862 F120.00
G01 X128.4841 Y-91.3759 F120.00
G01 X128.4801 Y-91.4578 F120.00
G01 X128.4841 Y-91.5441 F120.00
G01 X128.4965 Y-91.6295 F120.00
G01 X128.5186 Y-91.7175 F120.00
G01 X128.5462 Y-91.7947 F120.00
G01 X128.5829 Y-91.8728 F120.00
G01 X128.6271 Y-91.9470 F120.00
G01 X128.6296 Y-91.9507 F120.00
G01 X128.6784 Y-92.0165 F120.00
G01 X128.6812 Y-92.0199 F120.00
G01 X128.7362 Y-92.0806 F120.00
G01 X128.7394 Y-92.0838 F120.00
G01 X128.8001 Y-92.1388 F120.00
G01 X128.8035 Y-92.1416 F120.00
G01 X128.8693 Y-92.1904 F120.00
G01 X128.8730 Y-92.1929 F120.00
G01 X128.9433 Y-92.2350 F120.00
G01 X128.9472 Y-92.2371 F120.00
G01 X129.0212 Y-92.2721 F120.00
G01 X129.0253 Y-92.2738 F120.00
G01 X129.1025 Y-92.3014 F120.00
G01 X129.1067 Y-92.3027 F120.00
G01 X129.1862 Y-92.3226 F120.00
G01 X129.1905 Y-92.3235 F120.00
G01 X129.2716 Y-92.3355 F120.00
G01 X129.2759 Y-92.3359 F120.00
G01 X129.3578 Y-92.3399 F120.00
G01 X129.3622 Y-92.3399 F120.00
G01 X129.4441 Y-92.3359 F120.00
G01 X129.4484 Y-92.3355 F120.00
G01 X129.5295 Y-92.3235 F120.00
G01 X129.5338 Y-92.3226 F120.00
G01 X129.6133 Y-92.3027 F120.00
G01 X129.6175 Y-92.3014 F120.00
G01 X129.6947 Y-92.2738 F120.00
G01 X129.6988 Y-92.2721 F120.00
G01 X129.7728 Y-92.2371 F120.00
G01 X129.7767 Y-92.2350 F120.00
G01 X129.8470 Y-92.1929 F120.00
G01 X129.8507 Y-92.1904 F120.00
G01 X129.9165 Y-92.1416 F120.00
G01 X129.9199 Y-92.1388 F120.00
G01 X129.9806 Y-92.0838 F120.00
G01 X129.9838 Y-92.0806 F120.00
G01 X130.0388 Y-92.0199 F120.00
G01 X130.0416 Y-92.0165 F120.00
G01 X130.0904 Y-91.9507 F120.00
G01 X130.0929 Y-91.9470 F120.00
G01 X130.1350 Y-91.8767 F120.00
G01 X130.1371 Y-91.8728 F120.00
G01 X130.1721 Y-91.7988 F120.00
G01 X130.2014 Y-91.7175 F120.00
G01 X130.2027 Y-91.7133 F120.00
G01 X130.2226 Y-91.6338 F120.00
G01 X130.2235 Y-91.6295 F120.00
G01 X130.2355 Y-91.5484 F120.00
G01 X130.2399 Y-91.4622 F120.00
G01 X130.2359 Y-91.3759 F120.00
G01 X130.2226 Y-91.2862 F120.00
G01 X130.2027 Y-91.2067 F120.00
G01 X130.1738 Y-91.1253 F120.00
G01 X130.1721 Y-91.1212 F120.00
G01 X130.1371 Y-91.0472 F120.00
G01 X130.1350 Y-91.0433 F120.00
G01 X130.0929 Y-90.9730 F120.00
G01 X130.0904 Y-90.9693 F120.00
G01 X130.0416 Y-90.9035 F120.00
G01 X130.0388 Y-90.9001 F120.00
G01 X129.9838 Y-90.8394 F120.00
G01 X129.9806 Y-90.8362 F120.00
G01 X129.9199 Y-90.7812 F120.00
G01 X129.9165 Y-90.7784 F120.00
G01 X129.8507 Y-90.7296 F120.00
G01 X129.8470 Y-90.7271 F120.00
G01 X129.7767 Y-90.6850 F120.00
G01 X129.7728 Y-90.6829 F120.00
G01 X129.6988 Y-90.6479 F120.00
G01 X129.6947 Y-90.6462 F120.00
G01 X129.6175 Y-90.6186 F120.00
G01 X129.6133 Y-90.6173 F120.00
G01 X129.5338 Y-90.5974 F120.00
G01 X129.5295 Y-90.5965 F120.00
G01 X129.4484 Y-90.5845 F120.00
G01 X129.4441 Y-90.5841 F120.00
G01 X129.3622 Y-90.5801 F120.00
G01 X129.3578 Y-90.5801 F120.00
G01 X129.2759 Y-90.5841 F120.00
G01 X129.2716 Y-90.5845 F120.00
G01 X129.1905 Y-90.5965 F120.00
G01 X129.1862 Y-90.5974 F120.00
G01 X129.1067 Y-90.6173 F120.00
G01 X129.1025 Y-90.6186 F120.00
G01 X129.0831 Y-90.6255 F120.00
G01 X129.0831 Y-92.2945 F120.00
G01 X129.0429 Y-92.2801 F120.00
G01 X129.0429 Y-90.6399 F120.00
G01 X129.0027 Y-90.6567 F120.00
G01 X129.0027 Y-92.2633 F120.00
G01 X128.9625 Y-92.2443 F120.00
G01 X128.9625 Y-90.6757 F120.00
G01 X128.9223 Y-90.6976 F120.00
G01 X128.9223 Y-92.2224 F120.00
G01 X128.8821 Y-92.1983 F120.00
G01 X128.8821 Y-90.7217 F120.00
G01 X128.8419 Y-90.7499 F120.00
G01 X128.8419 Y-92.1701 F120.00
G01 X128.8017 Y-92.1401 F120.00
G01 X128.8017 Y-90.7799 F120.00
G01 X128.7615 Y-90.8162 F120.00
G01 X128.7615 Y-92.1038 F120.00
G01 X128.7213 Y-92.0641 F120.00
G01 X128.7213 Y-90.8559 F120.00
G01 X128.6811 Y-90.9002 F120.00
G01 X128.6811 Y-92.0198 F120.00
G01 X128.6409 Y-91.9659 F120.00
G01 X128.6409 Y-90.9541 F120.00
M5
G00 X128.6007 Y-91.0171
G01 F60.00
M03 S5000.0
G01 F120.00
G01 X128.6007 Y-91.9029 F120.00
G01 X128.5605 Y-91.8254 F120.00
G01 X128.5605 Y-91.0946 F120.00
G01 X128.5203 Y-91.1978 F120.00
G01 X128.5203 Y-91.7222 F120.00
M5
G00 X128.6409 Y-93.4941
G01 F60.00
M03 S5000.0
G01 F120.00
G01 X128.6409 Y-94.5059 F120.00
G01 X128.6811 Y-94.5598 F120.00
G01 X128.6811 Y-93.4402 F120.00
G01 X128.7213 Y-93.3959 F120.00
G01 X128.7213 Y-94.6041 F120.00
G01 X128.7615 Y-94.6438 F120.00
G01 X128.7615 Y-93.3562 F120.00
G01 X128.8017 Y-93.3199 F120.00
G01 X128.8017 Y-94.6801 F120.00
G01 X128.8419 Y-94.7101 F120.00
G01 X128.8419 Y-93.2899 F120.00
G01 X128.8821 Y-93.2617 F120.00
G01 X128.8821 Y-94.7383 F120.00
G01 X128.9223 Y-94.7624 F120.00
G01 X128.9223 Y-93.2376 F120.00
G01 X128.9625 Y-93.2157 F120.00
G01 X128.9625 Y-94.7843 F120.00
G01 X129.0027 Y-94.8033 F120.00
G01 X129.0027 Y-93.1967 F120.00
G01 X129.0429 Y-93.1799 F120.00
G01 X129.0429 Y-94.8201 F120.00
G01 X129.0831 Y-94.8345 F120.00
G01 X129.0831 Y-93.1655 F120.00
G01 X129.1025 Y-93.1586 F120.00
G01 X129.1067 Y-93.1573 F120.00
G01 X129.1862 Y-93.1374 F120.00
G01 X129.1905 Y-93.1365 F120.00
G01 X129.2716 Y-93.1245 F120.00
G01 X129.2759 Y-93.1241 F120.00
G01 X129.3578 Y-93.1201 F120.00
G01 X129.3622 Y-93.1201 F120.00
G01 X129.4441 Y-93.1241 F120.00
G01 X129.4484 Y-93.1245 F120.00
G01 X129.5295 Y-93.1365 F120.00
G01 X129.5338 Y-93.1374 F120.00
G01 X129.6133 Y-93.1573 F120.00
G01 X129.6175 Y-93.1586 F120.00
G01 X129.6947 Y-93.1862 F120.00
G01 X129.6988 Y-93.1879 F120.00
G01 X129.7728 Y-93.2229 F120.00
G01 X129.7767 Y-93.2250 F120.00
G01 X129.8470 Y-93.2671 F120.00
G01 X129.8507 Y-93.2696 F120.00
G01 X129.9165 Y-93.3184 F120.00
G01 X129.9199 Y-93.3212 F120.00
G01 X129.9806 Y-93.3762 F120.00
G01 X129.9838 Y-93.3794 F120.00
G01 X130.0388 Y-93.4401 F120.00
G01 X130.0416 Y-93.4435 F120.00
G01 X130.0904 Y-93.5093 F120.00
G01 X130.0929 Y-93.5130 F120.00
G01 X130.1350 Y-93.5833 F120.00
G01 X130.1371 Y-93.5872 F120.00
G01 X130.1721 Y-93.6612 F120.00
G01 X130.1738 Y-93.6653 F120.00
G01 X130.2027 Y-93.7467 F120.00
G01 X130.2226 Y-93.8262 F120.00
G01 X130.2359 Y-93.9159 F120.00
G01 X130.2399 Y-94.0022 F120.00
G01 X130.2355 Y-94.0884 F120.00
G01 X130.2235 Y-94.1695 F120.00
G01 X130.2226 Y-94.1738 F120.00
G01 X130.2027 Y-94.2533 F120.00
G01 X130.2014 Y-94.2575 F120.00
G01 X130.1721 Y-94.3388 F120.00
G01 X130.1371 Y-94.4128 F120.00
G01 X130.1350 Y-94.4167 F120.00
G01 X130.0929 Y-94.4870 F120.00
G01 X130.0904 Y-94.4907 F120.00
G01 X130.0416 Y-94.5565 F120.00
G01 X130.0388 Y-94.5599 F120.00
G01 X129.9838 Y-94.6206 F120.00
G01 X129.9806 Y-94.6238 F120.00
G01 X129.9199 Y-94.6788 F120.00
G01 X129.9165 Y-94.6816 F120.00
G01 X129.8507 Y-94.7304 F120.00
G01 X129.8470 Y-94.7329 F120.00
G01 X129.7767 Y-94.7750 F120.00
G01 X129.7728 Y-94.7771 F120.00
G01 X129.6988 Y-94.8121 F120.00
G01 X129.6947 Y-94.8138 F120.00
G01 X129.6175 Y-94.8414 F120.00
G01 X129.6133 Y-94.8427 F120.00
G01 X129.5338 Y-94.8626 F120.00
G01 X129.5295 Y-94.8635 F120.00
G01 X129.4484 Y-94.8755 F120.00
G01 X129.4441 Y-94.8759 F120.00
G01 X129.3622 Y-94.8799 F120.00
G01 X129.3578 Y-94.8799 F120.00
G01 X129.2759 Y-94.8759 F120.00
G01 X129.2716 Y-94.8755 F120.00
G01 X129.1905 Y-94.8635 F120.00
G01 X129.1862 Y-94.8626 F120.00
G01 X129.1067 Y-94.8427 F120.00
G01 X129.1025 Y-94.8414 F120.00
G01 X129.0253 Y-94.8138 F120.00
G01 X129.0212 Y-94.8121 F120.00
G01 X128.9472 Y-94.7771 F120.00
G01 X128.9433 Y-94.7750 F120.00
G01 X128.8730 Y-94.7329 F120.00
G01 X128.8693 Y-94.7304 F120.00
G01 X128.8035 Y-94.6816 F120.00
G01 X128.8001 Y-94.6788 F120.00
G01 X128.7394 Y-94.6238 F120.00
G01 X128.7362 Y-94.6206 F120.00
G01 X128.6812 Y-94.5599 F120.00
G01 X128.6784 Y-94.5565 F120.00
G01 X128.6296 Y-94.4907 F120.00
G01 X128.6271 Y-94.4870 F120.00
G01 X128.5829 Y-94.4128 F120.00
G01 X128.5462 Y-94.3347 F120.00
G01 X128.5186 Y-94.2575 F120.00
G01 X128.4965 Y-94.1695 F120.00
G01 X128.4841 Y-94.0841 F120.00
G01 X128.4801 Y-93.9978 F120.00
G01 X128.4841 Y-93.9159 F120.00
G01 X128.4974 Y-93.8262 F120.00
G01 X128.5186 Y-93.7425 F120.00
G01 X128.5462 Y-93.6653 F120.00
G01 X128.5850 Y-93.5833 F120.00
G01 X128.6296 Y-93.5093 F120.00
G01 X128.6784 Y-93.4435 F120.00
G01 X128.6812 Y-93.4401 F120.00
G01 X128.7362 Y-93.3794 F120.00
G01 X128.7394 Y-93.3762 F120.00
G01 X128.8001 Y-93.3212 F120.00
G01 X128.8035 Y-93.3184 F120.00
G01 X128.8693 Y-93.2696 F120.00
G01 X128.8730 Y-93.2671 F120.00
G01 X128.9433 Y-93.2250 F120.00
G01 X128.9472 Y-93.2229 F120.00
G01 X129.0212 Y-93.1879 F120.00
G01 X129.0253 Y-93.1862 F120.00
G01 X129.1025 Y-93.1586 F120.00
G01 X129.1233 Y-93.1532 F120.00
G01 X129.1233 Y-94.8468 F120.00
G01 X129.1635 Y-94.8569 F120.00
G01 X129.1635 Y-93.1431 F120.00
G01 X129.2037 Y-93.1346 F120.00
G01 X129.2037 Y-94.8654 F120.00
G01 X129.2439 Y-94.8714 F120.00
G01 X129.2439 Y-93.1286 F120.00
G01 X129.2841 Y-93.1237 F120.00
G01 X129.2841 Y-94.8763 F120.00
G01 X129.3243 Y-94.8783 F120.00
G01 X129.3243 Y-93.1217 F120.00
G01 X129.3645 Y-93.1202 F120.00
G01 X129.3645 Y-94.8798 F120.00
G01 X129.4047 Y-94.8778 F120.00
G01 X129.4047 Y-93.1222 F120.00
G01 X129.4449 Y-93.1242 F120.00
G01 X129.4449 Y-94.8758 F120.00
G01 X129.4851 Y-94.8700 F120.00
G01 X129.4851 Y-93.1300 F120.00
G01 X129.5253 Y-93.1359 F120.00
G01 X129.5253 Y-94.8641 F120.00
G01 X129.5655 Y-94.8547 F120.00
G01 X129.5655 Y-93.1453 F120.00
G01 X129.6057 Y-93.1554 F120.00
G01 X129.6057 Y-94.8446 F120.00
G01 X129.6459 Y-94.8313 F120.00
G01 X129.6459 Y-93.1687 F120.00
G01 X129.6861 Y-93.1831 F120.00
G01 X129.6861 Y-94.8169 F120.00
G01 X129.7263 Y-94.7991 F120.00
G01 X129.7263 Y-93.2009 F120.00
G01 X129.7665 Y-93.2199 F120.00
G01 X129.7665 Y-94.7801 F120.00
G01 X129.8067 Y-94.7570 F120.00
G01 X129.8067 Y-93.2430 F120.00
G01 X129.8469 Y-93.2670 F120.00
G01 X129.8469 Y-94.7330 F120.00
G01 X129.8871 Y-94.7034 F120.00
G01 X129.8871 Y-93.2966 F120.00
G01 X129.9273 Y-93.3279 F120.00
G01 X129.9273 Y-94.6721 F120.00
G01 X129.9675 Y-94.6357 F120.00
G01 X129.9675 Y-93.3643 F120.00
G01 X130.0077 Y-93.4057 F120.00
G01 X130.0077 Y-94.5943 F120.00
G01 X130.0479 Y-94.5480 F120.00
G01 X130.0479 Y-93.4520 F120.00
G01 X130.0881 Y-93.5062 F120.00
G01 X130.0881 Y-94.4938 F120.00
G01 X130.1283 Y-94.4279 F120.00
G01 X130.1283 Y-93.5721 F120.00
G01 X130.1685 Y-93.6536 F120.00
G01 X130.1685 Y-94.3464 F120.00
G01 X130.2087 Y-94.2294 F120.00
G01 X130.2087 Y-93.7706 F120.00
M5
G00 X131.1407 Y-93.5571
G01 F60.00
M03 S5000.0
G01 F120.00
G01 X131.1407 Y-94.4429 F120.00
G01 X131.1005 Y-94.3654 F120.00
G01 X131.1005 Y-93.6346 F120.00
G01 X131.0603 Y-93.7378 F120.00
G01 X131.0603 Y-94.2622 F120.00
M5
G00 X131.1809 Y-93.4941
G01 F60.00
M03 S5000.0
G01 F120.00
G01 X131.1809 Y-94.5059 F120.00
G01 X131.2211 Y-94.5598 F120.00
G01 X131.2211 Y-93.4402 F120.00
G01 X131.2613 Y-93.3959 F120.00
G01 X131.2613 Y-94.6041 F120.00
G01 X131.3015 Y-94.6438 F120.00
G01 X131.3015 Y-93.3562 F120.00
G01 X131.3417 Y-93.3199 F120.00
G01 X131.3417 Y-94.6801 F120.00
G01 X131.3819 Y-94.7101 F120.00
G01 X131.3819 Y-93.2899 F120.00
G01 X131.4221 Y-93.2617 F120.00
G01 X131.4221 Y-94.7383 F120.00
G01 X131.4623 Y-94.7624 F120.00
G01 X131.4623 Y-93.2376 F120.00
G01 X131.5025 Y-93.2157 F120.00
G01 X131.5025 Y-94.7843 F120.00
G01 X131.5427 Y-94.8033 F120.00
G01 X131.5427 Y-93.1967 F120.00
G01 X131.5829 Y-93.1799 F120.00
G01 X131.5829 Y-94.8201 F120.00
G01 X131.6231 Y-94.8345 F120.00
G01 X131.6231 Y-93.1655 F120.00
G01 X131.6425 Y-93.1586 F120.00
G01 X131.6467 Y-93.1573 F120.00
G01 X131.7262 Y-93.1374 F120.00
G01 X131.7305 Y-93.1365 F120.00
G01 X131.8116 Y-93.1245 F120.00
G01 X131.8159 Y-93.1241 F120.00
G01 X131.8978 Y-93.1201 F120.00
G01 X131.9022 Y-93.1201 F120.00
G01 X131.9841 Y-93.1241 F120.00
G01 X131.9884 Y-93.1245 F120.00
G01 X132.0695 Y-93.1365 F120.00
G01 X132.0738 Y-93.1374 F120.00
G01 X132.1533 Y-93.1573 F120.00
G01 X132.1575 Y-93.1586 F120.00
G01 X132.2347 Y-93.1862 F120.00
G01 X132.2388 Y-93.1879 F120.00
G01 X132.3128 Y-93.2229 F120.00
G01 X132.3167 Y-93.2250 F120.00
G01 X132.3870 Y-93.2671 F120.00
G01 X132.3907 Y-93.2696 F120.00
G01 X132.4565 Y-93.3184 F120.00
G01 X132.4599 Y-93.3212 F120.00
G01 X132.5206 Y-93.3762 F120.00
G01 X132.5238 Y-93.3794 F120.00
G01 X132.5788 Y-93.4401 F120.00
G01 X132.5816 Y-93.4435 F120.00
G01 X132.6304 Y-93.5093 F120.00
G01 X132.6329 Y-93.5130 F120.00
G01 X132.6750 Y-93.5833 F120.00
G01 X132.6771 Y-93.5872 F120.00
G01 X132.7121 Y-93.6612 F120.00
G01 X132.7138 Y-93.6653 F120.00
G01 X132.7427 Y-93.7467 F120.00
G01 X132.7626 Y-93.8262 F120.00
G01 X132.7759 Y-93.9159 F120.00
G01 X132.7799 Y-94.0022 F120.00
G01 X132.7755 Y-94.0884 F120.00
G01 X132.7635 Y-94.1695 F120.00
G01 X132.7626 Y-94.1738 F120.00
G01 X132.7427 Y-94.2533 F120.00
G01 X132.7414 Y-94.2575 F120.00
G01 X132.7121 Y-94.3388 F120.00
G01 X132.6771 Y-94.4128 F120.00
G01 X132.6750 Y-94.4167 F120.00
G01 X132.6329 Y-94.4870 F120.00
G01 X132.6304 Y-94.4907 F120.00
G01 X132.5816 Y-94.5565 F120.00
G01 X132.5788 Y-94.5599 F120.00
G01 X132.5238 Y-94.6206 F120.00
G01 X132.5206 Y-94.6238 F120.00
G01 X132.4599 Y-94.6788 F120.00
G01 X132.4565 Y-94.6816 F120.00
G01 X132.3907 Y-94.7304 F120.00
G01 X132.3870 Y-94.7329 F120.00
G01 X132.3167 Y-94.7750 F120.00
G01 X132.3128 Y-94.7771 F120.00
G01 X132.2388 Y-94.8121 F120.00
G01 X132.2347 Y-94.8138 F120.00
G01 X132.1575 Y-94.8414 F120.00
G01 X132.1533 Y-94.8427 F120.00
G01 X132.0738 Y-94.8626 F120.00
G01 X132.0695 Y-94.8635 F120.00
G01 X131.9884 Y-94.8755 F120.00
G01 X131.9841 Y-94.8759 F120.00
G01 X131.9022 Y-94.8799 F120.00
G01 X131.8978 Y-94.8799 F120.00
G01 X131.8159 Y-94.8759 F120.00
G01 X131.8116 Y-94.8755 F120.00
G01 X131.7305 Y-94.8635 F120.00
G01 X131.7262 Y-94.8626 F120.00
G01 X131.6467 Y-94.8427 F120.00
G01 X131.6425 Y-94.8414 F120.00
G01 X131.5653 Y-94.8138 F120.00
G01 X131.5612 Y-94.8121 F120.00
G01 X131.4872 Y-94.7771 F120.00
G01 X131.4833 Y-94.7750 F120.00
G01 X131.4130 Y-94.7329 F120.00
G01 X131.4093 Y-94.7304 F120.00
G01 X131.3435 Y-94.6816 F120.00
G01 X131.3401 Y-94.6788 F120.00
G01 X131.2794 Y-94.6238 F120.00
G01 X131.2762 Y-94.6206 F120.00
G01 X131.2212 Y-94.5599 F120.00
G01 X131.2184 Y-94.5565 F120.00
G01 X131.1696 Y-94.4907 F120.00
G01 X131.1671 Y-94.4870 F120.00
G01 X131.1229 Y-94.4128 F120.00
G01 X131.0862 Y-94.3347 F120.00
G01 X131.0586 Y-94.2575 F120.00
G01 X131.0365 Y-94.1695 F120.00
G01 X131.0241 Y-94.0841 F120.00
G01 X131.0201 Y-93.9978 F120.00
G01 X131.0241 Y-93.9159 F120.00
G01 X131.0374 Y-93.8262 F120.00
G01 X131.0586 Y-93.7425 F120.00
G01 X131.0862 Y-93.6653 F120.00
G01 X131.1250 Y-93.5833 F120.00
G01 X131.1696 Y-93.5093 F120.00
G01 X131.2184 Y-93.4435 F120.00
G01 X131.2212 Y-93.4401 F120.00
G01 X131.2762 Y-93.3794 F120.00
G01 X131.2794 Y-93.3762 F120.00
G01 X131.3401 Y-93.3212 F120.00
G01 X131.3435 Y-93.3184 F120.00
G01 X131.4093 Y-93.2696 F120.00
G01 X131.4130 Y-93.2671 F120.00
G01 X131.4833 Y-93.2250 F120.00
G01 X131.4872 Y-93.2229 F120.00
G01 X131.5612 Y-93.1879 F120.00
G01 X131.5653 Y-93.1862 F120.00
G01 X131.6425 Y-93.1586 F120.00
G01 X131.6633 Y-93.1532 F120.00
G01 X131.6633 Y-94.8468 F120.00
G01 X131.7035 Y-94.8569 F120.00
G01 X131.7035 Y-93.1431 F120.00
G01 X131.7437 Y-93.1346 F120.00
G01 X131.7437 Y-94.8654 F120.00
G01 X131.7839 Y-94.8714 F120.00
G01 X131.7839 Y-93.1286 F120.00
G01 X131.8241 Y-93.1237 F120.00
G01 X131.8241 Y-94.8763 F120.00
G01 X131.8643 Y-94.8783 F120.00
G01 X131.8643 Y-93.1217 F120.00
G01 X131.9045 Y-93.1202 F120.00
G01 X131.9045 Y-94.8798 F120.00
G01 X131.9447 Y-94.8778 F120.00
G01 X131.9447 Y-93.1222 F120.00
G01 X131.9849 Y-93.1242 F120.00
G01 X131.9849 Y-94.8758 F120.00
G01 X132.0251 Y-94.8700 F120.00
G01 X132.0251 Y-93.1300 F120.00
G01 X132.0653 Y-93.1359 F120.00
G01 X132.0653 Y-94.8641 F120.00
G01 X132.1055 Y-94.8547 F120.00
G01 X132.1055 Y-93.1453 F120.00
G01 X132.1457 Y-93.1554 F120.00
G01 X132.1457 Y-94.8446 F120.00
G01 X132.1859 Y-94.8313 F120.00
G01 X132.1859 Y-93.1687 F120.00
G01 X132.2261 Y-93.1831 F120.00
G01 X132.2261 Y-94.8169 F120.00
G01 X132.2663 Y-94.7991 F120.00
G01 X132.2663 Y-93.2009 F120.00
G01 X132.3065 Y-93.2199 F120.00
G01 X132.3065 Y-94.7801 F120.00
G01 X132.3467 Y-94.7570 F120.00
G01 X132.3467 Y-93.2430 F120.00
G01 X132.3869 Y-93.2670 F120.00
G01 X132.3869 Y-94.7330 F120.00
G01 X132.4271 Y-94.7034 F120.00
G01 X132.4271 Y-93.2966 F120.00
G01 X132.4673 Y-93.3279 F120.00
G01 X132.4673 Y-94.6721 F120.00
G01 X132.5075 Y-94.6357 F120.00
G01 X132.5075 Y-93.3643 F120.00
G01 X132.5477 Y-93.4057 F120.00
G01 X132.5477 Y-94.5943 F120.00
G01 X132.5879 Y-94.5480 F120.00
G01 X132.5879 Y-93.4520 F120.00
G01 X132.6281 Y-93.5062 F120.00
G01 X132.6281 Y-94.4938 F120.00
G01 X132.6683 Y-94.4279 F120.00
G01 X132.6683 Y-93.5721 F120.00
G01 X132.7085 Y-93.6536 F120.00
G01 X132.7085 Y-94.3464 F120.00
G01 X132.7487 Y-94.2294 F120.00
G01 X132.7487 Y-93.7706 F120.00
M5
G00 X132.7487 Y-96.3106
G01 F60.00
M03 S5000.0
G01 F120.00
G01 X132.7487 Y-96.7694 F120.00
G01 X132.7085 Y-96.8864 F120.00
G01 X132.7085 Y-96.1936 F120.00
G01 X132.6683 Y-96.1121 F120.00
G01 X132.6683 Y-96.9679 F120.00
G01 X132.6281 Y-97.0338 F120.00
G01 X132.6281 Y-96.0462 F120.00
G01 X132.5879 Y-95.9920 F120.00
G01 X132.5879 Y-97.0880 F120.00
G01 X132.5477 Y-97.1343 F120.00
G01 X132.5477 Y-95.9457 F120.00
G01 X132.5075 Y-95.9043 F120.00
G01 X132.5075 Y-97.1757 F120.00
G01 X132.4673 Y-97.2121 F120.00
G01 X132.4673 Y-95.8679 F120.00
G01 X132.4271 Y-95.8366 F120.00
G01 X132.4271 Y-97.2434 F120.00
G01 X132.3869 Y-97.2730 F120.00
G01 X132.3869 Y-95.8070 F120.00
G01 X132.3467 Y-95.7830 F120.00
G01 X132.3467 Y-97.2970 F120.00
G01 X132.3065 Y-97.3201 F120.00
G01 X132.3065 Y-95.7599 F120.00
G01 X132.2663 Y-95.7409 F120.00
G01 X132.2663 Y-97.3391 F120.00
G01 X132.2261 Y-97.3569 F120.00
G01 X132.2261 Y-95.7231 F120.00
G01 X132.1859 Y-95.7087 F120.00
G01 X132.1859 Y-97.3713 F120.00
G01 X132.1457 Y-97.3846 F120.00
G01 X132.1457 Y-95.6954 F120.00
G01 X132.1055 Y-95.6853 F120.00
G01 X132.1055 Y-97.3947 F120.00
G01 X132.0653 Y-97.4041 F120.00
G01 X132.0653 Y-95.6759 F120.00
G01 X132.0251 Y-95.6700 F120.00
G01 X132.0251 Y-97.4100 F120.00
G01 X131.9849 Y-97.4158 F120.00
G01 X131.9849 Y-95.6642 F120.00
G01 X131.9447 Y-95.6622 F120.00
G01 X131.9447 Y-97.4178 F120.00
G01 X131.9045 Y-97.4198 F120.00
G01 X131.9045 Y-95.6602 F120.00
G01 X131.8643 Y-95.6617 F120.00
G01 X131.8643 Y-97.4183 F120.00
G01 X131.8241 Y-97.4163 F120.00
G01 X131.8241 Y-95.6637 F120.00
G01 X131.7839 Y-95.6686 F120.00
G01 X131.7839 Y-97.4114 F120.00
G01 X131.7437 Y-97.4054 F120.00
G01 X131.7437 Y-95.6746 F120.00
G01 X131.7035 Y-95.6831 F120.00
G01 X131.7035 Y-97.3969 F120.00
G01 X131.6633 Y-97.3868 F120.00
G01 X131.6633 Y-95.6932 F120.00
G01 X131.6425 Y-95.6986 F120.00
G01 X131.5653 Y-95.7262 F120.00
G01 X131.5612 Y-95.7279 F120.00
G01 X131.4872 Y-95.7629 F120.00
G01 X131.4833 Y-95.7650 F120.00
G01 X131.4130 Y-95.8071 F120.00
G01 X131.4093 Y-95.8096 F120.00
G01 X131.3435 Y-95.8584 F120.00
G01 X131.3401 Y-95.8612 F120.00
G01 X131.2794 Y-95.9162 F120.00
G01 X131.2762 Y-95.9194 F120.00
G01 X131.2212 Y-95.9801 F120.00
G01 X131.2184 Y-95.9835 F120.00
G01 X131.1696 Y-96.0493 F120.00
G01 X131.1250 Y-96.1233 F120.00
G01 X131.0862 Y-96.2053 F120.00
G01 X131.0586 Y-96.2825 F120.00
G01 X131.0374 Y-96.3662 F120.00
G01 X131.0241 Y-96.4559 F120.00
G01 X131.0201 Y-96.5378 F120.00
G01 X131.0241 Y-96.6241 F120.00
G01 X131.0365 Y-96.7095 F120.00
G01 X131.0586 Y-96.7975 F120.00
G01 X131.0862 Y-96.8747 F120.00
G01 X131.1229 Y-96.9528 F120.00
G01 X131.1671 Y-97.0270 F120.00
G01 X131.1696 Y-97.0307 F120.00
G01 X131.2184 Y-97.0965 F120.00
G01 X131.2212 Y-97.0999 F120.00
G01 X131.2762 Y-97.1606 F120.00
G01 X131.2794 Y-97.1638 F120.00
G01 X131.3401 Y-97.2188 F120.00
G01 X131.3435 Y-97.2216 F120.00
G01 X131.4093 Y-97.2704 F120.00
G01 X131.4130 Y-97.2729 F120.00
G01 X131.4833 Y-97.3150 F120.00
G01 X131.4872 Y-97.3171 F120.00
G01 X131.5612 Y-97.3521 F120.00
G01 X131.5653 Y-97.3538 F120.00
G01 X131.6425 Y-97.3814 F120.00
G01 X131.6467 Y-97.3827 F120.00
G01 X131.7262 Y-97.4026 F120.00
G01 X131.7305 Y-97.4035 F120.00
G01 X131.8116 Y-97.4155 F120.00
G01 X131.8159 Y-97.4159 F120.00
G01 X131.8978 Y-97.4199 F120.00
G01 X131.9022 Y-97.4199 F120.00
G01 X131.9841 Y-97.4159 F120.00
G01 X131.9884 Y-97.4155 F120.00
G01 X132.0695 Y-97.4035 F120.00
G01 X132.0738 Y-97.4026 F120.00
G01 X132.1533 Y-97.3827 F120.00
G01 X132.1575 Y-97.3814 F120.00
G01 X132.2347 Y-97.3538 F120.00
G01 X132.2388 Y-97.3521 F120.00
G01 X132.3128 Y-97.3171 F120.00
G01 X132.3167 Y-97.3150 F120.00
G01 X132.3870 Y-97.2729 F120.00
G01 X132.3907 Y-97.2704 F120.00
G01 X132.4565 Y-97.2216 F120.00
G01 X132.4599 Y-97.2188 F120.00
G01 X132.5206 Y-97.1638 F120.00
G01 X132.5238 Y-97.1606 F120.00
G01 X132.5788 Y-97.0999 F120.00
G01 X132.5816 Y-97.0965 F120.00
G01 X132.6304 Y-97.0307 F120.00
G01 X132.6329 Y-97.0270 F120.00
G01 X132.6750 Y-96.9567 F120.00
G01 X132.6771 Y-96.9528 F120.00
G01 X132.7121 Y-96.8788 F120.00
G01 X132.7414 Y-96.7975 F120.00
G01 X132.7427 Y-96.7933 F120.00
G01 X132.7626 Y-96.7138 F120.00
G01 X132.7635 Y-96.7095 F120.00
G01 X132.7755 Y-96.6284 F120.00
G01 X132.7799 Y-96.5422 F120.00
G01 X132.7759 Y-96.4559 F120.00
G01 X132.7626 Y-96.3662 F120.00
G01 X132.7427 Y-96.2867 F120.00
G01 X132.7138 Y-96.2053 F120.00
G01 X132.7121 Y-96.2012 F120.00
G01 X132.6771 Y-96.1272 F120.00
G01 X132.6750 Y-96.1233 F120.00
G01 X132.6329 Y-96.0530 F120.00
G01 X132.6304 Y-96.0493 F120.00
G01 X132.5816 Y-95.9835 F120.00
G01 X132.5788 Y-95.9801 F120.00
G01 X132.5238 Y-95.9194 F120.00
G01 X132.5206 Y-95.9162 F120.00
G01 X132.4599 Y-95.8612 F120.00
G01 X132.4565 Y-95.8584 F120.00
G01 X132.3907 Y-95.8096 F120.00
G01 X132.3870 Y-95.8071 F120.00
G01 X132.3167 Y-95.7650 F120.00
G01 X132.3128 Y-95.7629 F120.00
G01 X132.2388 Y-95.7279 F120.00
G01 X132.2347 Y-95.7262 F120.00
G01 X132.1575 Y-95.6986 F120.00
G01 X132.1533 Y-95.6973 F120.00
G01 X132.0738 Y-95.6774 F120.00
G01 X132.0695 Y-95.6765 F120.00
G01 X131.9884 Y-95.6645 F120.00
G01 X131.9841 Y-95.6641 F120.00
G01 X131.9022 Y-95.6601 F120.00
G01 X131.8978 Y-95.6601 F120.00
G01 X131.8159 Y-95.6641 F120.00
G01 X131.8116 Y-95.6645 F120.00
G01 X131.7305 Y-95.6765 F120.00
G01 X131.7262 Y-95.6774 F120.00
G01 X131.6467 Y-95.6973 F120.00
G01 X131.6425 Y-95.6986 F120.00
G01 X131.6231 Y-95.7055 F120.00
G01 X131.6231 Y-97.3745 F120.00
G01 X131.5829 Y-97.3601 F120.00
G01 X131.5829 Y-95.7199 F120.00
G01 X131.5427 Y-95.7367 F120.00
G01 X131.5427 Y-97.3433 F120.00
G01 X131.5025 Y-97.3243 F120.00
G01 X131.5025 Y-95.7557 F120.00
G01 X131.4623 Y-95.7776 F120.00
G01 X131.4623 Y-97.3024 F120.00
G01 X131.4221 Y-97.2783 F120.00
G01 X131.4221 Y-95.8017 F120.00
G01 X131.3819 Y-95.8299 F120.00
G01 X131.3819 Y-97.2501 F120.00
G01 X131.3417 Y-97.2201 F120.00
G01 X131.3417 Y-95.8599 F120.00
G01 X131.3015 Y-95.8962 F120.00
G01 X131.3015 Y-97.1838 F120.00
G01 X131.2613 Y-97.1441 F120.00
G01 X131.2613 Y-95.9359 F120.00
G01 X131.2211 Y-95.9802 F120.00
G01 X131.2211 Y-97.0998 F120.00
G01 X131.1809 Y-97.0459 F120.00
G01 X131.1809 Y-96.0341 F120.00
M5
G00 X131.1407 Y-96.0971
G01 F60.00
M03 S5000.0
G01 F120.00
G01 X131.1407 Y-96.9829 F120.00
G01 X131.1005 Y-96.9054 F120.00
G01 X131.1005 Y-96.1746 F120.00
G01 X131.0603 Y-96.2778 F120.00
G01 X131.0603 Y-96.8022 F120.00
M5
G00 X130.2087 Y-96.3106
G01 F60.00
M03 S5000.0
G01 F120.00
G01 X130.2087 Y-96.7694 F120.00
G01 X130.1685 Y-96.8864 F120.00
G01 X130.1685 Y-96.1936 F120.00
G01 X130.1283 Y-96.1121 F120.00
G01 X130.1283 Y-96.9679 F120.00
G01 X130.0881 Y-97.0338 F120.00
G01 X130.0881 Y-96.0462 F120.00
G01 X130.0479 Y-95.9920 F120.00
G01 X130.0479 Y-97.0880 F120.00
G01 X130.0077 Y-97.1343 F120.00
G01 X130.0077 Y-95.9457 F120.00
G01 X129.9675 Y-95.9043 F120.00
G01 X129.9675 Y-97.1757 F120.00
G01 X129.9273 Y-97.2121 F120.00
G01 X129.9273 Y-95.8679 F120.00
G01 X129.8871 Y-95.8366 F120.00
G01 X129.8871 Y-97.2434 F120.00
G01 X129.8469 Y-97.2730 F120.00
G01 X129.8469 Y-95.8070 F120.00
G01 X129.8067 Y-95.7830 F120.00
G01 X129.8067 Y-97.2970 F120.00
G01 X129.7665 Y-97.3201 F120.00
G01 X129.7665 Y-95.7599 F120.00
G01 X129.7263 Y-95.7409 F120.00
G01 X129.7263 Y-97.3391 F120.00
G01 X129.6861 Y-97.3569 F120.00
G01 X129.6861 Y-95.7231 F120.00
G01 X129.6459 Y-95.7087 F120.00
G01 X129.6459 Y-97.3713 F120.00
G01 X129.6057 Y-97.3846 F120.00
G01 X129.6057 Y-95.6954 F120.00
G01 X129.5655 Y-95.6853 F120.00
G01 X129.5655 Y-97.3947 F120.00
G01 X129.5253 Y-97.4041 F120.00
G01 X129.5253 Y-95.6759 F120.00
G01 X129.4851 Y-95.6700 F120.00
G01 X129.4851 Y-97.4100 F120.00
G01 X129.4449 Y-97.4158 F120.00
G01 X129.4449 Y-95.6642 F120.00
G01 X129.4047 Y-95.6622 F120.00
G01 X129.4047 Y-97.4178 F120.00
G01 X129.3645 Y-97.4198 F120.00
G01 X129.3645 Y-95.6602 F120.00
G01 X129.3243 Y-95.6617 F120.00
G01 X129.3243 Y-97.4183 F120.00
G01 X129.2841 Y-97.4163 F120.00
G01 X129.2841 Y-95.6637 F120.00
G01 X129.2439 Y-95.6686 F120.00
G01 X129.2439 Y-97.4114 F120.00
G01 X129.2037 Y-97.4054 F120.00
G01 X129.2037 Y-95.6746 F120.00
G01 X129.1635 Y-95.6831 F120.00
G01 X129.1635 Y-97.3969 F120.00
G01 X129.1233 Y-97.3868 F120.00
G01 X129.1233 Y-95.6932 F120.00
G01 X129.1025 Y-95.6986 F120.00
G01 X129.0253 Y-95.7262 F120.00
G01 X129.0212 Y-95.7279 F120.00
G01 X128.9472 Y-95.7629 F120.00
G01 X128.9433 Y-95.7650 F120.00
G01 X128.8730 Y-95.8071 F120.00
G01 X128.8693 Y-95.8096 F120.00
G01 X128.8035 Y-95.8584 F120.00
G01 X128.8001 Y-95.8612 F120.00
G01 X128.7394 Y-95.9162 F120.00
G01 X128.7362 Y-95.9194 F120.00
G01 X128.6812 Y-95.9801 F120.00
G01 X128.6784 Y-95.9835 F120.00
G01 X128.6296 Y-96.0493 F120.00
G01 X128.5850 Y-96.1233 F120.00
G01 X128.5462 Y-96.2053 F120.00
G01 X128.5186 Y-96.2825 F120.00
G01 X128.4974 Y-96.3662 F120.00
G01 X128.4841 Y-96.4559 F120.00
G01 X128.4801 Y-96.5378 F120.00
G01 X128.4841 Y-96.6241 F120.00
G01 X128.4965 Y-96.7095 F120.00
G01 X128.5186 Y-96.7975 F120.00
G01 X128.5462 Y-96.8747 F120.00
G01 X128.5829 Y-96.9528 F120.00
G01 X128.6271 Y-97.0270 F120.00
G01 X128.6296 Y-97.0307 F120.00
G01 X128.6784 Y-97.0965 F120.00
G01 X128.6812 Y-97.0999 F120.00
G01 X128.7362 Y-97.1606 F120.00
G01 X128.7394 Y-97.1638 F120.00
G01 X128.8001 Y-97.2188 F120.00
G01 X128.8035 Y-97.2216 F120.00
G01 X128.8693 Y-97.2704 F120.00
G01 X128.8730 Y-97.2729 F120.00
G01 X128.9433 Y-97.3150 F120.00
G01 X128.9472 Y-97.3171 F120.00
G01 X129.0212 Y-97.3521 F120.00
G01 X129.0253 Y-97.3538 F120.00
G01 X129.1025 Y-97.3814 F120.00
G01 X129.1067 Y-97.3827 F120.00
G01 X129.1862 Y-97.4026 F120.00
G01 X129.1905 Y-97.4035 F120.00
G01 X129.2716 Y-97.4155 F120.00
G01 X129.2759 Y-97.4159 F120.00
G01 X129.3578 Y-97.4199 F120.00
G01 X129.3622 Y-97.4199 F120.00
G01 X129.4441 Y-97.4159 F120.00
G01 X129.4484 Y-97.4155 F120.00
G01 X129.5295 Y-97.4035 F120.00
G01 X129.5338 Y-97.4026 F120.00
G01 X129.6133 Y-97.3827 F120.00
G01 X129.6175 Y-97.3814 F120.00
G01 X129.6947 Y-97.3538 F120.00
G01 X129.6988 Y-97.3521 F120.00
G01 X129.7728 Y-97.3171 F120.00
G01 X129.7767 Y-97.3150 F120.00
G01 X129.8470 Y-97.2729 F120.00
G01 X129.8507 Y-97.2704 F120.00
G01 X129.9165 Y-97.2216 F120.00
G01 X129.9199 Y-97.2188 F120.00
G01 X129.9806 Y-97.1638 F120.00
G01 X129.9838 Y-97.1606 F120.00
G01 X130.0388 Y-97.0999 F120.00
G01 X130.0416 Y-97.0965 F120.00
G01 X130.0904 Y-97.0307 F120.00
G01 X130.0929 Y-97.0270 F120.00
G01 X130.1350 Y-96.9567 F120.00
G01 X130.1371 Y-96.9528 F120.00
G01 X130.1721 Y-96.8788 F120.00
G01 X130.2014 Y-96.7975 F120.00
G01 X130.2027 Y-96.7933 F120.00
G01 X130.2226 Y-96.7138 F120.00
G01 X130.2235 Y-96.7095 F120.00
G01 X130.2355 Y-96.6284 F120.00
G01 X130.2399 Y-96.5422 F120.00
G01 X130.2359 Y-96.4559 F120.00
G01 X130.2226 Y-96.3662 F120.00
G01 X130.2027 Y-96.2867 F120.00
G01 X130.1738 Y-96.2053 F120.00
G01 X130.1721 Y-96.2012 F120.00
G01 X130.1371 Y-96.1272 F120.00
G01 X130.1350 Y-96.1233 F120.00
G01 X130.0929 Y-96.0530 F120.00
G01 X130.0904 Y-96.0493 F120.00
G01 X130.0416 Y-95.9835 F120.00
G01 X130.0388 Y-95.9801 F120.00
G01 X129.9838 Y-95.9194 F120.00
G01 X129.9806 Y-95.9162 F120.00
G01 X129.9199 Y-95.8612 F120.00
G01 X129.9165 Y-95.8584 F120.00
G01 X129.8507 Y-95.8096 F120.00
G01 X129.8470 Y-95.8071 F120.00
G01 X129.7767 Y-95.7650 F120.00
G01 X129.7728 Y-95.7629 F120.00
G01 X129.6988 Y-95.7279 F120.00
G01 X129.6947 Y-95.7262 F120.00
G01 X129.6175 Y-95.6986 F120.00
G01 X129.6133 Y-95.6973 F120.00
G01 X129.5338 Y-95.6774 F120.00
G01 X129.5295 Y-95.6765 F120.00
G01 X129.4484 Y-95.6645 F120.00
G01 X129.4441 Y-95.6641 F120.00
G01 X129.3622 Y-95.6601 F120.00
G01 X129.3578 Y-95.6601 F120.00
G01 X129.2759 Y-95.6641 F120.00
G01 X129.2716 Y-95.6645 F120.00
G01 X129.1905 Y-95.6765 F120.00
G01 X129.1862 Y-95.6774 F120.00
G01 X129.1067 Y-95.6973 F120.00
G01 X129.1025 Y-95.6986 F120.00
G01 X129.0831 Y-95.7055 F120.00
G01 X129.0831 Y-97.3745 F120.00
G01 X129.0429 Y-97.3601 F120.00
G01 X129.0429 Y-95.7199 F120.00
G01 X129.0027 Y-95.7367 F120.00
G01 X129.0027 Y-97.3433 F120.00
G01 X128.9625 Y-97.3243 F120.00
G01 X128.9625 Y-95.7557 F120.00
G01 X128.9223 Y-95.7776 F120.00
G01 X128.9223 Y-97.3024 F120.00
G01 X128.8821 Y-97.2783 F120.00
G01 X128.8821 Y-95.8017 F120.00
G01 X128.8419 Y-95.8299 F120.00
G01 X128.8419 Y-97.2501 F120.00
G01 X128.8017 Y-97.2201 F120.00
G01 X128.8017 Y-95.8599 F120.00
G01 X128.7615 Y-95.8962 F120.00
G01 X128.7615 Y-97.1838 F120.00
G01 X128.7213 Y-97.1441 F120.00
G01 X128.7213 Y-95.9359 F120.00
G01 X128.6811 Y-95.9802 F120.00
G01 X128.6811 Y-97.0998 F120.00
G01 X128.6409 Y-97.0459 F120.00
G01 X128.6409 Y-96.0341 F120.00
M5
G00 X128.6007 Y-96.0971
G01 F60.00
M03 S5000.0
G01 F120.00
G01 X128.6007 Y-96.9829 F120.00
G01 X128.5605 Y-96.9054 F120.00
G01 X128.5605 Y-96.1746 F120.00
G01 X128.5203 Y-96.2778 F120.00
G01 X128.5203 Y-96.8022 F120.00
M5
G00 X128.6811 Y-98.5202
G01 F60.00
M03 S5000.0
G01 F120.00
G01 X128.6811 Y-99.6398 F120.00
G01 X128.7213 Y-99.6841 F120.00
G01 X128.7213 Y-98.4759 F120.00
G01 X128.7615 Y-98.4362 F120.00
G01 X128.7615 Y-99.7238 F120.00
G01 X128.8017 Y-99.7601 F120.00
G01 X128.8017 Y-98.3999 F120.00
G01 X128.8419 Y-98.3699 F120.00
G01 X128.8419 Y-99.7901 F120.00
G01 X128.8821 Y-99.8183 F120.00
G01 X128.8821 Y-98.3417 F120.00
G01 X128.9223 Y-98.3176 F120.00
G01 X128.9223 Y-99.8424 F120.00
G01 X128.9625 Y-99.8643 F120.00
G01 X128.9625 Y-98.2957 F120.00
G01 X129.0027 Y-98.2767 F120.00
G01 X129.0027 Y-99.8833 F120.00
G01 X129.0429 Y-99.9001 F120.00
G01 X129.0429 Y-98.2599 F120.00
G01 X129.0831 Y-98.2455 F120.00
G01 X129.0831 Y-99.9145 F120.00
G01 X129.1233 Y-99.9268 F120.00
G01 X129.1233 Y-98.2332 F120.00
G01 X129.1025 Y-98.2386 F120.00
G01 X129.1067 Y-98.2373 F120.00
G01 X129.1862 Y-98.2174 F120.00
G01 X129.1905 Y-98.2165 F120.00
G01 X129.2716 Y-98.2045 F120.00
G01 X129.2759 Y-98.2041 F120.00
G01 X129.3578 Y-98.2001 F120.00
G01 X129.3622 Y-98.2001 F120.00
G01 X129.4441 Y-98.2041 F120.00
G01 X129.4484 Y-98.2045 F120.00
G01 X129.5295 Y-98.2165 F120.00
G01 X129.5338 Y-98.2174 F120.00
G01 X129.6133 Y-98.2373 F120.00
G01 X129.6175 Y-98.2386 F120.00
G01 X129.6947 Y-98.2662 F120.00
G01 X129.6988 Y-98.2679 F120.00
G01 X129.7728 Y-98.3029 F120.00
G01 X129.7767 Y-98.3050 F120.00
G01 X129.8470 Y-98.3471 F120.00
G01 X129.8507 Y-98.3496 F120.00
G01 X129.9165 Y-98.3984 F120.00
G01 X129.9199 Y-98.4012 F120.00
G01 X129.9806 Y-98.4562 F120.00
G01 X129.9838 Y-98.4594 F120.00
G01 X130.0388 Y-98.5201 F120.00
G01 X130.0416 Y-98.5235 F120.00
G01 X130.0904 Y-98.5893 F120.00
G01 X130.0929 Y-98.5930 F120.00
G01 X130.1350 Y-98.6633 F120.00
G01 X130.1371 Y-98.6672 F120.00
G01 X130.1721 Y-98.7412 F120.00
G01 X130.1738 Y-98.7453 F120.00
G01 X130.2027 Y-98.8267 F120.00
G01 X130.2226 Y-98.9062 F120.00
G01 X130.2359 Y-98.9959 F120.00
G01 X130.2399 Y-99.0822 F120.00
G01 X130.2355 Y-99.1684 F120.00
G01 X130.2235 Y-99.2495 F120.00
G01 X130.2226 Y-99.2538 F120.00
G01 X130.2027 Y-99.3333 F120.00
G01 X130.2014 Y-99.3375 F120.00
G01 X130.1721 Y-99.4188 F120.00
G01 X130.1371 Y-99.4928 F120.00
G01 X130.1350 Y-99.4967 F120.00
G01 X130.0929 Y-99.5670 F120.00
G01 X130.0904 Y-99.5707 F120.00
G01 X130.0416 Y-99.6365 F120.00
G01 X130.0388 Y-99.6399 F120.00
G01 X129.9838 Y-99.7006 F120.00
G01 X129.9806 Y-99.7038 F120.00
G01 X129.9199 Y-99.7588 F120.00
G01 X129.9165 Y-99.7616 F120.00
G01 X129.8507 Y-99.8104 F120.00
G01 X129.8470 Y-99.8129 F120.00
G01 X129.7767 Y-99.8550 F120.00
G01 X129.7728 Y-99.8571 F120.00
G01 X129.6988 Y-99.8921 F120.00
G01 X129.6947 Y-99.8938 F120.00
G01 X129.6175 Y-99.9214 F120.00
G01 X129.6133 Y-99.9227 F120.00
G01 X129.5338 Y-99.9426 F120.00
G01 X129.5295 Y-99.9435 F120.00
G01 X129.4484 Y-99.9555 F120.00
G01 X129.4441 Y-99.9559 F120.00
G01 X129.3622 Y-99.9599 F120.00
G01 X129.3578 Y-99.9599 F120.00
G01 X129.2759 Y-99.9559 F120.00
G01 X129.2716 Y-99.9555 F120.00
G01 X129.1905 Y-99.9435 F120.00
G01 X129.1862 Y-99.9426 F120.00
G01 X129.1067 Y-99.9227 F120.00
G01 X129.1025 Y-99.9214 F120.00
G01 X129.0253 Y-99.8938 F120.00
G01 X129.0212 Y-99.8921 F120.00
G01 X128.9472 Y-99.8571 F120.00
G01 X128.9433 Y-99.8550 F120.00
G01 X128.8730 Y-99.8129 F120.00
G01 X128.8693 Y-99.8104 F120.00
G01 X128.8035 Y-99.7616 F120.00
G01 X128.8001 Y-99.7588 F120.00
G01 X128.7394 Y-99.7038 F120.00
G01 X128.7362 Y-99.7006 F120.00
G01 X128.6812 Y-99.6399 F120.00
G01 X128.6784 Y-99.6365 F120.00
G01 X128.6271 Y-99.5670 F120.00
G01 X128.5829 Y-99.4928 F120.00
G01 X128.5479 Y-99.4188 F120.00
G01 X128.5173 Y-99.3333 F120.00
G01 X128.4965 Y-99.2495 F120.00
G01 X128.4845 Y-99.1684 F120.00
G01 X128.4801 Y-99.0778 F120.00
G01 X128.4845 Y-98.9916 F120.00
G01 X128.4965 Y-98.9105 F120.00
G01 X128.5186 Y-98.8225 F120.00
G01 X128.5479 Y-98.7412 F120.00
G01 X128.5829 Y-98.6672 F120.00
G01 X128.6296 Y-98.5893 F120.00
G01 X128.6784 Y-98.5235 F120.00
G01 X128.6812 Y-98.5201 F120.00
G01 X128.7362 Y-98.4594 F120.00
G01 X128.7394 Y-98.4562 F120.00
G01 X128.8001 Y-98.4012 F120.00
G01 X128.8035 Y-98.3984 F120.00
G01 X128.8693 Y-98.3496 F120.00
G01 X128.8730 Y-98.3471 F120.00
G01 X128.9433 Y-98.3050 F120.00
G01 X128.9472 Y-98.3029 F120.00
G01 X129.0212 Y-98.2679 F120.00
G01 X129.0253 Y-98.2662 F120.00
G01 X129.1025 Y-98.2386 F120.00
G01 X129.1635 Y-98.2231 F120.00
G01 X129.1635 Y-99.9369 F120.00
G01 X129.2037 Y-99.9454 F120.00
G01 X129.2037 Y-98.2146 F120.00
G01 X129.2439 Y-98.2086 F120.00
G01 X129.2439 Y-99.9514 F120.00
G01 X129.2841 Y-99.9563 F120.00
G01 X129.2841 Y-98.2037 F120.00
G01 X129.3243 Y-98.2017 F120.00
G01 X129.3243 Y-99.9583 F120.00
G01 X129.3645 Y-99.9598 F120.00
G01 X129.3645 Y-98.2002 F120.00
G01 X129.4047 Y-98.2022 F120.00
G01 X129.4047 Y-99.9578 F120.00
G01 X129.4449 Y-99.9558 F120.00
G01 X129.4449 Y-98.2042 F120.00
G01 X129.4851 Y-98.2100 F120.00
G01 X129.4851 Y-99.9500 F120.00
G01 X129.5253 Y-99.9441 F120.00
G01 X129.5253 Y-98.2159 F120.00
G01 X129.5655 Y-98.2253 F120.00
G01 X129.5655 Y-99.9347 F120.00
G01 X129.6057 Y-99.9246 F120.00
G01 X129.6057 Y-98.2354 F120.00
G01 X129.6459 Y-98.2487 F120.00
G01 X129.6459 Y-99.9113 F120.00
G01 X129.6861 Y-99.8969 F120.00
G01 X129.6861 Y-98.2631 F120.00
G01 X129.7263 Y-98.2809 F120.00
G01 X129.7263 Y-99.8791 F120.00
G01 X129.7665 Y-99.8601 F120.00
G01 X129.7665 Y-98.2999 F120.00
G01 X129.8067 Y-98.3230 F120.00
G01 X129.8067 Y-99.8370 F120.00
G01 X129.8469 Y-99.8130 F120.00
G01 X129.8469 Y-98.3470 F120.00
G01 X129.8871 Y-98.3766 F120.00
G01 X129.8871 Y-99.7834 F120.00
G01 X129.9273 Y-99.7521 F120.00
G01 X129.9273 Y-98.4079 F120.00
G01 X129.9675 Y-98.4443 F120.00
G01 X129.9675 Y-99.7157 F120.00
G01 X130.0077 Y-99.6743 F120.00
G01 X130.0077 Y-98.4857 F120.00
G01 X130.0479 Y-98.5320 F120.00
G01 X130.0479 Y-99.6280 F120.00
G01 X130.0881 Y-99.5738 F120.00
G01 X130.0881 Y-98.5862 F120.00
G01 X130.1283 Y-98.6521 F120.00
G01 X130.1283 Y-99.5079 F120.00
G01 X130.1685 Y-99.4264 F120.00
G01 X130.1685 Y-98.7336 F120.00
G01 X130.2087 Y-98.8506 F120.00
G01 X130.2087 Y-99.3094 F120.00
M5
G00 X131.0603 Y-99.3422
G01 F60.00
M03 S5000.0
G01 F120.00
G01 X131.0603 Y-98.8178 F120.00
G01 X131.1005 Y-98.7146 F120.00
G01 X131.1005 Y-99.4454 F120.00
G01 X131.1407 Y-99.5229 F120.00
G01 X131.1407 Y-98.6371 F120.00
G01 X131.1809 Y-98.5741 F120.00
G01 X131.1809 Y-99.5859 F120.00
M5
G00 X131.2211 Y-98.5202
G01 F60.00
M03 S5000.0
G01 F120.00
G01 X131.2211 Y-99.6398 F120.00
G01 X131.2613 Y-99.6841 F120.00
G01 X131.2613 Y-98.4759 F120.00
G01 X131.3015 Y-98.4362 F120.00
G01 X131.3015 Y-99.7238 F120.00
G01 X131.3417 Y-99.7601 F120.00
G01 X131.3417 Y-98.3999 F120.00
G01 X131.3819 Y-98.3699 F120.00
G01 X131.3819 Y-99.7901 F120.00
G01 X131.4221 Y-99.8183 F120.00
G01 X131.4221 Y-98.3417 F120.00
G01 X131.4623 Y-98.3176 F120.00
G01 X131.4623 Y-99.8424 F120.00
G01 X131.5025 Y-99.8643 F120.00
G01 X131.5025 Y-98.2957 F120.00
G01 X131.5427 Y-98.2767 F120.00
G01 X131.5427 Y-99.8833 F120.00
G01 X131.5829 Y-99.9001 F120.00
G01 X131.5829 Y-98.2599 F120.00
G01 X131.6231 Y-98.2455 F120.00
G01 X131.6231 Y-99.9145 F120.00
G01 X131.6633 Y-99.9268 F120.00
G01 X131.6633 Y-98.2332 F120.00
G01 X131.6425 Y-98.2386 F120.00
G01 X131.6467 Y-98.2373 F120.00
G01 X131.7262 Y-98.2174 F120.00
G01 X131.7305 Y-98.2165 F120.00
G01 X131.8116 Y-98.2045 F120.00
G01 X131.8159 Y-98.2041 F120.00
G01 X131.8978 Y-98.2001 F120.00
G01 X131.9022 Y-98.2001 F120.00
G01 X131.9841 Y-98.2041 F120.00
G01 X131.9884 Y-98.2045 F120.00
G01 X132.0695 Y-98.2165 F120.00
G01 X132.0738 Y-98.2174 F120.00
G01 X132.1533 Y-98.2373 F120.00
G01 X132.1575 Y-98.2386 F120.00
G01 X132.2347 Y-98.2662 F120.00
G01 X132.2388 Y-98.2679 F120.00
G01 X132.3128 Y-98.3029 F120.00
G01 X132.3167 Y-98.3050 F120.00
G01 X132.3870 Y-98.3471 F120.00
G01 X132.3907 Y-98.3496 F120.00
G01 X132.4565 Y-98.3984 F120.00
G01 X132.4599 Y-98.4012 F120.00
G01 X132.5206 Y-98.4562 F120.00
G01 X132.5238 Y-98.4594 F120.00
G01 X132.5788 Y-98.5201 F120.00
G01 X132.5816 Y-98.5235 F120.00
G01 X132.6304 Y-98.5893 F120.00
G01 X132.6329 Y-98.5930 F120.00
G01 X132.6750 Y-98.6633 F120.00
G01 X132.6771 Y-98.6672 F120.00
G01 X132.7121 Y-98.7412 F120.00
G01 X132.7138 Y-98.7453 F120.00
G01 X132.7427 Y-98.8267 F120.00
G01 X132.7626 Y-98.9062 F120.00
G01 X132.7759 Y-98.9959 F120.00
G01 X132.7799 Y-99.0822 F120.00
G01 X132.7755 Y-99.1684 F120.00
G01 X132.7635 Y-99.2495 F120.00
G01 X132.7626 Y-99.2538 F120.00
G01 X132.7427 Y-99.3333 F120.00
G01 X132.7414 Y-99.3375 F120.00
G01 X132.7121 Y-99.4188 F120.00
G01 X132.6771 Y-99.4928 F120.00
G01 X132.6750 Y-99.4967 F120.00
G01 X132.6329 Y-99.5670 F120.00
G01 X132.6304 Y-99.5707 F120.00
G01 X132.5816 Y-99.6365 F120.00
G01 X132.5788 Y-99.6399 F120.00
G01 X132.5238 Y-99.7006 F120.00
G01 X132.5206 Y-99.7038 F120.00
G01 X132.4599 Y-99.7588 F120.00
G01 X132.4565 Y-99.7616 F120.00
G01 X132.3907 Y-99.8104 F120.00
G01 X132.3870 Y-99.8129 F120.00
G01 X132.3167 Y-99.8550 F120.00
G01 X132.3128 Y-99.8571 F120.00
G01 X132.2388 Y-99.8921 F120.00
G01 X132.2347 Y-99.8938 F120.00
G01 X132.1575 Y-99.9214 F120.00
G01 X132.1533 Y-99.9227 F120.00
G01 X132.0738 Y-99.9426 F120.00
G01 X132.0695 Y-99.9435 F120.00
G01 X131.9884 Y-99.9555 F120.00
G01 X131.9841 Y-99.9559 F120.00
G01 X131.9022 Y-99.9599 F120.00
G01 X131.8978 Y-99.9599 F120.00
G01 X131.8159 Y-99.9559 F120.00
G01 X131.8116 Y-99.9555 F120.00
G01 X131.7305 Y-99.9435 F120.00
G01 X131.7262 Y-99.9426 F120.00
G01 X131.6467 Y-99.9227 F120.00
G01 X131.6425 Y-99.9214 F120.00
G01 X131.5653 Y-99.8938 F120.00
G01 X131.5612 Y-99.8921 F120.00
G01 X131.4872 Y-99.8571 F120.00
G01 X131.4833 Y-99.8550 F120.00
G01 X131.4130 Y-99.8129 F120.00
G01 X131.4093 Y-99.8104 F120.00
G01 X131.3435 Y-99.7616 F120.00
G01 X131.3401 Y-99.7588 F120.00
G01 X131.2794 Y-99.7038 F120.00
G01 X131.2762 Y-99.7006 F120.00
G01 X131.2212 Y-99.6399 F120.00
G01 X131.2184 Y-99.6365 F120.00
G01 X131.1671 Y-99.5670 F120.00
G01 X131.1229 Y-99.4928 F120.00
G01 X131.0879 Y-99.4188 F120.00
G01 X131.0573 Y-99.3333 F120.00
G01 X131.0365 Y-99.2495 F120.00
G01 X131.0245 Y-99.1684 F120.00
G01 X131.0201 Y-99.0778 F120.00
G01 X131.0245 Y-98.9916 F120.00
G01 X131.0365 Y-98.9105 F120.00
G01 X131.0586 Y-98.8225 F120.00
G01 X131.0879 Y-98.7412 F120.00
G01 X131.1229 Y-98.6672 F120.00
G01 X131.1696 Y-98.5893 F120.00
G01 X131.2184 Y-98.5235 F120.00
G01 X131.2212 Y-98.5201 F120.00
G01 X131.2762 Y-98.4594 F120.00
G01 X131.2794 Y-98.4562 F120.00
G01 X131.3401 Y-98.4012 F120.00
G01 X131.3435 Y-98.3984 F120.00
G01 X131.4093 Y-98.3496 F120.00
G01 X131.4130 Y-98.3471 F120.00
G01 X131.4833 Y-98.3050 F120.00
G01 X131.4872 Y-98.3029 F120.00
G01 X131.5612 Y-98.2679 F120.00
G01 X131.5653 Y-98.2662 F120.00
G01 X131.6425 Y-98.2386 F120.00
G01 X131.7035 Y-98.2231 F120.00
G01 X131.7035 Y-99.9369 F120.00
G01 X131.7437 Y-99.9454 F120.00
G01 X131.7437 Y-98.2146 F120.00
G01 X131.7839 Y-98.2086 F120.00
G01 X131.7839 Y-99.9514 F120.00
G01 X131.8241 Y-99.9563 F120.00
G01 X131.8241 Y-98.2037 F120.00
G01 X131.8643 Y-98.2017 F120.00
G01 X131.8643 Y-99.9583 F120.00
G01 X131.9045 Y-99.9598 F120.00
G01 X131.9045 Y-98.2002 F120.00
G01 X131.9447 Y-98.2022 F120.00
G01 X131.9447 Y-99.9578 F120.00
G01 X131.9849 Y-99.9558 F120.00
G01 X131.9849 Y-98.2042 F120.00
G01 X132.0251 Y-98.2100 F120.00
G01 X132.0251 Y-99.9500 F120.00
G01 X132.0653 Y-99.9441 F120.00
G01 X132.0653 Y-98.2159 F120.00
G01 X132.1055 Y-98.2253 F120.00
G01 X132.1055 Y-99.9347 F120.00
G01 X132.1457 Y-99.9246 F120.00
G01 X132.1457 Y-98.2354 F120.00
G01 X132.1859 Y-98.2487 F120.00
G01 X132.1859 Y-99.9113 F120.00
G01 X132.2261 Y-99.8969 F120.00
G01 X132.2261 Y-98.2631 F120.00
G01 X132.2663 Y-98.2809 F120.00
G01 X132.2663 Y-99.8791 F120.00
G01 X132.3065 Y-99.8601 F120.00
G01 X132.3065 Y-98.2999 F120.00
G01 X132.3467 Y-98.3230 F120.00
G01 X132.3467 Y-99.8370 F120.00
G01 X132.3869 Y-99.8130 F120.00
G01 X132.3869 Y-98.3470 F120.00
G01 X132.4271 Y-98.3766 F120.00
G01 X132.4271 Y-99.7834 F120.00
G01 X132.4673 Y-99.7521 F120.00
G01 X132.4673 Y-98.4079 F120.00
G01 X132.5075 Y-98.4443 F120.00
G01 X132.5075 Y-99.7157 F120.00
G01 X132.5477 Y-99.6743 F120.00
G01 X132.5477 Y-98.4857 F120.00
G01 X132.5879 Y-98.5320 F120.00
G01 X132.5879 Y-99.6280 F120.00
G01 X132.6281 Y-99.5738 F120.00
G01 X132.6281 Y-98.5862 F120.00
G01 X132.6683 Y-98.6521 F120.00
G01 X132.6683 Y-99.5079 F120.00
G01 X132.7085 Y-99.4264 F120.00
G01 X132.7085 Y-98.7336 F120.00
G01 X132.7487 Y-98.8506 F120.00
G01 X132.7487 Y-99.3094 F120.00
M5
G00 X136.3441 Y-98.3812
G01 F60.00
M03 S5000.0
G01 F120.00
G01 X137.8741 Y-98.3812 F120.00
G01 X137.8998 Y-98.4214 F120.00
G01 X136.3184 Y-98.4214 F120.00
G01 X136.2943 Y-98.4616 F120.00
G01 X137.9239 Y-98.4616 F120.00
G01 X137.9440 Y-98.5018 F120.00
G01 X136.2742 Y-98.5018 F120.00
G01 X136.2552 Y-98.5420 F120.00
G01 X137.9630 Y-98.5420 F120.00
G01 X137.9787 Y-98.5822 F120.00
G01 X136.2395 Y-98.5822 F120.00
G01 X136.2251 Y-98.6224 F120.00
G01 X137.9931 Y-98.6224 F120.00
G01 X138.0050 Y-98.6626 F120.00
G01 X136.2132 Y-98.6626 F120.00
G01 X136.2032 Y-98.7028 F120.00
G01 X138.0150 Y-98.7028 F120.00
G01 X138.0235 Y-98.7430 F120.00
G01 X136.1947 Y-98.7430 F120.00
G01 X136.1887 Y-98.7832 F120.00
G01 X138.0295 Y-98.7832 F120.00
G01 X138.0349 Y-98.8234 F120.00
G01 X136.1833 Y-98.8234 F120.00
G01 X136.1813 Y-98.8636 F120.00
G01 X138.0369 Y-98.8636 F120.00
G01 X138.0389 Y-98.9038 F120.00
G01 X136.1793 Y-98.9038 F120.00
G01 X136.1808 Y-98.9440 F120.00
G01 X138.0374 Y-98.9440 F120.00
G01 X138.0354 Y-98.9842 F120.00
G01 X136.1828 Y-98.9842 F120.00
G01 X136.1871 Y-99.0244 F120.00
G01 X138.0311 Y-99.0244 F120.00
G01 X138.0251 Y-99.0646 F120.00
G01 X136.1931 Y-99.0646 F120.00
G01 X136.2005 Y-99.1048 F120.00
G01 X138.0177 Y-99.1048 F120.00
G01 X138.0076 Y-99.1450 F120.00
G01 X136.2106 Y-99.1450 F120.00
G01 X136.2213 Y-99.1852 F120.00
G01 X137.9969 Y-99.1852 F120.00
G01 X137.9825 Y-99.2254 F120.00
G01 X136.2357 Y-99.2254 F120.00
G01 X136.2502 Y-99.2656 F120.00
G01 X137.9680 Y-99.2656 F120.00
G01 X137.9491 Y-99.3058 F120.00
G01 X136.2691 Y-99.3058 F120.00
G01 X136.2882 Y-99.3460 F120.00
G01 X137.9300 Y-99.3460 F120.00
G01 X137.9061 Y-99.3862 F120.00
G01 X136.3120 Y-99.3862 F120.00
G01 X136.3363 Y-99.4264 F120.00
G01 X137.8819 Y-99.4264 F120.00
G01 X137.8522 Y-99.4666 F120.00
G01 X136.3660 Y-99.4666 F120.00
G01 X136.3971 Y-99.5068 F120.00
G01 X137.8211 Y-99.5068 F120.00
G01 X137.7846 Y-99.5470 F120.00
G01 X136.4336 Y-99.5470 F120.00
G01 X136.4740 Y-99.5872 F120.00
G01 X137.7442 Y-99.5872 F120.00
G01 X137.6997 Y-99.6274 F120.00
G01 X136.5185 Y-99.6274 F120.00
G01 X136.5724 Y-99.6676 F120.00
G01 X137.6458 Y-99.6676 F120.00
G01 X137.5835 Y-99.7078 F120.00
G01 X136.6347 Y-99.7078 F120.00
G01 X136.7101 Y-99.7480 F120.00
G01 X137.5081 Y-99.7480 F120.00
G01 X137.4096 Y-99.7882 F120.00
G01 X136.8086 Y-99.7882 F120.00
G01 X136.9756 Y-99.8284 F120.00
G01 X137.2426 Y-99.8284 F120.00
M5
G00 X137.8443 Y-98.3410
G01 F60.00
M03 S5000.0
G01 F120.00
G01 X136.3739 Y-98.3410 F120.00
G01 X136.4068 Y-98.3008 F120.00
G01 X137.8114 Y-98.3008 F120.00
G01 X137.7750 Y-98.2606 F120.00
G01 X136.4432 Y-98.2606 F120.00
G01 X136.4858 Y-98.2204 F120.00
G01 X137.7324 Y-98.2204 F120.00
G01 X137.6856 Y-98.1802 F120.00
G01 X136.5326 Y-98.1802 F120.00
G01 X136.5868 Y-98.1400 F120.00
G01 X137.6314 Y-98.1400 F120.00
G01 X137.5657 Y-98.0998 F120.00
G01 X136.6525 Y-98.0998 F120.00
G01 X136.7327 Y-98.0596 F120.00
G01 X137.4855 Y-98.0596 F120.00
G01 X137.3796 Y-98.0194 F120.00
G01 X136.8386 Y-98.0194 F120.00
G01 X136.8370 Y-98.0199 F120.00
G01 X136.8413 Y-98.0186 F120.00
G01 X136.9255 Y-97.9975 F120.00
G01 X136.9298 Y-97.9966 F120.00
G01 X137.0201 Y-97.9834 F120.00
G01 X137.1113 Y-97.9792 F120.00
G01 X137.2024 Y-97.9839 F120.00
G01 X137.2884 Y-97.9966 F120.00
G01 X137.2927 Y-97.9975 F120.00
G01 X137.3769 Y-98.0186 F120.00
G01 X137.3812 Y-98.0199 F120.00
G01 X137.4670 Y-98.0508 F120.00
G01 X137.5455 Y-98.0879 F120.00
G01 X137.5494 Y-98.0900 F120.00
G01 X137.6239 Y-98.1347 F120.00
G01 X137.6276 Y-98.1371 F120.00
G01 X137.6973 Y-98.1889 F120.00
G01 X137.7007 Y-98.1917 F120.00
G01 X137.7651 Y-98.2500 F120.00
G01 X137.7682 Y-98.2531 F120.00
G01 X137.8265 Y-98.3175 F120.00
G01 X137.8293 Y-98.3209 F120.00
G01 X137.8811 Y-98.3906 F120.00
G01 X137.8835 Y-98.3943 F120.00
G01 X137.9303 Y-98.4727 F120.00
G01 X137.9691 Y-98.5553 F120.00
G01 X137.9983 Y-98.6370 F120.00
G01 X138.0216 Y-98.7298 F120.00
G01 X138.0348 Y-98.8201 F120.00
G01 X138.0391 Y-98.9091 F120.00
G01 X138.0348 Y-98.9981 F120.00
G01 X138.0207 Y-99.0927 F120.00
G01 X137.9983 Y-99.1812 F120.00
G01 X137.9691 Y-99.2629 F120.00
G01 X137.9282 Y-99.3494 F120.00
G01 X137.8811 Y-99.4276 F120.00
G01 X137.8293 Y-99.4973 F120.00
G01 X137.7651 Y-99.5682 F120.00
G01 X137.6973 Y-99.6293 F120.00
G01 X137.6276 Y-99.6811 F120.00
G01 X137.5455 Y-99.7303 F120.00
G01 X137.4629 Y-99.7691 F120.00
G01 X137.3769 Y-99.7996 F120.00
G01 X137.2927 Y-99.8207 F120.00
G01 X137.1981 Y-99.8348 F120.00
G01 X137.1069 Y-99.8390 F120.00
G01 X137.0158 Y-99.8343 F120.00
G01 X136.9298 Y-99.8216 F120.00
G01 X136.8370 Y-99.7983 F120.00
G01 X136.7512 Y-99.7674 F120.00
G01 X136.6727 Y-99.7303 F120.00
G01 X136.5906 Y-99.6811 F120.00
G01 X136.5175 Y-99.6265 F120.00
G01 X136.4500 Y-99.5651 F120.00
G01 X136.3889 Y-99.4973 F120.00
G01 X136.3371 Y-99.4276 F120.00
G01 X136.2879 Y-99.3455 F120.00
G01 X136.2491 Y-99.2629 F120.00
G01 X136.2186 Y-99.1769 F120.00
G01 X136.1966 Y-99.0884 F120.00
G01 X136.1839 Y-99.0024 F120.00
G01 X136.1792 Y-98.9069 F120.00
G01 X136.1839 Y-98.8158 F120.00
G01 X136.1966 Y-98.7298 F120.00
G01 X136.2199 Y-98.6370 F120.00
G01 X136.2508 Y-98.5512 F120.00
G01 X136.2900 Y-98.4688 F120.00
G01 X136.3371 Y-98.3906 F120.00
G01 X136.3889 Y-98.3209 F120.00
G01 X136.3917 Y-98.3175 F120.00
G01 X136.4500 Y-98.2531 F120.00
G01 X136.4531 Y-98.2500 F120.00
G01 X136.5175 Y-98.1917 F120.00
G01 X136.5209 Y-98.1889 F120.00
G01 X136.5906 Y-98.1371 F120.00
G01 X136.5943 Y-98.1347 F120.00
G01 X136.6688 Y-98.0900 F120.00
G01 X136.6727 Y-98.0879 F120.00
G01 X136.7512 Y-98.0508 F120.00
G01 X136.7553 Y-98.0491 F120.00
G01 X136.8370 Y-98.0199 F120.00
M5
G00 X137.4335 Y-96.7193
G01 F60.00
M03 S5000.0
G01 F120.00
G01 X137.1665 Y-96.7193 F120.00
G01 X136.9995 Y-96.6791 F120.00
G01 X137.6005 Y-96.6791 F120.00
G01 X137.6990 Y-96.6389 F120.00
G01 X136.9010 Y-96.6389 F120.00
G01 X136.8256 Y-96.5987 F120.00
G01 X137.7744 Y-96.5987 F120.00
G01 X137.8367 Y-96.5585 F120.00
G01 X136.7633 Y-96.5585 F120.00
G01 X136.7094 Y-96.5183 F120.00
G01 X137.8906 Y-96.5183 F120.00
G01 X137.9351 Y-96.4781 F120.00
G01 X136.6649 Y-96.4781 F120.00
G01 X136.6245 Y-96.4379 F120.00
G01 X137.9755 Y-96.4379 F120.00
G01 X138.0120 Y-96.3977 F120.00
G01 X136.5880 Y-96.3977 F120.00
G01 X136.5569 Y-96.3575 F120.00
G01 X138.0431 Y-96.3575 F120.00
G01 X138.0728 Y-96.3173 F120.00
G01 X136.5272 Y-96.3173 F120.00
G01 X136.5030 Y-96.2771 F120.00
G01 X138.0970 Y-96.2771 F120.00
G01 X138.1209 Y-96.2369 F120.00
G01 X136.4791 Y-96.2369 F120.00
G01 X136.4600 Y-96.1967 F120.00
G01 X138.1400 Y-96.1967 F120.00
G01 X138.1589 Y-96.1565 F120.00
G01 X136.4411 Y-96.1565 F120.00
G01 X136.4266 Y-96.1163 F120.00
G01 X138.1734 Y-96.1163 F120.00
G01 X138.1878 Y-96.0761 F120.00
G01 X136.4122 Y-96.0761 F120.00
G01 X136.4015 Y-96.0359 F120.00
G01 X138.1985 Y-96.0359 F120.00
G01 X138.2086 Y-95.9957 F120.00
G01 X136.3914 Y-95.9957 F120.00
G01 X136.3840 Y-95.9555 F120.00
G01 X138.2160 Y-95.9555 F120.00
G01 X138.2220 Y-95.9153 F120.00
G01 X136.3780 Y-95.9153 F120.00
G01 X136.3737 Y-95.8751 F120.00
G01 X138.2263 Y-95.8751 F120.00
G01 X138.2283 Y-95.8349 F120.00
G01 X136.3717 Y-95.8349 F120.00
G01 X136.3702 Y-95.7947 F120.00
G01 X138.2298 Y-95.7947 F120.00
G01 X138.2278 Y-95.7545 F120.00
G01 X136.3722 Y-95.7545 F120.00
G01 X136.3742 Y-95.7143 F120.00
G01 X138.2258 Y-95.7143 F120.00
G01 X138.2204 Y-95.6741 F120.00
G01 X136.3796 Y-95.6741 F120.00
G01 X136.3856 Y-95.6339 F120.00
G01 X138.2144 Y-95.6339 F120.00
G01 X138.2059 Y-95.5937 F120.00
G01 X136.3941 Y-95.5937 F120.00
G01 X136.4041 Y-95.5535 F120.00
G01 X138.1959 Y-95.5535 F120.00
G01 X138.1840 Y-95.5133 F120.00
G01 X136.4160 Y-95.5133 F120.00
G01 X136.4304 Y-95.4731 F120.00
G01 X138.1696 Y-95.4731 F120.00
G01 X138.1539 Y-95.4329 F120.00
G01 X136.4461 Y-95.4329 F120.00
G01 X136.4651 Y-95.3927 F120.00
G01 X138.1349 Y-95.3927 F120.00
G01 X138.1148 Y-95.3525 F120.00
G01 X136.4852 Y-95.3525 F120.00
G01 X136.5093 Y-95.3123 F120.00
G01 X138.0907 Y-95.3123 F120.00
G01 X138.0650 Y-95.2721 F120.00
G01 X136.5350 Y-95.2721 F120.00
M5
G00 X138.0352 Y-95.2319
G01 F60.00
M03 S5000.0
G01 F120.00
G01 X136.5648 Y-95.2319 F120.00
G01 X136.5977 Y-95.1917 F120.00
G01 X138.0023 Y-95.1917 F120.00
G01 X137.9659 Y-95.1515 F120.00
G01 X136.6341 Y-95.1515 F120.00
G01 X136.6767 Y-95.1113 F120.00
G01 X137.9233 Y-95.1113 F120.00
G01 X137.8765 Y-95.0711 F120.00
G01 X136.7235 Y-95.0711 F120.00
G01 X136.7777 Y-95.0309 F120.00
G01 X137.8223 Y-95.0309 F120.00
G01 X137.7566 Y-94.9907 F120.00
G01 X136.8434 Y-94.9907 F120.00
G01 X136.9236 Y-94.9505 F120.00
G01 X137.6764 Y-94.9505 F120.00
G01 X137.5705 Y-94.9103 F120.00
G01 X137.0295 Y-94.9103 F120.00
G01 X137.0279 Y-94.9108 F120.00
G01 X137.0322 Y-94.9095 F120.00
G01 X137.1164 Y-94.8884 F120.00
G01 X137.1207 Y-94.8875 F120.00
G01 X137.2110 Y-94.8743 F120.00
G01 X137.3022 Y-94.8701 F120.00
G01 X137.3933 Y-94.8748 F120.00
G01 X137.4793 Y-94.8875 F120.00
G01 X137.4836 Y-94.8884 F120.00
G01 X137.5678 Y-94.9095 F120.00
G01 X137.5721 Y-94.9108 F120.00
G01 X137.6579 Y-94.9417 F120.00
G01 X137.7364 Y-94.9788 F120.00
G01 X137.7403 Y-94.9809 F120.00
G01 X137.8148 Y-95.0256 F120.00
G01 X137.8185 Y-95.0280 F120.00
G01 X137.8882 Y-95.0798 F120.00
G01 X137.8916 Y-95.0826 F120.00
G01 X137.9560 Y-95.1409 F120.00
G01 X137.9591 Y-95.1440 F120.00
G01 X138.0174 Y-95.2084 F120.00
G01 X138.0202 Y-95.2118 F120.00
G01 X138.0720 Y-95.2815 F120.00
G01 X138.0744 Y-95.2852 F120.00
G01 X138.1212 Y-95.3636 F120.00
G01 X138.1600 Y-95.4462 F120.00
G01 X138.1892 Y-95.5279 F120.00
G01 X138.2125 Y-95.6207 F120.00
G01 X138.2257 Y-95.7110 F120.00
G01 X138.2300 Y-95.8000 F120.00
G01 X138.2257 Y-95.8890 F120.00
G01 X138.2116 Y-95.9836 F120.00
G01 X138.1892 Y-96.0721 F120.00
G01 X138.1600 Y-96.1538 F120.00
G01 X138.1191 Y-96.2403 F120.00
G01 X138.0720 Y-96.3185 F120.00
G01 X138.0202 Y-96.3882 F120.00
G01 X137.9560 Y-96.4591 F120.00
G01 X137.8882 Y-96.5202 F120.00
G01 X137.8185 Y-96.5720 F120.00
G01 X137.7364 Y-96.6212 F120.00
G01 X137.6538 Y-96.6600 F120.00
G01 X137.5678 Y-96.6905 F120.00
G01 X137.4836 Y-96.7116 F120.00
G01 X137.3890 Y-96.7257 F120.00
G01 X137.2978 Y-96.7299 F120.00
G01 X137.2067 Y-96.7252 F120.00
G01 X137.1207 Y-96.7125 F120.00
G01 X137.0279 Y-96.6892 F120.00
G01 X136.9421 Y-96.6583 F120.00
G01 X136.8636 Y-96.6212 F120.00
G01 X136.7815 Y-96.5720 F120.00
G01 X136.7084 Y-96.5174 F120.00
G01 X136.6409 Y-96.4560 F120.00
G01 X136.5798 Y-96.3882 F120.00
G01 X136.5280 Y-96.3185 F120.00
G01 X136.4788 Y-96.2364 F120.00
G01 X136.4400 Y-96.1538 F120.00
G01 X136.4095 Y-96.0678 F120.00
G01 X136.3875 Y-95.9793 F120.00
G01 X136.3748 Y-95.8933 F120.00
G01 X136.3701 Y-95.7978 F120.00
G01 X136.3748 Y-95.7067 F120.00
G01 X136.3875 Y-95.6207 F120.00
G01 X136.4108 Y-95.5279 F120.00
G01 X136.4417 Y-95.4421 F120.00
G01 X136.4809 Y-95.3597 F120.00
G01 X136.5280 Y-95.2815 F120.00
G01 X136.5798 Y-95.2118 F120.00
G01 X136.5826 Y-95.2084 F120.00
G01 X136.6409 Y-95.1440 F120.00
G01 X136.6440 Y-95.1409 F120.00
G01 X136.7084 Y-95.0826 F120.00
G01 X136.7118 Y-95.0798 F120.00
G01 X136.7815 Y-95.0280 F120.00
G01 X136.7852 Y-95.0256 F120.00
G01 X136.8597 Y-94.9809 F120.00
G01 X136.8636 Y-94.9788 F120.00
G01 X136.9421 Y-94.9417 F120.00
G01 X136.9462 Y-94.9400 F120.00
G01 X137.0279 Y-94.9108 F120.00
M5
G00 X139.0103 Y-95.1172
G01 F60.00
M03 S5000.0
G01 F120.00
G01 X139.0103 Y-94.5928 F120.00
G01 X139.0505 Y-94.4896 F120.00
G01 X139.0505 Y-95.2204 F120.00
G01 X139.0907 Y-95.2979 F120.00
G01 X139.0907 Y-94.4121 F120.00
M5
G00 X139.1309 Y-94.3491
G01 F60.00
M03 S5000.0
G01 F120.00
G01 X139.1309 Y-95.3609 F120.00
G01 X139.1711 Y-95.4148 F120.00
G01 X139.1711 Y-94.2952 F120.00
G01 X139.2113 Y-94.2509 F120.00
G01 X139.2113 Y-95.4591 F120.00
G01 X139.2515 Y-95.4988 F120.00
G01 X139.2515 Y-94.2112 F120.00
G01 X139.2917 Y-94.1749 F120.00
G01 X139.2917 Y-95.5351 F120.00
G01 X139.3319 Y-95.5651 F120.00
G01 X139.3319 Y-94.1449 F120.00
G01 X139.3721 Y-94.1167 F120.00
G01 X139.3721 Y-95.5933 F120.00
G01 X139.4123 Y-95.6174 F120.00
G01 X139.4123 Y-94.0926 F120.00
G01 X139.4525 Y-94.0707 F120.00
G01 X139.4525 Y-95.6393 F120.00
G01 X139.4927 Y-95.6583 F120.00
G01 X139.4927 Y-94.0517 F120.00
G01 X139.5329 Y-94.0349 F120.00
G01 X139.5329 Y-95.6751 F120.00
G01 X139.5731 Y-95.6895 F120.00
G01 X139.5731 Y-94.0205 F120.00
G01 X139.5925 Y-94.0136 F120.00
G01 X139.5967 Y-94.0123 F120.00
G01 X139.6762 Y-93.9924 F120.00
G01 X139.6805 Y-93.9915 F120.00
G01 X139.7616 Y-93.9795 F120.00
G01 X139.7659 Y-93.9791 F120.00
G01 X139.8478 Y-93.9751 F120.00
G01 X139.8522 Y-93.9751 F120.00
G01 X139.9341 Y-93.9791 F120.00
G01 X139.9384 Y-93.9795 F120.00
G01 X140.0195 Y-93.9915 F120.00
G01 X140.0238 Y-93.9924 F120.00
G01 X140.1033 Y-94.0123 F120.00
G01 X140.1075 Y-94.0136 F120.00
G01 X140.1847 Y-94.0412 F120.00
G01 X140.1888 Y-94.0429 F120.00
G01 X140.2628 Y-94.0779 F120.00
G01 X140.2667 Y-94.0800 F120.00
G01 X140.3370 Y-94.1221 F120.00
G01 X140.3407 Y-94.1246 F120.00
G01 X140.4065 Y-94.1734 F120.00
G01 X140.4099 Y-94.1762 F120.00
G01 X140.4706 Y-94.2312 F120.00
G01 X140.4738 Y-94.2344 F120.00
G01 X140.5288 Y-94.2951 F120.00
G01 X140.5316 Y-94.2985 F120.00
G01 X140.5804 Y-94.3643 F120.00
G01 X140.5829 Y-94.3680 F120.00
G01 X140.6250 Y-94.4383 F120.00
G01 X140.6271 Y-94.4422 F120.00
G01 X140.6621 Y-94.5162 F120.00
G01 X140.6638 Y-94.5203 F120.00
G01 X140.6927 Y-94.6017 F120.00
G01 X140.7126 Y-94.6812 F120.00
G01 X140.7259 Y-94.7709 F120.00
G01 X140.7299 Y-94.8572 F120.00
G01 X140.7255 Y-94.9434 F120.00
G01 X140.7135 Y-95.0245 F120.00
G01 X140.7126 Y-95.0288 F120.00
G01 X140.6927 Y-95.1083 F120.00
G01 X140.6914 Y-95.1125 F120.00
G01 X140.6621 Y-95.1938 F120.00
G01 X140.6271 Y-95.2678 F120.00
G01 X140.6250 Y-95.2717 F120.00
G01 X140.5829 Y-95.3420 F120.00
G01 X140.5804 Y-95.3457 F120.00
G01 X140.5316 Y-95.4115 F120.00
G01 X140.5288 Y-95.4149 F120.00
G01 X140.4738 Y-95.4756 F120.00
G01 X140.4706 Y-95.4788 F120.00
G01 X140.4099 Y-95.5338 F120.00
G01 X140.4065 Y-95.5366 F120.00
G01 X140.3407 Y-95.5854 F120.00
G01 X140.3370 Y-95.5879 F120.00
G01 X140.2667 Y-95.6300 F120.00
G01 X140.2628 Y-95.6321 F120.00
G01 X140.1888 Y-95.6671 F120.00
G01 X140.1847 Y-95.6688 F120.00
G01 X140.1075 Y-95.6964 F120.00
G01 X140.1033 Y-95.6977 F120.00
G01 X140.0238 Y-95.7176 F120.00
G01 X140.0195 Y-95.7185 F120.00
G01 X139.9384 Y-95.7305 F120.00
G01 X139.9341 Y-95.7309 F120.00
G01 X139.8522 Y-95.7349 F120.00
G01 X139.8478 Y-95.7349 F120.00
G01 X139.7659 Y-95.7309 F120.00
G01 X139.7616 Y-95.7305 F120.00
G01 X139.6805 Y-95.7185 F120.00
G01 X139.6762 Y-95.7176 F120.00
G01 X139.5967 Y-95.6977 F120.00
G01 X139.5925 Y-95.6964 F120.00
G01 X139.5153 Y-95.6688 F120.00
G01 X139.5112 Y-95.6671 F120.00
G01 X139.4372 Y-95.6321 F120.00
G01 X139.4333 Y-95.6300 F120.00
G01 X139.3630 Y-95.5879 F120.00
G01 X139.3593 Y-95.5854 F120.00
G01 X139.2935 Y-95.5366 F120.00
G01 X139.2901 Y-95.5338 F120.00
G01 X139.2294 Y-95.4788 F120.00
G01 X139.2262 Y-95.4756 F120.00
G01 X139.1712 Y-95.4149 F120.00
G01 X139.1684 Y-95.4115 F120.00
G01 X139.1196 Y-95.3457 F120.00
G01 X139.1171 Y-95.3420 F120.00
G01 X139.0729 Y-95.2678 F120.00
G01 X139.0362 Y-95.1897 F120.00
G01 X139.0086 Y-95.1125 F120.00
G01 X138.9865 Y-95.0245 F120.00
G01 X138.9741 Y-94.9391 F120.00
G01 X138.9701 Y-94.8528 F120.00
G01 X138.9741 Y-94.7709 F120.00
G01 X138.9874 Y-94.6812 F120.00
G01 X139.0086 Y-94.5975 F120.00
G01 X139.0362 Y-94.5203 F120.00
G01 X139.0750 Y-94.4383 F120.00
G01 X139.1196 Y-94.3643 F120.00
G01 X139.1684 Y-94.2985 F120.00
G01 X139.1712 Y-94.2951 F120.00
G01 X139.2262 Y-94.2344 F120.00
G01 X139.2294 Y-94.2312 F120.00
G01 X139.2901 Y-94.1762 F120.00
G01 X139.2935 Y-94.1734 F120.00
G01 X139.3593 Y-94.1246 F120.00
G01 X139.3630 Y-94.1221 F120.00
G01 X139.4333 Y-94.0800 F120.00
G01 X139.4372 Y-94.0779 F120.00
G01 X139.5112 Y-94.0429 F120.00
G01 X139.5153 Y-94.0412 F120.00
G01 X139.5925 Y-94.0136 F120.00
G01 X139.6133 Y-94.0082 F120.00
G01 X139.6133 Y-95.7018 F120.00
G01 X139.6535 Y-95.7119 F120.00
G01 X139.6535 Y-93.9981 F120.00
G01 X139.6937 Y-93.9896 F120.00
G01 X139.6937 Y-95.7204 F120.00
G01 X139.7339 Y-95.7264 F120.00
G01 X139.7339 Y-93.9836 F120.00
G01 X139.7741 Y-93.9787 F120.00
G01 X139.7741 Y-95.7313 F120.00
G01 X139.8143 Y-95.7333 F120.00
G01 X139.8143 Y-93.9767 F120.00
G01 X139.8545 Y-93.9752 F120.00
G01 X139.8545 Y-95.7348 F120.00
G01 X139.8947 Y-95.7328 F120.00
G01 X139.8947 Y-93.9772 F120.00
G01 X139.9349 Y-93.9792 F120.00
G01 X139.9349 Y-95.7308 F120.00
G01 X139.9751 Y-95.7250 F120.00
G01 X139.9751 Y-93.9850 F120.00
G01 X140.0153 Y-93.9909 F120.00
G01 X140.0153 Y-95.7191 F120.00
G01 X140.0555 Y-95.7097 F120.00
G01 X140.0555 Y-94.0003 F120.00
G01 X140.0957 Y-94.0104 F120.00
G01 X140.0957 Y-95.6996 F120.00
G01 X140.1359 Y-95.6863 F120.00
G01 X140.1359 Y-94.0237 F120.00
G01 X140.1761 Y-94.0381 F120.00
G01 X140.1761 Y-95.6719 F120.00
G01 X140.2163 Y-95.6541 F120.00
G01 X140.2163 Y-94.0559 F120.00
G01 X140.2565 Y-94.0749 F120.00
G01 X140.2565 Y-95.6351 F120.00
G01 X140.2967 Y-95.6120 F120.00
G01 X140.2967 Y-94.0980 F120.00
G01 X140.3369 Y-94.1220 F120.00
G01 X140.3369 Y-95.5880 F120.00
G01 X140.3771 Y-95.5584 F120.00
G01 X140.3771 Y-94.1516 F120.00
G01 X140.4173 Y-94.1829 F120.00
G01 X140.4173 Y-95.5271 F120.00
G01 X140.4575 Y-95.4907 F120.00
G01 X140.4575 Y-94.2193 F120.00
G01 X140.4977 Y-94.2607 F120.00
G01 X140.4977 Y-95.4493 F120.00
G01 X140.5379 Y-95.4030 F120.00
G01 X140.5379 Y-94.3070 F120.00
G01 X140.5781 Y-94.3612 F120.00
G01 X140.5781 Y-95.3488 F120.00
G01 X140.6183 Y-95.2829 F120.00
G01 X140.6183 Y-94.4271 F120.00
G01 X140.6585 Y-94.5086 F120.00
G01 X140.6585 Y-95.2014 F120.00
G01 X140.6987 Y-95.0844 F120.00
G01 X140.6987 Y-94.6256 F120.00
M5
G00 X142.9603 Y-95.1022
G01 F60.00
M03 S5000.0
G01 F120.00
G01 X142.9603 Y-94.5778 F120.00
G01 X143.0005 Y-94.4746 F120.00
G01 X143.0005 Y-95.2054 F120.00
G01 X143.0407 Y-95.2829 F120.00
G01 X143.0407 Y-94.3971 F120.00
M5
G00 X143.0809 Y-94.3341
G01 F60.00
M03 S5000.0
G01 F120.00
G01 X143.0809 Y-95.3459 F120.00
G01 X143.1211 Y-95.3998 F120.00
G01 X143.1211 Y-94.2802 F120.00
G01 X143.1613 Y-94.2359 F120.00
G01 X143.1613 Y-95.4441 F120.00
G01 X143.2015 Y-95.4838 F120.00
G01 X143.2015 Y-94.1962 F120.00
G01 X143.2417 Y-94.1599 F120.00
G01 X143.2417 Y-95.5201 F120.00
G01 X143.2819 Y-95.5501 F120.00
G01 X143.2819 Y-94.1299 F120.00
G01 X143.3221 Y-94.1017 F120.00
G01 X143.3221 Y-95.5783 F120.00
G01 X143.3623 Y-95.6024 F120.00
G01 X143.3623 Y-94.0776 F120.00
G01 X143.4025 Y-94.0557 F120.00
G01 X143.4025 Y-95.6243 F120.00
G01 X143.4427 Y-95.6433 F120.00
G01 X143.4427 Y-94.0367 F120.00
G01 X143.4829 Y-94.0199 F120.00
G01 X143.4829 Y-95.6601 F120.00
G01 X143.5231 Y-95.6745 F120.00
G01 X143.5231 Y-94.0055 F120.00
G01 X143.5425 Y-93.9986 F120.00
G01 X143.5467 Y-93.9973 F120.00
G01 X143.6262 Y-93.9774 F120.00
G01 X143.6305 Y-93.9765 F120.00
G01 X143.7116 Y-93.9645 F120.00
G01 X143.7159 Y-93.9641 F120.00
G01 X143.7978 Y-93.9601 F120.00
G01 X143.8022 Y-93.9601 F120.00
G01 X143.8841 Y-93.9641 F120.00
G01 X143.8884 Y-93.9645 F120.00
G01 X143.9695 Y-93.9765 F120.00
G01 X143.9738 Y-93.9774 F120.00
G01 X144.0533 Y-93.9973 F120.00
G01 X144.0575 Y-93.9986 F120.00
G01 X144.1347 Y-94.0262 F120.00
G01 X144.1388 Y-94.0279 F120.00
G01 X144.2128 Y-94.0629 F120.00
G01 X144.2167 Y-94.0650 F120.00
G01 X144.2870 Y-94.1071 F120.00
G01 X144.2907 Y-94.1096 F120.00
G01 X144.3565 Y-94.1584 F120.00
G01 X144.3599 Y-94.1612 F120.00
G01 X144.4206 Y-94.2162 F120.00
G01 X144.4238 Y-94.2194 F120.00
G01 X144.4788 Y-94.2801 F120.00
G01 X144.4816 Y-94.2835 F120.00
G01 X144.5304 Y-94.3493 F120.00
G01 X144.5329 Y-94.3530 F120.00
G01 X144.5750 Y-94.4233 F120.00
G01 X144.5771 Y-94.4272 F120.00
G01 X144.6121 Y-94.5012 F120.00
G01 X144.6138 Y-94.5053 F120.00
G01 X144.6427 Y-94.5867 F120.00
G01 X144.6626 Y-94.6662 F120.00
G01 X144.6759 Y-94.7559 F120.00
G01 X144.6799 Y-94.8422 F120.00
G01 X144.6755 Y-94.9284 F120.00
G01 X144.6635 Y-95.0095 F120.00
G01 X144.6626 Y-95.0138 F120.00
G01 X144.6427 Y-95.0933 F120.00
G01 X144.6414 Y-95.0975 F120.00
G01 X144.6121 Y-95.1788 F120.00
G01 X144.5771 Y-95.2528 F120.00
G01 X144.5750 Y-95.2567 F120.00
G01 X144.5329 Y-95.3270 F120.00
G01 X144.5304 Y-95.3307 F120.00
G01 X144.4816 Y-95.3965 F120.00
G01 X144.4788 Y-95.3999 F120.00
G01 X144.4238 Y-95.4606 F120.00
G01 X144.4206 Y-95.4638 F120.00
G01 X144.3599 Y-95.5188 F120.00
G01 X144.3565 Y-95.5216 F120.00
G01 X144.2907 Y-95.5704 F120.00
G01 X144.2870 Y-95.5729 F120.00
G01 X144.2167 Y-95.6150 F120.00
G01 X144.2128 Y-95.6171 F120.00
G01 X144.1388 Y-95.6521 F120.00
G01 X144.1347 Y-95.6538 F120.00
G01 X144.0575 Y-95.6814 F120.00
G01 X144.0533 Y-95.6827 F120.00
G01 X143.9738 Y-95.7026 F120.00
G01 X143.9695 Y-95.7035 F120.00
G01 X143.8884 Y-95.7155 F120.00
G01 X143.8841 Y-95.7159 F120.00
G01 X143.8022 Y-95.7199 F120.00
G01 X143.7978 Y-95.7199 F120.00
G01 X143.7159 Y-95.7159 F120.00
G01 X143.7116 Y-95.7155 F120.00
G01 X143.6305 Y-95.7035 F120.00
G01 X143.6262 Y-95.7026 F120.00
G01 X143.5467 Y-95.6827 F120.00
G01 X143.5425 Y-95.6814 F120.00
G01 X143.4653 Y-95.6538 F120.00
G01 X143.4612 Y-95.6521 F120.00
G01 X143.3872 Y-95.6171 F120.00
G01 X143.3833 Y-95.6150 F120.00
G01 X143.3130 Y-95.5729 F120.00
G01 X143.3093 Y-95.5704 F120.00
G01 X143.2435 Y-95.5216 F120.00
G01 X143.2401 Y-95.5188 F120.00
G01 X143.1794 Y-95.4638 F120.00
G01 X143.1762 Y-95.4606 F120.00
G01 X143.1212 Y-95.3999 F120.00
G01 X143.1184 Y-95.3965 F120.00
G01 X143.0696 Y-95.3307 F120.00
G01 X143.0671 Y-95.3270 F120.00
G01 X143.0229 Y-95.2528 F120.00
G01 X142.9862 Y-95.1747 F120.00
G01 X142.9586 Y-95.0975 F120.00
G01 X142.9365 Y-95.0095 F120.00
G01 X142.9241 Y-94.9241 F120.00
G01 X142.9201 Y-94.8378 F120.00
G01 X142.9241 Y-94.7559 F120.00
G01 X142.9374 Y-94.6662 F120.00
G01 X142.9586 Y-94.5825 F120.00
G01 X142.9862 Y-94.5053 F120.00
G01 X143.0250 Y-94.4233 F120.00
G01 X143.0696 Y-94.3493 F120.00
G01 X143.1184 Y-94.2835 F120.00
G01 X143.1212 Y-94.2801 F120.00
G01 X143.1762 Y-94.2194 F120.00
G01 X143.1794 Y-94.2162 F120.00
G01 X143.2401 Y-94.1612 F120.00
G01 X143.2435 Y-94.1584 F120.00
G01 X143.3093 Y-94.1096 F120.00
G01 X143.3130 Y-94.1071 F120.00
G01 X143.3833 Y-94.0650 F120.00
G01 X143.3872 Y-94.0629 F120.00
G01 X143.4612 Y-94.0279 F120.00
G01 X143.4653 Y-94.0262 F120.00
G01 X143.5425 Y-93.9986 F120.00
G01 X143.5633 Y-93.9932 F120.00
G01 X143.5633 Y-95.6868 F120.00
G01 X143.6035 Y-95.6969 F120.00
G01 X143.6035 Y-93.9831 F120.00
G01 X143.6437 Y-93.9746 F120.00
G01 X143.6437 Y-95.7054 F120.00
G01 X143.6839 Y-95.7114 F120.00
G01 X143.6839 Y-93.9686 F120.00
G01 X143.7241 Y-93.9637 F120.00
G01 X143.7241 Y-95.7163 F120.00
G01 X143.7643 Y-95.7183 F120.00
G01 X143.7643 Y-93.9617 F120.00
G01 X143.8045 Y-93.9602 F120.00
G01 X143.8045 Y-95.7198 F120.00
G01 X143.8447 Y-95.7178 F120.00
G01 X143.8447 Y-93.9622 F120.00
G01 X143.8849 Y-93.9642 F120.00
G01 X143.8849 Y-95.7158 F120.00
G01 X143.9251 Y-95.7100 F120.00
G01 X143.9251 Y-93.9700 F120.00
G01 X143.9653 Y-93.9759 F120.00
G01 X143.9653 Y-95.7041 F120.00
G01 X144.0055 Y-95.6947 F120.00
G01 X144.0055 Y-93.9853 F120.00
G01 X144.0457 Y-93.9954 F120.00
G01 X144.0457 Y-95.6846 F120.00
G01 X144.0859 Y-95.6713 F120.00
G01 X144.0859 Y-94.0087 F120.00
G01 X144.1261 Y-94.0231 F120.00
G01 X144.1261 Y-95.6569 F120.00
G01 X144.1663 Y-95.6391 F120.00
G01 X144.1663 Y-94.0409 F120.00
G01 X144.2065 Y-94.0599 F120.00
G01 X144.2065 Y-95.6201 F120.00
G01 X144.2467 Y-95.5970 F120.00
G01 X144.2467 Y-94.0830 F120.00
G01 X144.2869 Y-94.1070 F120.00
G01 X144.2869 Y-95.5730 F120.00
G01 X144.3271 Y-95.5434 F120.00
G01 X144.3271 Y-94.1366 F120.00
G01 X144.3673 Y-94.1679 F120.00
G01 X144.3673 Y-95.5121 F120.00
G01 X144.4075 Y-95.4757 F120.00
G01 X144.4075 Y-94.2043 F120.00
G01 X144.4477 Y-94.2457 F120.00
G01 X144.4477 Y-95.4343 F120.00
G01 X144.4879 Y-95.3880 F120.00
G01 X144.4879 Y-94.2920 F120.00
G01 X144.5281 Y-94.3462 F120.00
G01 X144.5281 Y-95.3338 F120.00
G01 X144.5683 Y-95.2679 F120.00
G01 X144.5683 Y-94.4121 F120.00
G01 X144.6085 Y-94.4936 F120.00
G01 X144.6085 Y-95.1864 F120.00
G01 X144.6487 Y-95.0694 F120.00
G01 X144.6487 Y-94.6106 F120.00
M5
G00 X146.0700 Y-94.2496
G01 F60.00
M03 S5000.0
G01 F120.00
G01 X146.0700 Y-93.3504 F120.00
G01 X146.0712 Y-93.3248 F120.00
G01 X146.0759 Y-93.2932 F120.00
G01 X146.0828 Y-93.2666 F120.00
G01 X146.0922 Y-93.2408 F120.00
G01 X146.1042 Y-93.2161 F120.00
G01 X146.1185 Y-93.1926 F120.00
G01 X146.1350 Y-93.1707 F120.00
G01 X146.1536 Y-93.1505 F120.00
G01 X146.1741 Y-93.1322 F120.00
G01 X146.1963 Y-93.1160 F120.00
G01 X146.2200 Y-93.1021 F120.00
G01 X146.2408 Y-93.0922 F120.00
G01 X146.2709 Y-93.0815 F120.00
G01 X146.2976 Y-93.0750 F120.00
G01 X146.3248 Y-93.0712 F120.00
G01 X146.3504 Y-93.0700 F120.00
G01 X147.0496 Y-93.0700 F120.00
G01 X147.0796 Y-93.0716 F120.00
G01 X147.1068 Y-93.0759 F120.00
G01 X147.1334 Y-93.0828 F120.00
G01 X147.1592 Y-93.0922 F120.00
G01 X147.1839 Y-93.1042 F120.00
G01 X147.2074 Y-93.1185 F120.00
G01 X147.2293 Y-93.1350 F120.00
G01 X147.2495 Y-93.1536 F120.00
G01 X147.2678 Y-93.1741 F120.00
G01 X147.2840 Y-93.1963 F120.00
G01 X147.2979 Y-93.2200 F120.00
G01 X147.3078 Y-93.2408 F120.00
G01 X147.3185 Y-93.2709 F120.00
G01 X147.3250 Y-93.2976 F120.00
G01 X147.3288 Y-93.3248 F120.00
G01 X147.3300 Y-93.3504 F120.00
G01 X147.3300 Y-94.2496 F120.00
G01 X147.3284 Y-94.2796 F120.00
G01 X147.3241 Y-94.3068 F120.00
G01 X147.3172 Y-94.3334 F120.00
G01 X147.3078 Y-94.3592 F120.00
G01 X147.2958 Y-94.3839 F120.00
G01 X147.2815 Y-94.4074 F120.00
G01 X147.2650 Y-94.4293 F120.00
G01 X147.2464 Y-94.4495 F120.00
G01 X147.2259 Y-94.4678 F120.00
G01 X147.2037 Y-94.4840 F120.00
G01 X147.1800 Y-94.4979 F120.00
G01 X147.1592 Y-94.5078 F120.00
G01 X147.1291 Y-94.5185 F120.00
G01 X147.1024 Y-94.5250 F120.00
G01 X147.0752 Y-94.5288 F120.00
G01 X147.0496 Y-94.5300 F120.00
G01 X146.3504 Y-94.5300 F120.00
G01 X146.3248 Y-94.5288 F120.00
G01 X146.2976 Y-94.5250 F120.00
G01 X146.2666 Y-94.5172 F120.00
G01 X146.2408 Y-94.5078 F120.00
G01 X146.2161 Y-94.4958 F120.00
G01 X146.1926 Y-94.4815 F120.00
G01 X146.1707 Y-94.4650 F120.00
G01 X146.1505 Y-94.4464 F120.00
G01 X146.1350 Y-94.4293 F120.00
G01 X146.1160 Y-94.4037 F120.00
G01 X146.1021 Y-94.3800 F120.00
G01 X146.0905 Y-94.3551 F120.00
G01 X146.0815 Y-94.3291 F120.00
G01 X146.0750 Y-94.3024 F120.00
G01 X146.0712 Y-94.2752 F120.00
G01 X146.0700 Y-94.2496 F120.00
M5
G00 X146.0700 Y-94.2496
G01 F60.00
M03 S5000.0
G01 F120.00
G01 X146.0700 Y-93.3504 F120.00
M5
G00 X146.1102 Y-93.2060
G01 F60.00
M03 S5000.0
G01 F120.00
G01 X146.1102 Y-94.3940 F120.00
G01 X146.1504 Y-94.4463 F120.00
G01 X146.1504 Y-93.1537 F120.00
G01 X146.1906 Y-93.1200 F120.00
G01 X146.1906 Y-94.4800 F120.00
G01 X146.2308 Y-94.5030 F120.00
G01 X146.2308 Y-93.0970 F120.00
G01 X146.2710 Y-93.0814 F120.00
G01 X146.2710 Y-94.5186 F120.00
G01 X146.3112 Y-94.5270 F120.00
G01 X146.3112 Y-93.0730 F120.00
G01 X146.3514 Y-93.0700 F120.00
G01 X146.3514 Y-94.5300 F120.00
G01 X146.3916 Y-94.5300 F120.00
G01 X146.3916 Y-93.0700 F120.00
G01 X146.4318 Y-93.0700 F120.00
G01 X146.4318 Y-94.5300 F120.00
G01 X146.4720 Y-94.5300 F120.00
G01 X146.4720 Y-93.0700 F120.00
G01 X146.5122 Y-93.0700 F120.00
G01 X146.5122 Y-94.5300 F120.00
G01 X146.5524 Y-94.5300 F120.00
G01 X146.5524 Y-93.0700 F120.00
G01 X146.5926 Y-93.0700 F120.00
G01 X146.5926 Y-94.5300 F120.00
G01 X146.6328 Y-94.5300 F120.00
G01 X146.6328 Y-93.0700 F120.00
G01 X146.6730 Y-93.0700 F120.00
G01 X146.6730 Y-94.5300 F120.00
G01 X146.7132 Y-94.5300 F120.00
G01 X146.7132 Y-93.0700 F120.00
G01 X146.7534 Y-93.0700 F120.00
G01 X146.7534 Y-94.5300 F120.00
G01 X146.7936 Y-94.5300 F120.00
G01 X146.7936 Y-93.0700 F120.00
G01 X146.8338 Y-93.0700 F120.00
G01 X146.8338 Y-94.5300 F120.00
G01 X146.8740 Y-94.5300 F120.00
G01 X146.8740 Y-93.0700 F120.00
G01 X146.9142 Y-93.0700 F120.00
G01 X146.9142 Y-94.5300 F120.00
G01 X146.9544 Y-94.5300 F120.00
G01 X146.9544 Y-93.0700 F120.00
G01 X146.9946 Y-93.0700 F120.00
G01 X146.9946 Y-94.5300 F120.00
G01 X147.0348 Y-94.5300 F120.00
G01 X147.0348 Y-93.0700 F120.00
G01 X147.0750 Y-93.0712 F120.00
G01 X147.0750 Y-94.5288 F120.00
G01 X147.1152 Y-94.5220 F120.00
G01 X147.1152 Y-93.0780 F120.00
G01 X147.1554 Y-93.0907 F120.00
G01 X147.1554 Y-94.5093 F120.00
G01 X147.1956 Y-94.4888 F120.00
G01 X147.1956 Y-93.1112 F120.00
G01 X147.2358 Y-93.1409 F120.00
G01 X147.2358 Y-94.4591 F120.00
G01 X147.2760 Y-94.4148 F120.00
G01 X147.2760 Y-93.1852 F120.00
G01 X147.3162 Y-93.2637 F120.00
G01 X147.3162 Y-94.3363 F120.00
M5
G00 X148.0700 Y-94.2496
G01 F60.00
M03 S5000.0
G01 F120.00
G01 X148.0700 Y-93.3504 F120.00
G01 X148.0712 Y-93.3248 F120.00
G01 X148.0759 Y-93.2932 F120.00
G01 X148.0828 Y-93.2666 F120.00
G01 X148.0922 Y-93.2408 F120.00
G01 X148.1042 Y-93.2161 F120.00
G01 X148.1185 Y-93.1926 F120.00
G01 X148.1350 Y-93.1707 F120.00
G01 X148.1536 Y-93.1505 F120.00
G01 X148.1741 Y-93.1322 F120.00
G01 X148.1963 Y-93.1160 F120.00
G01 X148.2200 Y-93.1021 F120.00
G01 X148.2408 Y-93.0922 F120.00
G01 X148.2709 Y-93.0815 F120.00
G01 X148.2976 Y-93.0750 F120.00
G01 X148.3248 Y-93.0712 F120.00
G01 X148.3504 Y-93.0700 F120.00
G01 X149.0496 Y-93.0700 F120.00
G01 X149.0796 Y-93.0716 F120.00
G01 X149.1068 Y-93.0759 F120.00
G01 X149.1334 Y-93.0828 F120.00
G01 X149.1592 Y-93.0922 F120.00
G01 X149.1839 Y-93.1042 F120.00
G01 X149.2074 Y-93.1185 F120.00
G01 X149.2293 Y-93.1350 F120.00
G01 X149.2495 Y-93.1536 F120.00
G01 X149.2678 Y-93.1741 F120.00
G01 X149.2840 Y-93.1963 F120.00
G01 X149.2979 Y-93.2200 F120.00
G01 X149.3078 Y-93.2408 F120.00
G01 X149.3185 Y-93.2709 F120.00
G01 X149.3250 Y-93.2976 F120.00
G01 X149.3288 Y-93.3248 F120.00
G01 X149.3300 Y-93.3504 F120.00
G01 X149.3300 Y-94.2496 F120.00
G01 X149.3284 Y-94.2796 F120.00
G01 X149.3241 Y-94.3068 F120.00
G01 X149.3172 Y-94.3334 F120.00
G01 X149.3078 Y-94.3592 F120.00
G01 X149.2958 Y-94.3839 F120.00
G01 X149.2815 Y-94.4074 F120.00
G01 X149.2650 Y-94.4293 F120.00
G01 X149.2464 Y-94.4495 F120.00
G01 X149.2259 Y-94.4678 F120.00
G01 X149.2037 Y-94.4840 F120.00
G01 X149.1800 Y-94.4979 F120.00
G01 X149.1592 Y-94.5078 F120.00
G01 X149.1291 Y-94.5185 F120.00
G01 X149.1024 Y-94.5250 F120.00
G01 X149.0752 Y-94.5288 F120.00
G01 X149.0496 Y-94.5300 F120.00
G01 X148.3504 Y-94.5300 F120.00
